various/display_lut_agx.cube
TITLE "utilities/display_lut_agx.cube"
LUT_3D_SIZE 9
0 0 0
0.237694 -0.00970389 -0.0096681
0.46382 0.0532076 0.0532843
0.674238 0.174921 0.175069
0.849001 0.367468 0.367665
0.952898 0.578558 0.578749
0.998419 0.771929 0.772091
1 0.91187 0.911964
1 0.981254 0.981294
0.0138383 0.244187 0.0138383
0.251602 0.251583 0.0361129
0.468161 0.270611 0.08441
0.675412 0.323716 0.193324
0.849255 0.43702 0.375069
0.952934 0.601358 0.580919
0.998424 0.778039 0.772649
1 0.912955 0.912062
1 0.981394 0.981307
0.104064 0.471197 0.104064
0.285603 0.473453 0.11773
0.479502 0.479479 0.15133
0.678579 0.498104 0.23682
0.849947 0.54826 0.393942
0.953035 0.650818 0.586715
0.998436 0.79323 0.774164
1 0.915814 0.912328
1 0.981774 0.981341
0.266045 0.681029 0.266045
0.369623 0.681635 0.272739
0.512507 0.683281 0.290037
0.688649 0.688628 0.338859
0.852209 0.705101 0.445429
0.953367 0.748815 0.604621
0.998478 0.831904 0.779065
1 0.92429 0.913205
1 0.982991 0.981455
0.476669 0.853895 0.476669
0.515524 0.854025 0.478856
0.590234 0.854377 0.4847
0.717769 0.85554 0.502799
0.859304 0.85929 0.551777
0.95445 0.87058 0.652749
0.998614 0.898612 0.793972
1 0.94453 0.916021
1 0.986569 0.98183
0.681283 0.955247 0.681283
0.692868 0.955265 0.681889
0.720413 0.955316 0.683534
0.784141 0.955484 0.688878
0.878992 0.956036 0.705341
0.957813 0.957807 0.749028
0.999059 0.963055 0.832064
1 0.975592 0.924381
1 0.994981 0.98303
0.853072 0.999384 0.853072
0.855631 0.999386 0.853202
0.862234 0.999393 0.853559
0.880717 0.999413 0.854735
0.919256 0.999482 0.858527
0.966887 0.999709 0.869937
1 1 0.898221
1 1 0.944415
1 1 0.986567
0.95471 1 0.95471
0.955082 1 0.954728
0.956079 1 0.95478
0.959187 1 0.954951
0.967666 1 0.955512
0.984449 1 0.957314
1 1 0.962647
1 1 0.975353
1 1 0.994909
0.999146 1 0.999146
0.999192 1 0.999148
0.999317 1 0.999155
0.999726 1 0.999176
1 1 0.999246
1 1 0.999476
1 1 1
1 1 1
1 1 1
0.0142937 0.0142606 0.244307
0.251738 0.036444 0.251706
0.468204 0.0846132 0.270745
0.675424 0.193352 0.323872
0.849257 0.374948 0.437199
0.952935 0.580752 0.60154
0.998424 0.772493 0.778197
1 0.911968 0.913048
1 0.981266 0.981434
0.0529676 0.257818 0.257808
0.264793 0.264765 0.264763
0.472434 0.282689 0.282707
0.676588 0.333072 0.333136
0.849511 0.442131 0.442258
0.952972 0.603262 0.603424
0.998429 0.778574 0.778727
1 0.913052 0.913144
1 0.981407 0.981447
0.128958 0.475392 0.290893
0.296868 0.477593 0.296843
0.4835 0.483475 0.312292
0.67973 0.501682 0.356445
0.850201 0.550902 0.455394
0.953072 0.652204 0.608468
0.998441 0.793695 0.780162
1 0.915906 0.913405
1 0.981787 0.981481
0.278391 0.68216 0.373084
0.377023 0.682761 0.377007
0.515791 0.684395 0.387337
0.689722 0.689701 0.418021
0.852456 0.706056 0.492984
0.953404 0.7495 0.624183
0.998482 0.832217 0.784813
1 0.924367 0.914264
1 0.983002 0.981594
0.480734 0.854137 0.517024
0.518748 0.854266 0.518741
0.592276 0.854617 0.523351
0.71864 0.855776 0.537823
0.859529 0.859515 0.578402
0.954486 0.870773 0.66729
0.998619 0.898737 0.798995
1 0.944577 0.917023
1 0.986579 0.981967
0.682413 0.955281 0.693352
0.693911 0.9553 0.693909
0.721266 0.95535 0.695421
0.784648 0.955518 0.700343
0.879163 0.956069 0.715571
0.957845 0.957838 0.756412
0.999063 0.963082 0.835479
1 0.975609 0.925224
1 0.994987 0.983159
0.853316 0.999389 0.85574
0.855867 0.999391 0.855866
0.862451 0.999397 0.856211
0.880884 0.999418 0.857348
0.919342 0.999486 0.861018
0.966911 0.999713 0.872076
1 1 0.899609
1 1 0.944937
1 1 0.986675
0.954745 1 0.955098
0.955116 1 0.955116
0.956112 1 0.955167
0.959218 1 0.955336
0.967688 1 0.955891
0.98446 1 0.957672
1 1 0.962947
1 1 0.975537
1 1 0.994975
0.99915 1 0.999194
0.999196 1 0.999196
0.999322 1 0.999203
0.99973 1 0.999224
1 1 0.999294
1 1 0.999523
1 1 1
1 1 1
1 1 1
0.105045 0.104973 0.471332
0.286034 0.11857 0.473589
0.479652 0.152018 0.479617
0.678622 0.237211 0.498247
0.849956 0.394 0.548414
0.953036 0.586607 0.650982
0.998437 0.774023 0.793378
1 0.912238 0.915905
1 0.981301 0.981814
0.1296 0.291187 0.475486
0.297168 0.297122 0.477688
0.483608 0.312534 0.483573
0.679762 0.356593 0.501789
0.850208 0.455395 0.551028
0.953073 0.608358 0.652354
0.998441 0.780025 0.793839
1 0.913315 0.915995
1 0.981441 0.981826
0.185658 0.486369 0.486358
0.324844 0.488431 0.488423
0.493979 0.493949 0.493947
0.682837 0.511096 0.511113
0.850892 0.55792 0.557978
0.953173 0.655935 0.656048
0.998454 0.794959 0.79509
1 0.916155 0.916242
1 0.98182 0.98186
0.308845 0.685213 0.518146
0.395885 0.685801 0.519851
0.524458 0.687401 0.524431
0.692622 0.692599 0.538811
0.853127 0.708637 0.579172
0.953504 0.751355 0.667725
0.998495 0.83307 0.799149
1 0.924576 0.917054
1 0.983034 0.981971
0.491384 0.854794 0.593749
0.527264 0.854922 0.594821
0.597735 0.855271 0.597718
0.720996 0.85642 0.606997
0.860143 0.860129 0.634449
0.954583 0.871301 0.700986
0.998631 0.899079 0.811609
1 0.944706 0.919667
1 0.986605 0.982337
0.685463 0.955376 0.721886
0.696726 0.955394 0.722339
0.723577 0.955445 0.723569
0.786023 0.955612 0.727585
0.879631 0.956162 0.740124
0.957932 0.957926 0.774563
0.999075 0.963155 0.844193
1 0.975654 0.927456
1 0.995003 0.983508
0.85398 0.9994 0.862609
0.85651 0.999402 0.862724
0.863042 0.999409 0.86304
0.88134 0.999429 0.86408
0.919575 0.999498 0.867442
0.966974 0.999724 0.87762
1 1 0.903247
1 1 0.946328
1 1 0.986965
0.954841 1 0.956137
0.955211 1 0.956155
0.956204 1 0.956204
0.959301 1 0.956367
0.96775 1 0.956905
0.984489 1 0.958631
1 1 0.963752
1 1 0.976033
1 1 0.995151
0.999162 1 0.999325
0.999208 1 0.999327
0.999333 1 0.999333
0.999742 1 0.999354
1 1 0.999423
1 1 0.999651
1 1 1
1 1 1
1 1 1
0.267669 0.267551 0.681153
0.370588 0.27419 0.681759
0.512932 0.291354 0.683406
0.688787 0.339842 0.688755
0.85224 0.445888 0.705231
0.953372 0.604682 0.748949
0.998478 0.778975 0.832028
1 0.913124 0.924372
1 0.981416 0.983029
0.279803 0.3739 0.682273
0.377879 0.377801 0.682875
0.516175 0.388077 0.684509
0.689849 0.418613 0.689817
0.852485 0.493299 0.706176
0.953408 0.624223 0.749627
0.998483 0.784723 0.832339
1 0.914184 0.924448
1 0.981556 0.983041
0.309782 0.518425 0.685295
0.396479 0.520125 0.685884
0.524738 0.524692 0.687485
0.692717 0.539035 0.692686
0.85315 0.579306 0.708731
0.953507 0.667726 0.751463
0.998495 0.799061 0.833182
1 0.916977 0.924655
1 0.981933 0.983072
0.385645 0.694928 0.694919
0.447327 0.695478 0.695469
0.550384 0.696973 0.696966
0.701864 0.701836 0.701834
0.855324 0.716891 0.716906
0.953835 0.757334 0.757383
0.998536 0.83585 0.835934
1 0.925267 0.925338
1 0.98314 0.983177
0.522587 0.856943 0.722867
0.552781 0.857068 0.723316
0.614661 0.857407 0.724538
0.728548 0.858526 0.728524
0.862152 0.862136 0.740977
0.954903 0.873028 0.775204
0.998672 0.900204 0.844509
1 0.945131 0.92754
1 0.986693 0.983521
0.695169 0.955688 0.78712
0.70571 0.955707 0.787384
0.730987 0.955756 0.788104
0.790479 0.955922 0.790465
0.881164 0.956466 0.797968
0.958221 0.958214 0.819588
0.999115 0.963396 0.867879
1 0.975803 0.934166
1 0.995056 0.984626
0.856154 0.999439 0.881706
0.858615 0.999441 0.881794
0.864975 0.999447 0.882035
0.882835 0.999468 0.882831
0.920342 0.999536 0.885411
0.967185 0.999762 0.893317
1 1 0.91387
1 1 0.950604
1 1 0.9879
0.955159 1 0.959368
0.955526 1 0.959384
0.956509 1 0.959429
0.959577 1 0.959576
0.967955 1 0.960061
0.984588 1 0.96162
1 1 0.966277
1 1 0.977611
1 1 0.995724
0.999202 1 0.999751
0.999247 1 0.999753
0.999372 1 0.999759
0.999779 1 0.999779
1 1 0.999846
1 1 1
1 1 1
1 1 1
1 1 1
0.478432 0.478304 0.853984
0.51692 0.480467 0.854113
0.591117 0.486251 0.854466
0.718145 0.504171 0.855629
0.859401 0.552748 0.859379
0.954466 0.653179 0.870668
0.998616 0.794024 0.898694
1 0.91597 0.944592
1 0.981795 0.986604
0.482416 0.51828 0.854223
0.520086 0.519982 0.854352
0.593127 0.524553 0.854704
0.719005 0.538907 0.855863
0.859624 0.579207 0.859601
0.954501 0.667669 0.870859
0.998621 0.799041 0.898818
1 0.916972 0.944639
1 0.981932 0.986613
0.49286 0.594486 0.854874
0.528452 0.595552 0.855002
0.598504 0.598432 0.85535
0.721331 0.607661 0.8565
0.860231 0.634978 0.860209
0.954597 0.701264 0.871381
0.998633 0.811641 0.899157
1 0.919617 0.944766
1 0.982303 0.98664
0.523527 0.723111 0.857001
0.553563 0.723558 0.857126
0.615193 0.724776 0.857465
0.728792 0.728752 0.858584
0.862218 0.74117 0.862196
0.954914 0.775316 0.873091
0.998673 0.84451 0.90027
1 0.927492 0.945187
1 0.983488 0.986726
0.597144 0.863695 0.863688
0.616796 0.863809 0.863802
0.660558 0.864119 0.864113
0.750913 0.865144 0.865139
0.868474 0.868455 0.868454
0.955947 0.878487 0.878496
0.998808 0.903798 0.903827
1 0.946512 0.946553
1 0.986983 0.987013
0.723325 0.956706 0.882341
0.731948 0.956724 0.882428
0.752959 0.956773 0.882667
0.804094 0.956933 0.883455
0.886027 0.95746 0.886011
0.959161 0.959154 0.893846
0.999246 0.964187 0.914236
1 0.976292 0.950758
1 0.995231 0.987935
0.862977 0.999567 0.920934
0.86523 0.999569 0.920978
0.871068 0.999575 0.921099
0.887579 0.999596 0.921498
0.922811 0.999664 0.922803
0.967876 0.999887 0.926901
1 1 0.938307
1 1 0.961822
1 1 0.990697
0.956194 1 0.968115
0.95655 1 0.968126
0.957502 1 0.968159
0.960477 1 0.968267
0.968626 1 0.968624
0.984912 1 0.969778
1 1 0.973281
1 1 0.982169
1 1 0.997482
0.999332 1 1
0.999377 1 1
0.999501 1 1
0.999904 1 1
1 1 1
1 1 1
1 1 1
1 1 1
1 1 1
0.682905 0.682788 0.955289
0.694365 0.683386 0.955308
0.721638 0.685013 0.955358
0.784869 0.690297 0.955526
0.879238 0.706586 0.956078
0.957859 0.74988 0.957848
0.999065 0.832392 0.963095
1 0.92441 0.975628
1 0.983009 0.995007
0.684012 0.694726 0.955324
0.695386 0.695277 0.955342
0.722476 0.696774 0.955393
0.785367 0.701644 0.95556
0.879408 0.716719 0.956111
0.957891 0.757208 0.95788
0.999069 0.835791 0.963122
1 0.925252 0.975644
1 0.983138 0.995012
0.686998 0.722984 0.955417
0.698145 0.723432 0.955435
0.724743 0.724651 0.955486
0.78672 0.72863 0.955653
0.879869 0.74106 0.956202
0.957977 0.775233 0.957966
0.999081 0.844469 0.963194
1 0.927481 0.975689
1 0.983487 0.995028
0.696511 0.787723 0.955726
0.706954 0.787986 0.955744
0.732018 0.7887 0.955794
0.791105 0.791046 0.95596
0.881382 0.798502 0.956504
0.958262 0.819996 0.958251
0.99912 0.868067 0.963433
1 0.934182 0.975836
1 0.984605 0.995081
0.724166 0.882499 0.956734
0.732736 0.882586 0.956752
0.753627 0.882823 0.9568
0.804517 0.883609 0.95696
0.886182 0.886156 0.957488
0.959192 0.893966 0.959182
0.99925 0.9143 0.964216
1 0.950758 0.976321
1 0.987915 0.995254
0.787885 0.959875 0.959872
0.792981 0.959891 0.959888
0.805788 0.959934 0.959931
0.839268 0.960079 0.960076
0.899937 0.960555 0.960553
0.962097 0.962088 0.962087
0.999674 0.966669 0.966673
1 0.97785 0.977862
1 0.9958 0.995817
0.881961 0.999984 0.9684
0.883687 0.999987 0.968412
0.888188 0.999993 0.968444
0.901174 1 0.968551
0.930193 1 0.968904
0.970053 1 0.970046
1 1 0.973513
1 1 0.982325
1 1 0.997545
0.959415 1 0.985159
0.959735 1 0.985165
0.960595 1 0.98518
0.96329 1 0.985231
0.970744 1 0.985399
0.985952 1 0.985948
1 1 0.987668
1 1 0.992414
1 1 1
0.999757 1 1
0.999801 1 1
0.999921 1 1
1 1 1
1 1 1
1 1 1
1 1 1
1 1 1
1 1 1
0.854235 0.85415 0.999402
0.856757 0.854279 0.999404
0.863267 0.854631 0.99941
0.881515 0.85579 0.999431
0.919664 0.859528 0.9995
0.966999 0.870784 0.999726
1 0.898744 1
1 0.944579 1
1 0.986579 1
0.854473 0.856781 0.999406
0.856987 0.856905 0.999408
0.863479 0.857246 0.999414
0.881678 0.858366 0.999435
0.919748 0.861984 0.999504
0.967022 0.872897 0.99973
1 0.900119 1
1 0.945098 1
1 0.986687 1
0.855121 0.863556 0.999417
0.857615 0.86367 0.99942
0.864056 0.863981 0.999426
0.882124 0.865008 0.999447
0.919976 0.868325 0.999515
0.967085 0.878374 0.999741
1 0.903723 1
1 0.946483 1
1 0.986977 1
0.857242 0.882417 0.999456
0.85967 0.882504 0.999458
0.865945 0.882742 0.999464
0.883587 0.883528 0.999485
0.92073 0.886079 0.999553
0.967293 0.893898 0.999779
1 0.914253 1
1 0.950738 1
1 0.987911 1
0.863909 0.921269 0.999582
0.866135 0.921313 0.999585
0.871903 0.921433 0.999591
0.888232 0.921828 0.999611
0.923156 0.923123 0.999679
0.967974 0.92719 0.999902
1 0.938516 1
1 0.961909 1
1 0.990704 1
0.88251 0.968471 0.999996
0.884221 0.968482 0.999998
0.888686 0.968515 1
0.901576 0.968621 1
0.930418 0.968973 1
0.970122 0.970111 1
1 0.973566 1
1 0.982352 1
1 0.997545 1
0.92102 1 1
0.921888 1 1
0.924186 1 1
0.931095 1 1
0.948198 1 1
0.976176 1 1
1 1 1
1 1 1
1 1 1
0.968138 1 1
0.968373 1 1
0.969008 1 1
0.971014 1 1
0.976713 1 1
0.989043 1 1
1 1 1
1 1 1
1 1 1
1 1 1
1 1 1
1 1 1
1 1 1
1 1 1
1 1 1
1 1 1
1 1 1
1 1 1
0.955266 0.955226 1
0.955632 0.955244 1
0.956612 0.955295 1
0.95967 0.955463 1
0.968025 0.956015 1
0.984621 0.957787 1
1 0.963038 1
1 0.975582 1
1 0.994977 1
0.9553 0.955607 1
0.955666 0.955626 1
0.956645 0.955676 1
0.9597 0.955841 1
0.968047 0.956387 1
0.984632 0.958139 1
1 0.963334 1
1 0.975764 1
1 0.995042 1
0.955394 0.95663 1
0.955758 0.956647 1
0.956734 0.956696 1
0.959781 0.956856 1
0.968107 0.957385 1
0.984661 0.959083 1
1 0.964127 1
1 0.976255 1
1 0.995218 1
0.955703 0.95981 1
0.956064 0.959826 1
0.957031 0.95987 1
0.96005 0.960015 1
0.968307 0.960492 1
0.984757 0.962028 1
1 0.966618 1
1 0.977817 1
1 0.995788 1
0.956712 0.968434 1
0.957061 0.968446 1
0.957998 0.968478 1
0.960927 0.968584 1
0.968963 0.968937 1
0.985075 0.970076 1
1 0.973536 1
1 0.982332 1
1 0.997537 1
0.959851 0.9853 1
0.960167 0.985306 1
0.961015 0.985321 1
0.963673 0.985371 1
0.971034 0.985538 1
0.986097 0.986083 1
1 0.987789 1
1 0.992501 1
1 1 1
0.968385 1 1
0.968618 1 1
0.969247 1 1
0.971236 1 1
0.976888 1 1
0.989137 1 1
1 1 1
1 1 1
1 1 1
0.985152 1 1
0.985263 1 1
0.985563 1 1
0.986529 1 1
0.989419 1 1
0.996493 1 1
1 1 1
1 1 1
1 1 1
1 1 1
1 1 1
1 1 1
1 1 1
1 1 1
1 1 1
1 1 1
1 1 1
1 1 1
0.999374 0.999358 1
0.99942 0.99936 1
0.999543 0.999366 1
0.999945 0.999387 1
1 0.999456 1
1 0.999683 1
1 1 1
1 1 1
1 1 1
0.999379 0.999405 1
0.999424 0.999407 1
0.999547 0.999414 1
0.999949 0.999434 1
1 0.999503 1
1 0.999729 1
1 1 1
1 1 1
1 1 1
0.99939 0.999534 1
0.999435 0.999536 1
0.999559 0.999542 1
0.99996 0.999563 1
1 0.999631 1
1 0.999854 1
1 1 1
1 1 1
1 1 1
0.999429 0.999953 1
0.999474 0.999955 1
0.999596 0.999961 1
0.999997 0.999981 1
1 1 1
1 1 1
1 1 1
1 1 1
1 1 1
0.999556 1 1
0.9996 1 1
0.999722 1 1
1 1 1
1 1 1
1 1 1
1 1 1
1 1 1
1 1 1
0.99997 1 1
1 1 1
1 1 1
1 1 1
1 1 1
1 1 1
1 1 1
1 1 1
1 1 1
1 1 1
1 1 1
1 1 1
1 1 1
1 1 1
1 1 1
1 1 1
1 1 1
1 1 1
1 1 1
1 1 1
1 1 1
1 1 1
1 1 1
1 1 1
1 1 1
1 1 1
1 1 1
1 1 1
1 1 1
1 1 1
1 1 1
1 1 1
1 1 1
1 1 1
1 1 1
1 1 1
