various/display_lut_aces_10.cube
TITLE "utilities/display_lut_aces_10.cube"
LUT_3D_SIZE 5
7.89041e-10 7.89037e-10 7.8904e-10
0.234629 -0.055 -0.055
0.933183 -0.00215952 0.0681895
1 0.837007 0.606308
1 0.995602 0.966094
-0.055 0.25667 -0.055
0.290438 0.259626 -0.055
0.929673 0.344895 0.0874456
1 0.849679 0.617749
1 0.995742 0.966253
0.564252 0.867238 0.324506
0.635079 0.8654 0.330636
0.895648 0.861542 0.390385
1 0.91845 0.713802
1 0.997088 0.967874
0.966477 1 0.910543
0.967283 1 0.910695
0.97464 1 0.912281
1 0.999281 0.927204
1 1 0.980607
1 1 1
1 1 1
1 1 1
1 1 1
1 1 1
-0.055 0.0478358 0.276403
0.258597 0.0409071 0.278995
0.933847 0.138195 0.325376
1 0.839474 0.678178
1 0.995625 0.967163
-0.055 0.291145 0.291588
0.295924 0.295887 0.29585
0.923565 0.379878 0.34218
1 0.851754 0.686209
1 0.995765 0.967315
0.569459 0.86905 0.48287
0.637847 0.867265 0.486512
0.892487 0.863456 0.523939
1 0.919066 0.754267
1 0.997106 0.968866
0.966316 1 0.915118
0.967119 1 0.915257
0.974454 1 0.916706
1 0.999286 0.930427
1 1 0.981132
1 1 1
1 1 1
1 1 1
1 1 1
1 1 1
-0.055 0.460673 0.892877
0.358595 0.462916 0.891879
0.931226 0.512678 0.886979
1 0.862359 0.896514
1 0.995871 0.976191
0.113761 0.566766 0.88846
0.384844 0.567895 0.887749
0.916885 0.603673 0.8843
1 0.871308 0.896939
1 0.996006 0.976289
0.640639 0.886631 0.88026
0.686044 0.885337 0.880331
0.882016 0.881995 0.881977
1 0.925963 0.903326
1 0.997304 0.977294
0.965608 1 0.946588
0.966379 1 0.946651
0.973455 1 0.947313
1 0.999392 0.954086
1 1 0.985888
1 1 1
1 1 1
1 1 1
1 1 1
1 1 1
0.862584 0.938058 1
0.869759 0.93788 1
0.921712 0.937213 1
1 0.951859 1
1 0.99839 1
0.86542 0.940733 1
0.872301 0.940556 1
0.922442 0.939831 1
1 0.953445 1
1 0.99849 1
0.890714 0.960701 1
0.895305 0.960555 1
0.930564 0.95972 1
1 0.966556 1
1 0.999494 1
0.973535 1 1
0.974031 1 1
0.978749 1 1
1 1 1
1 1 1
1 1 1
1 1 1
1 1 1
1 1 1
1 1 1
0.997969 1 1
0.998054 1 1
0.998923 1 1
1 1 1
1 1 1
0.997998 1 1
0.998082 1 1
0.998949 1 1
1 1 1
1 1 1
0.998295 1 1
0.998377 1 1
0.99922 1 1
1 1 1
1 1 1
1 1 1
1 1 1
1 1 1
1 1 1
1 1 1
1 1 1
1 1 1
1 1 1
1 1 1
1 1 1
