various/display_lut_aces_10_no_blue_fix.cube
TITLE "utilities/display_lut_aces_10_no_blue_fix.cube"
LUT_3D_SIZE 5
7.89041e-10 7.89037e-10 7.8904e-10
0.244537 -0.055 -0.055
0.947287 0.0993727 0.0641536
1 0.854975 0.611221
1 0.997593 0.966916
-0.055 0.28965 -0.055
0.291294 0.29463 -0.055
0.938948 0.393263 0.0763051
1 0.866622 0.622926
1 0.997718 0.967075
0.572168 0.889874 0.329546
0.642244 0.887913 0.335762
0.895994 0.88275 0.39623
1 0.930106 0.719321
1 0.998956 0.968693
0.967998 1 0.913014
0.968774 1 0.913162
0.975868 1 0.914704
1 1 0.929206
1 1 0.981294
1 1 1
1 1 1
1 1 1
1 1 1
1 1 1
-0.055 -0.055 0.277678
0.259948 -0.055 0.27954
0.948633 0.102347 0.326215
1 0.854892 0.681295
1 0.997588 0.967941
-0.055 0.289623 0.291689
0.295927 0.295895 0.295849
0.933924 0.396627 0.341762
1 0.866522 0.689448
1 0.997714 0.968094
0.571605 0.889433 0.485452
0.640917 0.887508 0.489165
0.892842 0.882493 0.527268
1 0.930004 0.75795
1 0.998952 0.969643
0.967783 1 0.917343
0.968558 1 0.917478
0.975648 1 0.91889
1 1 0.932252
1 1 0.981794
1 1 1
1 1 1
1 1 1
1 1 1
1 1 1
-0.055 -0.055 0.908227
0.320748 -0.055 0.906023
0.976442 0.120238 0.896581
1 0.855444 0.897143
1 0.997558 0.976637
-0.00212184 0.310762 0.901388
0.366843 0.315074 0.899792
0.957074 0.405499 0.892264
1 0.86692 0.897416
1 0.997683 0.976735
0.599713 0.887153 0.880428
0.657425 0.885588 0.880463
0.882017 0.881999 0.881977
1 0.929977 0.903435
1 0.998923 0.977746
0.966456 1 0.947437
0.96722 1 0.947499
0.974232 1 0.94816
1 1 0.954901
1 1 0.986336
1 1 1
1 1 1
1 1 1
1 1 1
1 1 1
0.887769 0.421896 1
0.90923 0.431676 1
1 0.532566 1
1 0.870111 1
1 0.997572 1
0.870859 0.555175 1
0.891259 0.561557 1
0.99134 0.630659 1
1 0.879157 1
1 0.997696 1
0.843937 0.892171 1
0.855388 0.892138 1
0.927002 0.894236 1
1 0.933593 1
1 0.998935 1
0.969168 1 1
0.969785 1 1
0.975574 1 1
1 1 1
1 1 1
1 1 1
1 1 1
1 1 1
1 1 1
1 1 1
1 0.934115 1
1 0.934346 1
1 0.936702 1
1 0.956411 1
1 0.999062 1
1 0.937057 1
1 0.937268 1
1 0.939444 1
1 0.957983 1
1 0.999169 1
1 0.959063 1
1 0.95917 1
1 0.960285 1
1 0.970709 1
1 1 1
0.99625 1 1
0.99637 1 1
0.997563 1 1
1 1 1
1 1 1
1 1 1
1 1 1
1 1 1
1 1 1
1 1 1
