various/display_lut_aces_10.cube
TITLE "utilities/display_lut_aces_10.cube"
LUT_3D_SIZE 33
7.89041e-10 7.89037e-10 7.8904e-10
0.0115588 0 0
0.036079 0 0
0.0615434 -0.055 -0.055
0.0836236 -0.055 -0.055
0.11069 -0.055 -0.055
0.144094 -0.055 -0.055
0.185376 -0.055 -0.055
0.234629 -0.055 -0.055
0.289515 -0.055 -0.0372299
0.356159 -0.055 -0.0284767
0.437336 -0.055 -0.0210849
0.532631 -0.055 -0.0111753
0.634992 -0.055 0.00220675
0.740403 -0.055 0.0188986
0.844907 -0.055 0.0404462
0.933183 -0.00215952 0.0681895
0.997787 0.170378 0.102714
1 0.291227 0.143314
1 0.404216 0.192829
1 0.513088 0.254608
1 0.618591 0.331186
1 0.711303 0.417849
1 0.78245 0.510691
1 0.837007 0.606308
1 0.878041 0.697657
1 0.90969 0.771311
1 0.934673 0.827405
1 0.953987 0.870865
1 0.969154 0.903547
1 0.980583 0.929716
1 0.989256 0.949993
1 0.995602 0.966094
0 0.00757475 0
0.0101321 0.00790667 0
0.0305783 0.00784888 0
0.0564179 -0.0083309 -0.055
0.083853 -0.0108336 -0.055
0.114267 -0.0148714 -0.055
0.14957 -0.0225859 -0.055
0.191441 -0.055 -0.055
0.239807 -0.055 -0.0429269
0.294559 -0.055 -0.0334164
0.360982 -0.055 -0.0269601
0.441834 -0.055 -0.0195522
0.536304 -0.055 -0.00945307
0.637628 -0.055 0.00360596
0.742153 -0.055 0.0202989
0.845781 -0.055 0.0418369
0.93315 0.0681242 0.0695276
0.997109 0.191691 0.103879
1 0.304544 0.144426
1 0.413259 0.194025
1 0.519444 0.255885
1 0.623027 0.332446
1 0.713928 0.418957
1 0.783899 0.511609
1 0.837845 0.607017
1 0.878497 0.698121
1 0.909962 0.771572
1 0.934828 0.827558
1 0.954079 0.870948
1 0.969206 0.903597
1 0.980612 0.929745
1 0.989273 0.95001
1 0.995611 0.966104
0 0.0247891 0
0.011703 0.0255893 0
0.0332143 0.0260202 0
0.0581033 0.0245794 -0.055
0.0861065 0.0242965 -0.055
0.118251 0.0234467 -0.055
0.155179 0.0217797 -0.055
0.197644 0.0188807 -0.055
0.245203 0.0133072 -0.0392393
0.299819 0.00283084 -0.0325657
0.365974 -0.0241025 -0.0261428
0.446455 -0.055 -0.0184104
0.539997 -0.055 -0.00813186
0.640281 -0.055 0.00486083
0.743902 -0.055 0.0216348
0.846634 -0.055 0.0431829
0.933089 0.105699 0.0708346
0.996406 0.211097 0.105015
1 0.317221 0.145548
1 0.422039 0.195232
1 0.525671 0.25717
1 0.627371 0.33371
1 0.716506 0.420066
1 0.785331 0.512525
1 0.838674 0.607726
1 0.87895 0.698584
1 0.910233 0.771832
1 0.934982 0.827711
1 0.954169 0.871032
1 0.969258 0.903646
1 0.980641 0.929773
1 0.989289 0.950026
1 0.995619 0.966114
-0.055 0.048793 -0.055
0.00279799 0.049703 -0.055
0.0361521 0.0503383 -0.055
0.0617918 0.0507654 -0.055
0.0899564 0.0510039 -0.055
0.122792 0.0509242 -0.055
0.160897 0.0503724 -0.055
0.203995 0.0493646 -0.055
0.250831 0.0466376 -0.0399536
0.305379 0.0423942 -0.0328918
0.371256 0.0350358 -0.0257746
0.451281 0.0206012 -0.0175304
0.54383 -0.00446207 -0.00707083
0.643031 -0.055 0.00604646
0.745705 -0.0119495 0.0229485
0.847487 0.0538417 0.04452
0.932996 0.135319 0.0721542
0.995654 0.229587 0.106155
1 0.32969 0.146717
1 0.430826 0.196488
1 0.531957 0.258501
1 0.631753 0.335016
1 0.719116 0.42121
1 0.786789 0.513468
1 0.83952 0.608455
1 0.879414 0.699059
1 0.91051 0.772099
1 0.935141 0.827867
1 0.954263 0.871118
1 0.969311 0.903696
1 0.980671 0.929803
1 0.989306 0.950043
1 0.995628 0.966124
-0.055 0.0780115 -0.055
0.000988789 0.0788458 -0.055
0.0384106 0.0795152 -0.055
0.0655478 0.0800454 -0.055
0.0945042 0.0805229 -0.055
0.128179 0.0808435 -0.055
0.167315 0.0808945 -0.055
0.210678 0.0803122 -0.055
0.257832 0.0787666 -0.0450673
0.312566 0.0768944 -0.0343171
0.378175 0.0738875 -0.0258495
0.45756 0.0681901 -0.0167081
0.548832 0.0615643 -0.00592407
0.646605 0.0588894 0.00747075
0.748035 0.0694997 0.0245762
0.84855 0.103419 0.0461837
0.932832 0.166868 0.0738215
0.994649 0.251674 0.107597
1 0.345013 0.148244
1 0.441816 0.19813
1 0.539893 0.260235
1 0.63728 0.336709
1 0.722418 0.422689
1 0.788646 0.514685
1 0.840601 0.609395
1 0.880009 0.699672
1 0.910867 0.772443
1 0.935344 0.828069
1 0.954383 0.871229
1 0.96938 0.903762
1 0.98071 0.929841
1 0.989328 0.950066
1 0.99564 0.966137
-0.055 0.113083 -0.055
-0.00697773 0.113869 -0.055
0.0389826 0.11454 -0.055
0.0685364 0.115127 -0.055
0.0990652 0.115738 -0.055
0.133996 0.116318 -0.055
0.17348 0.116409 -0.055
0.21709 0.115663 -0.055
0.265984 0.114882 -0.055
0.321794 0.1141 -0.0379348
0.387505 0.112906 -0.0262068
0.466064 0.110497 -0.0160387
0.555627 0.109092 -0.00460475
0.651452 0.111037 0.00929189
0.751166 0.121789 0.0266511
0.849914 0.149386 0.0483364
0.932532 0.202713 0.075985
0.993277 0.278619 0.109567
1 0.364476 0.150342
1 0.456056 0.200381
1 0.550296 0.262596
1 0.644509 0.339004
1 0.726757 0.424688
1 0.791109 0.516326
1 0.842038 0.610662
1 0.880805 0.700496
1 0.911344 0.772906
1 0.935617 0.828342
1 0.954545 0.871378
1 0.969473 0.90385
1 0.980762 0.929892
1 0.989357 0.950096
1 0.995655 0.966154
-0.055 0.155337 -0.055
-0.0439444 0.156024 -0.055
0.0362755 0.156508 -0.055
0.0698341 0.156704 -0.055
0.102543 0.156848 -0.055
0.138195 0.156901 -0.055
0.178091 0.156808 -0.055
0.223261 0.156536 -0.055
0.274347 0.156148 -0.055
0.332589 0.155708 -0.0453619
0.399566 0.155238 -0.0272466
0.477715 0.154793 -0.0154534
0.56473 0.156067 -0.00297004
0.657963 0.160577 0.0116279
0.755324 0.172282 0.029242
0.851621 0.197226 0.0511087
0.931985 0.243962 0.0787411
0.991417 0.310997 0.112298
1 0.388853 0.15324
1 0.474293 0.20348
1 0.563806 0.265821
1 0.653868 0.342118
1 0.732404 0.427391
1 0.794353 0.518535
1 0.843938 0.612369
1 0.881865 0.701603
1 0.911982 0.773528
1 0.935983 0.828709
1 0.954762 0.87158
1 0.969598 0.903969
1 0.980832 0.929962
1 0.989396 0.950136
1 0.995676 0.966178
-0.055 0.201993 -0.055
-0.055 0.202354 -0.055
0.0295668 0.202656 -0.055
0.0691467 0.202912 -0.055
0.104584 0.203179 -0.055
0.141795 0.203448 -0.055
0.182819 0.203674 -0.055
0.229238 0.203795 -0.055
0.282511 0.203751 -0.055
0.343658 0.20355 -0.055
0.41358 0.203304 -0.0294536
0.492089 0.204177 -0.0147535
0.576453 0.207207 -0.000865873
0.666469 0.213623 0.0144302
0.760753 0.226198 0.0324833
0.853655 0.249836 0.0546784
0.931037 0.291544 0.0822997
0.98891 0.349386 0.116142
1 0.4189 0.157278
1 0.497322 0.207771
1 0.581148 0.270239
1 0.665814 0.346348
1 0.739663 0.431043
1 0.798592 0.521508
1 0.846433 0.614665
1 0.883272 0.703086
1 0.912832 0.774363
1 0.936471 0.829202
1 0.955053 0.87185
1 0.969765 0.90413
1 0.980927 0.930055
1 0.98945 0.950191
1 0.995704 0.96621
-0.055 0.25667 -0.055
-0.055 0.257018 -0.055
0.0183976 0.257335 -0.055
0.0665203 0.257633 -0.055
0.105509 0.257979 -0.055
0.144955 0.258384 -0.055
0.187519 0.258832 -0.055
0.235295 0.259279 -0.055
0.290438 0.259626 -0.055
0.354297 0.259815 -0.055
0.427913 0.260236 -0.0340307
0.507469 0.261991 -0.0141671
0.590308 0.26595 0.00152376
0.677018 0.273516 0.0178476
0.767577 0.286714 0.0365921
0.855903 0.309301 0.0593667
0.929673 0.344895 0.0874456
0.985565 0.394258 0.121636
1 0.455277 0.16298
1 0.525916 0.213748
1 0.603092 0.276312
1 0.680788 0.352097
1 0.748839 0.435977
1 0.80407 0.525501
1 0.849679 0.617749
1 0.885128 0.70507
1 0.913958 0.775479
1 0.93712 0.829864
1 0.955442 0.872214
1 0.969989 0.904346
1 0.981053 0.930181
1 0.989521 0.950264
1 0.995742 0.966253
-0.055 0.322625 -0.055
-0.055 0.322972 -0.055
-0.024308 0.3233 -0.055
0.0566708 0.323621 -0.055
0.102378 0.32401 -0.055
0.145621 0.324495 -0.055
0.191014 0.325072 -0.055
0.241142 0.325722 -0.055
0.298327 0.326542 -0.055
0.365034 0.327632 -0.055
0.440774 0.328866 -0.055
0.52101 0.331062 -0.0142391
0.604018 0.335342 0.00426847
0.688771 0.342973 0.0224044
0.775759 0.35513 0.0427236
0.858532 0.374457 0.0665806
0.927765 0.40429 0.0951817
0.98117 0.4459 0.129618
1 0.498429 0.171153
1 0.560736 0.222119
1 0.630224 0.284713
1 0.69912 0.359907
1 0.760187 0.442633
1 0.811047 0.530852
1 0.853846 0.621882
1 0.887557 0.707712
1 0.915441 0.776968
1 0.93798 0.830752
1 0.95596 0.872702
1 0.970288 0.904636
1 0.981223 0.93035
1 0.989617 0.950363
1 0.995794 0.966311
-0.055 0.402431 -0.055
-0.055 0.402788 -0.055
-0.055 0.403133 -0.055
0.0303211 0.403474 -0.055
0.0929164 0.403896 -0.055
0.143672 0.404432 -0.055
0.194036 0.405096 -0.055
0.247939 0.405892 -0.055
0.308092 0.406791 -0.055
0.376442 0.407749 -0.055
0.451373 0.408945 -0.0499568
0.531688 0.410744 -0.00836401
0.615368 0.413891 0.0127031
0.700312 0.419527 0.0327535
0.784782 0.429109 0.0539863
0.861374 0.445123 0.0782442
0.92508 0.469812 0.106974
0.975511 0.504254 0.141329
1 0.548514 0.182946
1 0.602206 0.233892
1 0.66203 0.296548
1 0.720891 0.370498
1 0.77382 0.451592
1 0.819767 0.538001
1 0.85911 0.627404
1 0.890702 0.711215
1 0.917376 0.778944
1 0.939114 0.831937
1 0.956647 0.873354
1 0.970686 0.905027
1 0.98145 0.930579
1 0.989745 0.950497
1 0.995862 0.966389
-0.055 0.49039 -0.055
-0.055 0.490606 -0.055
-0.055 0.490814 -0.055
0.0349122 0.491018 -0.055
0.101753 0.491268 -0.055
0.155359 0.491583 -0.055
0.208111 0.491965 -0.055
0.264111 0.492407 -0.055
0.325093 0.492916 -0.055
0.391214 0.493562 -0.0212287
0.463373 0.49442 -0.00111155
0.541746 0.495662 0.0161408
0.624779 0.497746 0.0334903
0.709897 0.501536 0.0520589
0.792354 0.508527 0.0727444
0.863527 0.521119 0.096606
0.921315 0.540998 0.124784
0.968365 0.568857 0.158648
1 0.605293 0.199949
1 0.649731 0.250597
1 0.697744 0.313075
1 0.745761 0.384796
1 0.789941 0.463546
1 0.830406 0.547505
1 0.865613 0.634709
1 0.894719 0.715828
1 0.919873 0.781558
1 0.940597 0.833514
1 0.957551 0.874224
1 0.971213 0.905551
1 0.981752 0.930885
1 0.989916 0.950677
1 0.995953 0.966495
-0.055 0.581302 -0.00271123
-0.055 0.581389 -0.000406601
0.0646971 0.58147 0.00176855
0.112628 0.581546 0.00389634
0.15552 0.581637 0.00649711
0.199278 0.581753 0.00979535
0.245725 0.581902 0.013929
0.296142 0.582095 0.0190501
0.351538 0.582345 0.0253273
0.412716 0.582684 0.0329571
0.480224 0.583167 0.0421683
0.554168 0.583915 0.0532416
0.634023 0.585166 0.0665253
0.717593 0.587476 0.0823675
0.796185 0.592346 0.101278
0.862936 0.601652 0.123853
0.915948 0.616949 0.150998
0.959431 0.638763 0.18393
0.993249 0.666685 0.224536
1 0.699689 0.274746
1 0.735889 0.335427
1 0.772779 0.40393
1 0.808657 0.479315
1 0.842993 0.560056
1 0.87342 0.644242
1 0.899763 0.721848
1 0.923047 0.785011
1 0.942517 0.835602
1 0.958731 0.875377
1 0.971904 0.90625
1 0.982151 0.931295
1 0.990144 0.950918
1 0.996075 0.966636
0.135157 0.672684 0.0682292
0.164662 0.672692 0.0691424
0.189476 0.6727 0.0700493
0.21182 0.672707 0.0709761
0.237304 0.672717 0.0721614
0.26744 0.672729 0.0737442
0.302733 0.672746 0.0758476
0.343696 0.67277 0.0786325
0.390831 0.672806 0.082303
0.444556 0.67287 0.0871074
0.505137 0.672994 0.0933565
0.5726 0.673247 0.10144
0.646591 0.67376 0.111827
0.72395 0.674938 0.125109
0.796258 0.677857 0.141968
0.858145 0.683735 0.163045
0.908526 0.693533 0.189046
0.949809 0.707677 0.22093
0.981688 0.726358 0.260251
1 0.748898 0.308636
1 0.774125 0.365057
1 0.801162 0.42903
1 0.82951 0.499878
1 0.857312 0.576474
1 0.882613 0.656506
1 0.905957 0.729612
1 0.927008 0.789532
1 0.944969 0.838346
1 0.960253 0.876898
1 0.972804 0.907183
1 0.982677 0.931842
1 0.990445 0.951241
1 0.996237 0.966826
0.282285 0.755845 0.140351
0.296451 0.755769 0.140992
0.30983 0.755693 0.141631
0.3229 0.755616 0.142289
0.338859 0.755517 0.143135
0.358993 0.755385 0.144274
0.384041 0.75521 0.145803
0.414733 0.75498 0.147854
0.451745 0.754681 0.150598
0.495645 0.754301 0.15426
0.546818 0.753835 0.159128
0.605383 0.753294 0.165576
0.66968 0.752803 0.174087
0.735112 0.752754 0.185297
0.797874 0.753667 0.199951
0.853278 0.756312 0.218843
0.901353 0.76123 0.242743
0.940974 0.769005 0.272595
0.971544 0.779978 0.309175
0.996527 0.793923 0.352447
1 0.810932 0.402996
1 0.830509 0.461065
1 0.851604 0.526269
1 0.872819 0.597675
1 0.893347 0.671977
1 0.913355 0.739461
1 0.93183 0.795391
1 0.948046 0.841919
1 0.96219 0.878897
1 0.973961 0.908421
1 0.983363 0.93257
1 0.99084 0.951674
1 0.996449 0.967081
0.425869 0.819754 0.226654
0.43411 0.819629 0.227151
0.442132 0.819504 0.227648
0.450181 0.819376 0.228158
0.460279 0.819213 0.228817
0.473415 0.818994 0.229706
0.490326 0.818703 0.230904
0.511824 0.818318 0.232516
0.538755 0.817813 0.234684
0.571922 0.817157 0.237597
0.611255 0.816354 0.241507
0.655941 0.815453 0.246752
0.704809 0.814548 0.25377
0.75577 0.813835 0.263124
0.805757 0.813652 0.275532
0.853244 0.814331 0.291672
0.896944 0.81628 0.312148
0.93374 0.820127 0.337586
0.963236 0.826305 0.36856
0.987586 0.834912 0.405657
1 0.845948 0.449606
1 0.859072 0.500894
1 0.873608 0.559441
1 0.889048 0.624532
1 0.905428 0.691038
1 0.9219 0.751686
1 0.937523 0.802877
1 0.951824 0.846512
1 0.964608 0.881516
1 0.975425 0.910051
1 0.984246 0.933533
1 0.991353 0.95225
1 0.996728 0.967421
0.564252 0.867238 0.324506
0.569253 0.867113 0.324884
0.574154 0.866989 0.325262
0.579104 0.866864 0.325651
0.585357 0.866704 0.326153
0.593553 0.866493 0.32683
0.604197 0.866217 0.327744
0.617847 0.865858 0.328977
0.635079 0.8654 0.330636
0.656399 0.864829 0.332869
0.682125 0.86414 0.335868
0.712203 0.863351 0.339891
0.746007 0.86252 0.345268
0.782148 0.861772 0.352428
0.820039 0.861221 0.361894
0.858681 0.861038 0.374301
0.895648 0.861542 0.390385
0.928091 0.863154 0.410874
0.95633 0.866115 0.436402
0.980102 0.870676 0.467548
0.998955 0.876992 0.504858
1 0.884968 0.54891
1 0.894704 0.599967
1 0.906013 0.656843
1 0.91845 0.713802
1 0.931369 0.766421
1 0.944084 0.812256
1 0.956336 0.852318
1 0.967555 0.884913
1 0.977239 0.912182
1 0.985368 0.934798
1 0.992012 0.953014
1 0.997088 0.967874
0.678961 0.902218 0.425143
0.681698 0.902128 0.425423
0.684394 0.902039 0.425704
0.687131 0.901949 0.425993
0.690607 0.901833 0.426366
0.695196 0.901681 0.426869
0.701207 0.901482 0.427549
0.709002 0.901223 0.428466
0.718974 0.900893 0.429702
0.731508 0.900479 0.431366
0.746901 0.899978 0.433608
0.765378 0.899391 0.436619
0.787349 0.898712 0.440652
0.81264 0.897978 0.446037
0.84056 0.897264 0.453194
0.869851 0.896708 0.462649
0.89869 0.896517 0.475038
0.926147 0.896879 0.491079
0.951896 0.897984 0.511471
0.974267 0.900158 0.536833
0.992395 0.903677 0.567704
1 0.908651 0.604548
1 0.915094 0.647339
1 0.922902 0.693369
1 0.9318 0.739904
1 0.941384 0.783551
1 0.951462 0.82371
1 0.961549 0.859497
1 0.971042 0.889261
1 0.979454 0.914934
1 0.986764 0.936444
1 0.992843 0.954021
1 0.997548 0.968473
0.762113 0.928718 0.526475
0.763585 0.928664 0.526682
0.765044 0.92861 0.526889
0.766532 0.928555 0.527102
0.768434 0.928485 0.527377
0.770965 0.928392 0.527748
0.774319 0.928268 0.528249
0.778731 0.928105 0.528925
0.784485 0.927894 0.529837
0.791905 0.927623 0.531065
0.80133 0.927281 0.532718
0.813071 0.926862 0.534941
0.82734 0.926366 0.537924
0.84414 0.925811 0.541919
0.863149 0.925241 0.54725
0.883597 0.924738 0.55433
0.905138 0.924379 0.56367
0.927499 0.924247 0.575879
0.949444 0.924517 0.591658
0.969388 0.925421 0.611682
0.986486 0.927171 0.636349
1 0.929926 0.665139
1 0.933808 0.697494
1 0.938796 0.732458
1 0.94479 0.768275
1 0.951747 0.803271
1 0.959413 0.837256
1 0.967335 0.868114
1 0.975015 0.894727
1 0.982088 0.918434
1 0.98846 0.938559
1 0.993869 0.955336
1 0.998124 0.96926
0.823722 0.949573 0.626802
0.824546 0.94954 0.626951
0.825366 0.949506 0.6271
0.826203 0.949472 0.627253
0.827275 0.949429 0.627451
0.828706 0.949371 0.627719
0.830608 0.949293 0.628079
0.833123 0.949192 0.628565
0.836423 0.94906 0.62922
0.840711 0.948888 0.630103
0.846211 0.948672 0.631289
0.853148 0.948402 0.632883
0.861701 0.94808 0.63502
0.871984 0.947708 0.637875
0.884291 0.947286 0.641673
0.898627 0.946832 0.646699
0.914708 0.946393 0.653298
0.93195 0.946043 0.661877
0.949485 0.94589 0.672883
0.966324 0.946077 0.686743
0.981953 0.946736 0.703721
0.995471 0.948053 0.723802
1 0.950198 0.746627
1 0.953267 0.771425
1 0.957246 0.797633
1 0.962063 0.825198
1 0.967578 0.85264
1 0.973463 0.87808
1 0.979362 0.901446
1 0.985114 0.922799
1 0.990457 0.941249
1 0.995102 0.957035
1 0.998857 0.970284
0.867958 0.965714 0.716228
0.868409 0.965695 0.716318
0.868858 0.965676 0.716407
0.869318 0.965657 0.716499
0.869909 0.965632 0.716618
0.870702 0.965598 0.716778
0.871762 0.965553 0.716995
0.873176 0.965494 0.717286
0.875051 0.965415 0.71768
0.877524 0.965312 0.718209
0.88076 0.965178 0.718922
0.884949 0.965006 0.719879
0.890299 0.964789 0.721163
0.897015 0.964523 0.72288
0.905256 0.964208 0.725169
0.915091 0.963853 0.728204
0.926429 0.963479 0.732204
0.938961 0.963132 0.737428
0.952183 0.962876 0.744169
0.965832 0.962773 0.752723
0.979239 0.962923 0.763341
0.991462 0.963466 0.776094
1 0.964551 0.791115
1 0.966274 0.808441
1 0.968693 0.827706
1 0.971802 0.848305
1 0.975515 0.869228
1 0.979616 0.889527
1 0.983995 0.90946
1 0.988451 0.928108
1 0.99272 0.944627
1 0.99653 0.959198
1 0.999786 0.971596
0.902109 0.978432 0.785461
0.902375 0.97842 0.78551
0.902639 0.978408 0.78556
0.902911 0.978396 0.785611
0.90326 0.97838 0.785676
0.903729 0.978359 0.785765
0.904358 0.978331 0.785885
0.905198 0.978294 0.786047
0.906318 0.978244 0.786265
0.907801 0.978179 0.78656
0.909753 0.978093 0.786956
0.912303 0.977982 0.78749
0.915593 0.97784 0.788208
0.919778 0.977663 0.789171
0.925 0.977448 0.790461
0.931358 0.977197 0.792183
0.938877 0.976918 0.794471
0.947613 0.976622 0.797495
0.957424 0.976338 0.801458
0.967964 0.976111 0.806596
0.978716 0.97601 0.813165
0.989018 0.97612 0.821405
0.998213 0.976541 0.831452
1 0.977357 0.843272
1 0.978654 0.856635
1 0.98049 0.871092
1 0.982855 0.886277
1 0.985626 0.902364
1 0.988707 0.918685
1 0.991953 0.934362
1 0.995165 0.948773
1 0.998114 0.961898
1 1 0.97325
0.92887 0.987995 0.838892
0.92902 0.987988 0.838921
0.92917 0.987981 0.838949
0.929324 0.987974 0.838979
0.929521 0.987965 0.839017
0.929788 0.987952 0.839069
0.930146 0.987936 0.839138
0.930625 0.987913 0.839233
0.931267 0.987884 0.839359
0.932123 0.987844 0.839531
0.933258 0.987792 0.839761
0.934756 0.987724 0.840072
0.936716 0.987635 0.84049
0.939255 0.987521 0.841051
0.9425 0.987378 0.841804
0.946577 0.987202 0.84281
0.951586 0.986993 0.844151
0.957575 0.986757 0.845928
0.964496 0.986507 0.848269
0.972173 0.98627 0.851322
0.98028 0.986087 0.855257
0.988387 0.986011 0.860246
0.996229 0.986094 0.866429
1 0.986414 0.873846
1 0.987055 0.882527
1 0.988086 0.892587
1 0.989493 0.903868
1 0.991226 0.916106
1 0.993232 0.928853
1 0.995421 0.941467
1 0.997659 0.95372
1 0.99988 0.96518
1 1 0.975289
0.949866 0.995243 0.879298
0.949955 0.995238 0.879313
0.950043 0.995234 0.879329
0.950134 0.99523 0.879345
0.95025 0.995224 0.879366
0.950408 0.995216 0.879394
0.95062 0.995206 0.879432
0.950904 0.995192 0.879483
0.951285 0.995174 0.879552
0.951794 0.99515 0.879645
0.952473 0.995117 0.879771
0.953372 0.995074 0.879941
0.954557 0.995018 0.88017
0.956105 0.994945 0.880478
0.958105 0.994852 0.880891
0.960652 0.994735 0.881447
0.963835 0.994593 0.882192
0.96772 0.994427 0.883187
0.972322 0.99424 0.88451
0.977572 0.994047 0.886261
0.983343 0.993868 0.888559
0.989501 0.993725 0.891544
0.995733 0.993658 0.895372
1 0.993717 0.900192
1 0.993966 0.906105
1 0.994456 0.913125
1 0.995174 0.921167
1 0.996127 0.93005
1 0.997296 0.9395
1 0.998625 0.94939
1 1 0.95941
1 1 0.969031
1 1 0.977734
0.966477 1 0.910543
0.966528 1 0.910552
0.966578 1 0.910561
0.966629 1 0.910571
0.966695 1 0.910583
0.966784 1 0.9106
0.966904 1 0.910623
0.967066 1 0.910654
0.967283 1 0.910695
0.967573 1 0.910751
0.967961 1 0.910826
0.968477 1 0.910928
0.96916 1 0.911065
0.970058 1 0.91125
0.971227 1 0.911498
0.972732 1 0.911832
0.97464 1 0.912281
0.977027 1 0.912881
0.979953 0.999887 0.913682
0.983442 0.999738 0.914745
0.987458 0.999579 0.916149
0.991889 0.999427 0.917987
0.996535 0.999304 0.920366
1 0.999242 0.923403
1 0.999281 0.927204
1 0.999432 0.931824
1 0.999699 0.937241
1 1 0.943427
1 1 0.950349
1 1 0.957847
1 1 0.965654
1 1 0.973377
1 1 0.980607
0.979063 1 0.935269
0.979091 1 0.935274
0.979119 1 0.93528
0.979147 1 0.935285
0.979185 1 0.935292
0.979235 1 0.935302
0.979303 1 0.935315
0.979394 1 0.935332
0.979516 1 0.935356
0.979681 1 0.935388
0.979901 1 0.935431
0.980197 1 0.935489
0.980589 1 0.935567
0.981109 1 0.935672
0.981794 1 0.935814
0.982688 1 0.936005
0.983841 1 0.936262
0.985308 1 0.936606
0.987137 1 0.937066
0.989365 1 0.937679
0.991992 1 0.938493
0.994974 1 0.93957
0.998198 1 0.940984
1 1 0.942819
1 1 0.94517
1 1 0.948126
1 1 0.951746
1 1 0.956037
1 1 0.960953
1 1 0.966384
1 1 0.972168
1 1 0.978055
1 1 0.983877
0.98829 1 0.95444
0.988305 1 0.954443
0.988321 1 0.954446
0.988337 1 0.954449
0.988358 1 0.954453
0.988385 1 0.954459
0.988423 1 0.954467
0.988474 1 0.954477
0.988542 1 0.954491
0.988634 1 0.95451
0.988757 1 0.954535
0.988922 1 0.954569
0.989142 1 0.954616
0.989435 1 0.954678
0.989822 1 0.954762
0.99033 1 0.954875
0.990991 1 0.955027
0.991841 1 0.955231
0.992915 1 0.955506
0.994243 1 0.955874
0.995842 1 0.956364
0.997696 1 0.957015
0.999761 1 0.957876
1 1 0.959001
1 1 0.960455
1 1 0.96231
1 1 0.96463
1 1 0.96745
1 1 0.970762
1 1 0.974506
1 1 0.978581
1 1 0.982942
1 1 0.987438
0.994495 1 0.969514
0.994503 1 0.969516
0.994511 1 0.969518
0.99452 1 0.969519
0.99453 1 0.969522
0.994545 1 0.969525
0.994564 1 0.96953
0.994591 1 0.969535
0.994626 1 0.969543
