various/display_lut_aces_10_no_blue_fix.cube
TITLE "utilities/display_lut_aces_10_no_blue_fix.cube"
LUT_3D_SIZE 33
7.89041e-10 7.89037e-10 7.8904e-10
0.0127589 0 0
0.0395699 0 0
0.0646798 -0.055 -0.055
0.0877926 -0.055 -0.055
0.116086 -0.055 -0.055
0.151122 -0.055 -0.055
0.194161 -0.055 -0.055
0.244537 -0.055 -0.055
0.301651 -0.055 -0.0416284
0.37113 -0.055 -0.0323583
0.455657 -0.055 -0.0253964
0.552936 -0.055 -0.0155357
0.656126 -0.055 -0.00229763
0.761718 -0.055 0.0144524
0.864133 -0.055 0.0362148
0.947287 0.0993727 0.0641536
1 0.223429 0.0985669
1 0.338301 0.13951
1 0.448558 0.190015
1 0.555648 0.253285
1 0.657874 0.331764
1 0.74225 0.420425
1 0.805757 0.514773
1 0.854975 0.611221
1 0.891478 0.702202
1 0.920447 0.774755
1 0.942917 0.830172
1 0.960538 0.872889
1 0.974155 0.905183
1 0.984379 0.931007
1 0.992096 0.951019
1 0.997593 0.966916
0 0.0100969 0
0.0103404 0.0106366 0
0.0317034 0.010759 0
0.0585625 -0.000797108 -0.055
0.0874761 -0.00231327 -0.055
0.119636 -0.00473943 -0.055
0.156852 -0.00897098 -0.055
0.200515 -0.0176338 -0.055
0.250009 -0.055 -0.055
0.30704 -0.055 -0.0404787
0.376282 -0.055 -0.0332855
0.460366 -0.055 -0.0256972
0.55666 -0.055 -0.0152446
0.658745 -0.055 -0.00196682
0.763383 -0.055 0.0150565
0.864773 0.00582767 0.0369751
0.946952 0.134496 0.0649793
1 0.243592 0.0992939
1 0.351477 0.140428
1 0.45773 0.191124
1 0.562138 0.25454
1 0.662141 0.333063
1 0.744693 0.421577
1 0.807139 0.515714
1 0.855751 0.611947
1 0.891917 0.702666
1 0.920704 0.775014
1 0.943064 0.830325
1 0.960625 0.872972
1 0.974204 0.905233
1 0.984406 0.931036
1 0.992111 0.951036
1 0.9976 0.966926
0 0.0326245 0
0.0100736 0.0337621 0
0.0335631 0.0344971 0
0.060065 0.0348002 -0.055
0.0895689 0.0349619 -0.055
0.123561 0.0347048 -0.055
0.162638 0.0338787 -0.055
0.207053 0.0324188 -0.055
0.25575 0.028961 -0.055
0.312702 0.0231375 -0.0470414
0.381662 0.0121387 -0.0359848
0.465182 -0.0147408 -0.0268681
0.560428 -0.055 -0.0155673
0.661391 -0.055 -0.00184568
0.765053 -0.00601089 0.0155667
0.865383 0.0749613 0.0376611
0.946581 0.163065 0.0657645
1 0.262171 0.100027
1 0.364069 0.141364
1 0.466634 0.192251
1 0.568492 0.255807
1 0.666311 0.334366
1 0.747088 0.42273
1 0.808503 0.516653
1 0.856519 0.612671
1 0.892352 0.703129
1 0.92096 0.775272
1 0.943211 0.830477
1 0.960711 0.873055
1 0.974253 0.905282
1 0.984433 0.931064
1 0.992126 0.951053
1 0.997608 0.966936
-0.055 0.0610395 -0.055
-0.00637545 0.062161 -0.055
0.0340184 0.0630262 -0.055
0.0623318 0.0636972 -0.055
0.092553 0.0642745 -0.055
0.127562 0.0646444 -0.055
0.168036 0.0646963 -0.055
0.213024 0.064345 -0.055
0.261631 0.0627364 -0.055
0.318662 0.0606058 -0.055
0.387357 0.0569375 -0.0419164
0.470208 0.0502371 -0.0289627
0.56437 0.0440064 -0.0162995
0.664144 0.0461019 -0.00188671
0.766777 0.0675694 0.0160064
0.865978 0.11474 0.0382988
0.946159 0.188537 0.0665352
1 0.279928 0.100803
1 0.376495 0.142351
1 0.475547 0.19343
1 0.574903 0.257123
1 0.670509 0.335715
1 0.749507 0.423919
1 0.80989 0.517619
1 0.857301 0.613417
1 0.892798 0.703605
1 0.921223 0.775537
1 0.943361 0.830634
1 0.960799 0.87314
1 0.974302 0.905333
1 0.984462 0.931094
1 0.992142 0.95107
1 0.997616 0.966946
-0.055 0.0935878 -0.055
-0.0238335 0.0946127 -0.055
0.031953 0.0954776 -0.055
0.0633018 0.0962182 -0.055
0.0952132 0.0969772 -0.055
0.131614 0.0976832 -0.055
0.173349 0.098272 -0.055
0.218487 0.0977498 -0.055
0.268542 0.0971631 -0.055
0.326177 0.0966989 -0.055
0.394782 0.0956963 -0.055
0.476966 0.0934341 -0.0329127
0.569523 0.0929997 -0.017745
0.66773 0.0981675 -0.00212677
0.768996 0.115568 0.0164248
0.866697 0.153471 0.0390315
0.945558 0.217615 0.0674681
1 0.301175 0.101839
1 0.391811 0.14366
1 0.486692 0.194982
1 0.582992 0.25884
1 0.675791 0.337466
1 0.75256 0.425458
1 0.811655 0.518867
1 0.858299 0.614379
1 0.89337 0.704218
1 0.92156 0.775879
1 0.943555 0.830836
1 0.960913 0.87325
1 0.974366 0.905398
1 0.984498 0.931132
1 0.992162 0.951092
1 0.997626 0.966959
-0.055 0.132831 -0.055
-0.055 0.133776 -0.055
0.0239374 0.134608 -0.055
0.0613489 0.135361 -0.055
0.0964446 0.136186 -0.055
0.134516 0.136682 -0.055
0.176395 0.136612 -0.055
0.22326 0.136425 -0.055
0.275724 0.136278 -0.055
0.335378 0.136275 -0.055
0.40464 0.136305 -0.055
0.486136 0.136383 -0.0446171
0.576503 0.138752 -0.0204757
0.672584 0.145721 -0.00269814
0.771955 0.162292 0.0167436
0.867575 0.195468 0.039883
0.944645 0.252337 0.0685968
1 0.327419 0.103309
1 0.411324 0.145487
1 0.501132 0.197129
1 0.593583 0.261188
1 0.682681 0.339843
1 0.756557 0.427539
1 0.813991 0.520548
1 0.859623 0.615676
1 0.894134 0.705043
1 0.922011 0.776339
1 0.943815 0.831107
1 0.961066 0.873399
1 0.974452 0.905487
1 0.984547 0.931183
1 0.992189 0.951123
1 0.99764 0.966976
-0.055 0.178239 -0.055
-0.055 0.178758 -0.055
0.00258687 0.179194 -0.055
0.0542482 0.179564 -0.055
0.0942308 0.179936 -0.055
0.134568 0.180305 -0.055
0.178223 0.180628 -0.055
0.227025 0.180863 -0.055
0.282189 0.181032 -0.055
0.344979 0.181211 -0.055
0.41668 0.18153 -0.055
0.497857 0.183036 -0.055
0.585705 0.187157 -0.0257659
0.679015 0.195686 -0.00408519
0.775849 0.212154 0.0168087
0.868581 0.242553 0.0408265
0.943298 0.293211 0.0700654
0.998228 0.359348 0.105439
1 0.435829 0.148067
1 0.519617 0.200114
1 0.607319 0.264411
1 0.691561 0.343077
1 0.761737 0.430353
1 0.817062 0.522813
1 0.861371 0.617422
1 0.895151 0.70615
1 0.922614 0.776957
1 0.944164 0.831474
1 0.961272 0.873598
1 0.974568 0.905606
1 0.984613 0.931252
1 0.992225 0.951163
1 0.997659 0.967
-0.055 0.228975 -0.055
-0.055 0.229465 -0.055
-0.055 0.2299 -0.055
0.040083 0.230298 -0.055
0.0885299 0.230755 -0.055
0.132867 0.231284 -0.055
0.178988 0.231864 -0.055
0.229708 0.232455 -0.055
0.287494 0.232975 -0.055
0.353659 0.233428 -0.055
0.429114 0.234057 -0.055
0.51124 0.236614 -0.055
0.597039 0.241854 -0.0410901
0.687199 0.251422 -0.00714105
0.780821 0.267945 0.0163736
0.869594 0.296441 0.0418714
0.941452 0.340057 0.072397
0.994982 0.397573 0.108601
1 0.466082 0.151764
1 0.542937 0.204299
1 0.624846 0.268863
1 0.702833 0.347479
1 0.768353 0.434159
1 0.821062 0.525861
1 0.863658 0.619771
1 0.896499 0.707634
1 0.923415 0.777786
1 0.94463 0.831966
1 0.961547 0.873867
1 0.974723 0.905767
1 0.984702 0.931346
1 0.992274 0.951218
1 0.997684 0.967032
-0.055 0.28965 -0.055
-0.055 0.290117 -0.055
-0.055 0.290555 -0.055
0.000335187 0.29098 -0.055
0.0748318 0.291491 -0.055
0.126776 0.292122 -0.055
0.177086 0.292879 -0.055
0.230885 0.293737 -0.055
0.291294 0.29463 -0.055
0.360771 0.29561 -0.055
0.440129 0.297271 -0.055
0.523508 0.300201 -0.055
0.609157 0.305787 -0.055
0.696736 0.315786 -0.0136111
0.786762 0.331707 0.0154648
0.870712 0.35642 0.0442344
0.938948 0.393263 0.0763051
0.990705 0.442552 0.113409
1 0.502722 0.15717
1 0.57185 0.21021
1 0.646425 0.275127
1 0.716853 0.353477
1 0.776662 0.439301
1 0.82621 0.529956
1 0.866622 0.622926
1 0.898274 0.709619
1 0.924475 0.778894
1 0.94525 0.832627
1 0.961915 0.874228
1 0.974931 0.905984
1 0.984821 0.931472
1 0.99234 0.951292
1 0.997718 0.967075
-0.055 0.362947 -0.055
-0.055 0.363396 -0.055
-0.055 0.363827 -0.055
-0.055 0.364256 -0.055
0.0372595 0.364786 -0.055
0.110609 0.365601 -0.055
0.169885 0.366627 -0.055
0.229383 0.36788 -0.055
0.293967 0.369339 -0.055
0.367033 0.370925 -0.055
0.447523 0.372818 -0.055
0.532175 0.375669 -0.055
0.61904 0.380466 -0.055
0.706482 0.388579 -0.0208416
0.793456 0.40157 0.0181163
0.871893 0.422213 0.0496367
0.935601 0.452983 0.0830195
0.985165 0.494449 0.120855
1 0.546167 0.16517
1 0.606973 0.218615
1 0.672214 0.284
1 0.73384 0.361648
1 0.787036 0.446212
1 0.832732 0.535444
1 0.870406 0.627153
1 0.900591 0.712261
1 0.925868 0.780376
1 0.946072 0.833512
1 0.962404 0.874711
1 0.975208 0.906275
1 0.98498 0.931641
1 0.992428 0.951391
1 0.997764 0.967133
-0.055 0.44884 -0.055
-0.055 0.449212 -0.055
-0.055 0.449572 -0.055
-0.055 0.44993 -0.055
-0.055 0.450373 -0.055
0.0866143 0.450938 -0.055
0.161416 0.451642 -0.055
0.228805 0.452493 -0.055
0.298573 0.45347 -0.055
0.373541 0.454595 -0.055
0.453311 0.45605 -0.055
0.538099 0.458116 -0.055
0.625984 0.461476 -0.055
0.714469 0.467255 -0.0104658
0.799562 0.477157 0.0283516
0.872608 0.49381 0.060606
0.93127 0.518937 0.0944217
0.978125 0.553064 0.132423
1 0.596488 0.177058
1 0.648045 0.230757
1 0.70196 0.2966
1 0.753731 0.372751
1 0.799736 0.45546
1 0.840824 0.542777
1 0.875151 0.632767
1 0.903583 0.715763
1 0.927681 0.782354
1 0.947154 0.834695
1 0.963051 0.875358
1 0.975577 0.906667
1 0.985193 0.931868
1 0.992546 0.951525
1 0.997825 0.967211
-0.055 0.5392 -0.055
-0.055 0.539417 -0.055
-0.055 0.539624 -0.055
-0.055 0.539828 -0.055
-0.055 0.540079 -0.055
0.0868044 0.540393 -0.055
0.169078 0.540775 -0.055
0.240465 0.541223 -0.055
0.310809 0.541781 -0.055
0.38373 0.542504 -0.055
0.46112 0.543478 -0.055
0.5437 0.544872 -0.055
0.630712 0.547064 -0.0338455
0.719629 0.550841 0.017705
0.802428 0.557946 0.0493188
0.871444 0.570618 0.0799404
0.925534 0.590428 0.112819
0.969303 0.617789 0.150305
1 0.652685 0.194782
1 0.692568 0.248731
1 0.734764 0.314069
1 0.77601 0.387758
1 0.814833 0.467762
1 0.850604 0.552526
1 0.881059 0.640147
1 0.90739 0.720374
1 0.930012 0.784979
1 0.948567 0.836268
1 0.963901 0.87622
1 0.976063 0.907192
1 0.985475 0.932173
1 0.992704 0.951705
1 0.997906 0.967317
-0.055 0.631198 -0.055
-0.055 0.631275 -0.055
-0.055 0.631346 -0.055
-0.055 0.631416 -0.055
0.0657759 0.631503 -0.055
0.144207 0.631617 -0.055
0.208092 0.631765 -0.055
0.270013 0.631957 -0.055
0.333883 0.632212 -0.055
0.401668 0.632562 -0.055
0.474452 0.63307 -0.0183417
0.552612 0.633861 0.011229
0.635935 0.635161 0.0346195
0.722094 0.637492 0.0576955
0.800805 0.642389 0.0823458
0.866109 0.651452 0.109735
0.917613 0.665602 0.141119
0.959082 0.685018 0.177812
0.990432 0.709567 0.221717
1 0.738122 0.274863
1 0.768938 0.3377
1 0.800418 0.407691
1 0.83214 0.483989
1 0.862024 0.565396
1 0.888319 0.649743
1 0.912144 0.726387
1 0.932962 0.788444
1 0.950391 0.838349
1 0.965008 0.877365
1 0.9767 0.907894
1 0.985849 0.932582
1 0.992912 0.951947
1 0.998015 0.967458
-0.055 0.720729 0.0349067
0.0725879 0.720704 0.0363974
0.120502 0.720679 0.0378585
0.155719 0.720652 0.039334
0.19163 0.720618 0.0411982
0.2308 0.720571 0.0436453
0.273963 0.720508 0.0468381
0.321806 0.720425 0.0509661
0.374953 0.720319 0.0562519
0.433907 0.720195 0.0629586
0.499019 0.720071 0.0713977
0.570354 0.719996 0.0819205
0.647527 0.720074 0.0949454
0.725408 0.720789 0.111052
0.797483 0.722988 0.130888
0.858411 0.727734 0.155024
0.908769 0.73571 0.184027
0.949128 0.747408 0.218776
0.979548 0.762966 0.260667
1 0.781539 0.311061
1 0.802871 0.368769
1 0.826545 0.433611
1 0.851104 0.505132
1 0.87479 0.582222
1 0.897002 0.662053
1 0.917943 0.734133
1 0.936618 0.79298
1 0.952711 0.841084
1 0.966432 0.878884
1 0.97753 0.908829
1 0.98634 0.933128
1 0.993188 0.952271
1 0.998162 0.967648
0.260126 0.794546 0.131432
0.276494 0.794436 0.132159
0.291759 0.794328 0.132883
0.306519 0.794216 0.133627
0.324365 0.794074 0.134583
0.346642 0.793882 0.135868
0.374047 0.793628 0.137592
0.407254 0.793292 0.139899
0.446863 0.792852 0.142974
0.493358 0.792285 0.147066
0.547038 0.79157 0.152481
0.607814 0.790704 0.159614
0.672433 0.78987 0.168986
0.737337 0.789378 0.181233
0.79881 0.789682 0.197112
0.853467 0.79135 0.217451
0.901454 0.794824 0.243004
0.940372 0.800853 0.274616
0.970393 0.809855 0.312517
0.994641 0.821754 0.356728
1 0.836329 0.407987
1 0.852994 0.466606
1 0.870751 0.532224
1 0.88873 0.60387
1 0.907051 0.677559
1 0.92481 0.743948
1 0.941056 0.798854
1 0.955609 0.844642
1 0.968235 0.880891
1 0.978599 0.910068
1 0.986979 0.933854
1 0.993549 0.952704
1 0.998356 0.967903
0.426678 0.849069 0.227432
0.435287 0.848926 0.227951
0.443654 0.848784 0.22847
0.452041 0.848639 0.229004
0.462547 0.848452 0.229693
0.476191 0.848203 0.230621
0.493721 0.847871 0.231871
0.515953 0.847432 0.233555
0.543726 0.846854 0.235818
0.577401 0.846121 0.23886
0.616687 0.845239 0.242944
0.661048 0.844241 0.248418
0.709185 0.843215 0.255733
0.758883 0.84235 0.265467
0.80722 0.841947 0.278282
0.853911 0.842218 0.294815
0.896812 0.843554 0.31581
0.932692 0.84651 0.341908
0.962234 0.85137 0.373616
0.986345 0.858295 0.411425
1 0.867307 0.455878
1 0.877999 0.507464
1 0.890173 0.56613
1 0.903803 0.631104
1 0.91823 0.696623
1 0.93265 0.756105
1 0.946357 0.80634
1 0.959144 0.849213
1 0.970473 0.88352
1 0.979957 0.9117
1 0.987799 0.934815
1 0.994016 0.953282
1 0.998615 0.968242
0.572168 0.889874 0.329546
0.577134 0.889741 0.329929
0.582 0.889609 0.330312
0.586912 0.889475 0.330707
0.593111 0.889305 0.331216
0.601232 0.88908 0.331903
0.611765 0.888785 0.33283
0.625253 0.888402 0.334079
0.642244 0.887913 0.335762
0.663211 0.887302 0.338026
0.688414 0.886563 0.341067
0.717735 0.885709 0.345145
0.75046 0.884796 0.350596
0.78548 0.88392 0.357848
0.822654 0.883147 0.367425
0.860282 0.882665 0.379969
0.895994 0.88275 0.39623
0.927712 0.883713 0.416989
0.955944 0.885723 0.442895
0.979534 0.889152 0.474461
0.997995 0.894271 0.512122
1 0.901102 0.556276
1 0.909539 0.607246
1 0.919351 0.663446
1 0.930106 0.719321
1 0.941233 0.770714
1 0.952487 0.8157
1 0.963333 0.854985
1 0.97318 0.886928
1 0.981649 0.91383
1 0.988835 0.936076
1 0.994612 0.954048
1 0.998956 0.968693
0.686718 0.919177 0.432251
0.689377 0.919087 0.432533
0.691995 0.918997 0.432814
0.69465 0.918907 0.433104
0.698021 0.918791 0.433478
0.702468 0.918639 0.433983
0.708287 0.918439 0.434665
0.71582 0.91818 0.435585
0.725439 0.917849 0.436824
0.737494 0.917437 0.438494
0.752341 0.916933 0.440742
0.770462 0.916322 0.443759
0.791978 0.915612 0.4478
0.816639 0.914835 0.453195
0.843712 0.914065 0.460364
0.8719 0.91343 0.469834
0.899454 0.913119 0.482238
0.926346 0.91324 0.4983
0.951659 0.913986 0.518777
0.973639 0.91565 0.544309
0.991555 0.918468 0.575388
1 0.922554 0.612387
1 0.927956 0.654715
1 0.934551 0.69982
1 0.942076 0.745231
1 0.950435 0.787723
1 0.959309 0.827109
1 0.968124 0.862107
1 0.976351 0.891287
1 0.983705 0.916579
1 0.990117 0.937716
1 0.995361 0.955056
1 0.999402 0.969289
0.767726 0.942366 0.534485
0.769169 0.942311 0.534692
0.770598 0.942255 0.534898
0.772056 0.942199 0.53511
0.773918 0.942127 0.535385
0.776397 0.942031 0.535755
0.779678 0.941904 0.536255
0.783992 0.941737 0.53693
0.789613 0.94152 0.537839
0.796852 0.941241 0.539064
0.806031 0.940889 0.540714
0.81744 0.940457 0.542931
0.831261 0.939943 0.545908
0.847466 0.939365 0.549894
0.865695 0.938762 0.555213
0.88531 0.938203 0.562275
0.906387 0.937725 0.571587
0.928168 0.937432 0.583759
0.949463 0.937476 0.599499
0.968884 0.938045 0.619533
0.985871 0.939303 0.644005
0.999916 0.941414 0.672472
1 0.944526 0.704321
1 0.948713 0.738454
1 0.953891 0.773172
1 0.959924 0.807359
1 0.966564 0.840568
1 0.973374 0.870636
1 0.979947 0.896761
1 0.986131 0.920072
1 0.991662 0.939827
1 0.996278 0.956373
1 0.999981 0.97007
0.828116 0.960095 0.635095
0.828913 0.960062 0.635241
0.829705 0.960028 0.635387
0.830513 0.959994 0.635537
0.831548 0.95995 0.635731
0.832928 0.959892 0.635993
0.834763 0.959814 0.636347
0.837186 0.959712 0.636823
0.840362 0.959579 0.637465
0.844484 0.959408 0.63833
0.849763 0.95919 0.639493
0.856403 0.958919 0.641055
0.864588 0.958594 0.643148
0.874634 0.958203 0.645945
0.886688 0.957752 0.649664
0.900691 0.957259 0.654584
0.91634 0.956768 0.661042
0.933044 0.956348 0.669435
0.949928 0.956101 0.680196
0.966267 0.956136 0.693746
0.981594 0.956564 0.710377
0.994873 0.957557 0.73007
1 0.959275 0.752407
1 0.961798 0.776542
1 0.965137 0.802204
1 0.969221 0.829097
1 0.973893 0.855794
1 0.978846 0.880517
1 0.983921 0.90347
1 0.988889 0.924424
1 0.993462 0.942522
1 0.997368 0.958074
1 1 0.971084
0.871037 0.974127 0.723041
0.87148 0.974107 0.723127
0.87192 0.974088 0.723214
0.872371 0.974068 0.723303
0.872952 0.974042 0.723419
0.87373 0.974007 0.723574
0.87477 0.973961 0.723784
0.876156 0.9739 0.724067
0.877994 0.973819 0.724449
0.880417 0.973713 0.724963
0.883586 0.973574 0.725654
0.887685 0.973396 0.726583
0.892913 0.973171 0.727828
0.899465 0.972894 0.729494
0.907489 0.972564 0.731714
0.917041 0.972188 0.734658
0.928014 0.971786 0.738537
0.940088 0.971398 0.7436
0.952912 0.971074 0.750128
0.966172 0.970871 0.758405
0.979164 0.97088 0.768674
0.991051 0.971218 0.78108
1 0.972012 0.795873
1 0.973345 0.812923
1 0.975281 0.831812
1 0.977826 0.851866
1 0.980902 0.872118
1 0.984382 0.891933
1 0.988111 0.911456
1 0.991888 0.929707
1 0.995472 0.945904
1 0.99862 0.960236
1 1 0.972383
0.904793 0.98487 0.790616
0.905051 0.984857 0.790665
0.905309 0.984845 0.790713
0.905573 0.984833 0.790763
0.905914 0.984817 0.790827
0.90637 0.984795 0.790913
0.906982 0.984767 0.79103
0.907799 0.984728 0.791188
0.908888 0.984677 0.791401
0.91033 0.98461 0.791688
0.912226 0.984522 0.792075
0.914701 0.984407 0.792595
0.917891 0.984261 0.793295
0.921942 0.984078 0.794234
0.926987 0.983854 0.795492
0.933116 0.983591 0.797171
0.940434 0.98329 0.799402
0.948947 0.982961 0.802349
0.958479 0.98263 0.806211
0.968681 0.982341 0.811217
0.979039 0.982153 0.817616
0.98892 0.982145 0.825644
0.99789 0.982392 0.835454
1 0.982979 0.847013
1 0.983995 0.860062
1 0.985499 0.874111
1 0.987448 0.888963
1 0.989744 0.904688
1 0.9923 0.920623
1 0.99498 0.935916
1 0.997604 0.950048
1 1 0.962922
1 1 0.974019
0.930982 0.992901 0.842963
0.931129 0.992894 0.842991
0.931275 0.992887 0.843019
0.931425 0.99288 0.843047
0.931619 0.99287 0.843084
0.93188 0.992857 0.843134
0.932231 0.99284 0.843201
0.9327 0.992817 0.843292
0.933328 0.992787 0.843415
0.934165 0.992746 0.843581
0.935274 0.992693 0.843804
0.936738 0.992622 0.844105
0.938653 0.992531 0.844509
0.941132 0.992413 0.845052
0.944296 0.992264 0.84578
0.948265 0.992082 0.846754
0.953134 0.991863 0.848051
0.958942 0.991614 0.84977
0.965633 0.991346 0.852033
0.973027 0.991082 0.854986
0.980796 0.990861 0.858789
0.988593 0.990725 0.863608
0.996156 0.990721 0.869579
1 0.990914 0.876766
1 0.99138 0.885319
1 0.992174 0.895234
1 0.993266 0.906321
1 0.994636 0.91828
1 0.996233 0.930689
1 0.997971 0.942982
1 0.999788 0.954978
1 1 0.966172
1 1 0.976033
0.951703 0.998919 0.882314
0.951789 0.998915 0.88233
0.951875 0.99891 0.882345
0.951963 0.998906 0.882361
0.952076 0.9989 0.882381
0.952229 0.998892 0.882408
0.952435 0.998882 0.882445
0.952712 0.998867 0.882496
0.953082 0.998849 0.882563
0.953577 0.998824 0.882654
0.954237 0.99879 0.882777
0.95511 0.998746 0.882942
0.95626 0.998688 0.883166
0.957762 0.998613 0.883466
0.9597 0.998518 0.88387
0.962164 0.998397 0.884413
0.965239 0.99825 0.88514
0.968984 0.998075 0.886111
0.973407 0.997878 0.887403
0.978439 0.99767 0.889112
0.984017 0.997463 0.891356
0.98995 0.997282 0.89427
0.995925 0.997162 0.898007
1 0.997146 0.902715
1 0.997287 0.908508
1 0.997613 0.9154
1 0.998111 0.923293
1 0.998797 0.931983
1 0.999669 0.941194
1 1 0.950848
1 1 0.96061
1 1 0.969978
1 1 0.97845
0.967998 1 0.913014
0.968046 1 0.913023
0.968094 1 0.913032
0.968144 1 0.913041
0.968208 1 0.913054
0.968294 1 0.91307
0.96841 1 0.913092
0.968565 1 0.913122
0.968774 1 0.913162
0.969054 1 0.913216
0.969428 1 0.91329
0.969925 1 0.913389
0.970582 1 0.913522
0.971446 1 0.913701
0.972569 1 0.913943
0.974019 1 0.914268
0.975868 1 0.914704
0.978183 1 0.915287
0.981017 1 0.916066
0.984386 1 0.9171
0.988253 1 0.918464
0.992501 1 0.92025
0.996931 1 0.922563
1 1 0.925513
1 1 0.929206
1 1 0.933705
1 1 0.938995
1 1 0.945077
1 1 0.951865
1 1 0.959178
1 1 0.966766
1 1 0.97426
1 1 0.981294
0.980078 1 0.937148
0.980105 1 0.937153
0.980132 1 0.937158
0.98016 1 0.937164
0.980196 1 0.93717
0.980245 1 0.93718
0.980311 1 0.937192
0.980399 1 0.937209
0.980517 1 0.937232
0.980677 1 0.937263
0.98089 1 0.937304
0.981175 1 0.93736
0.981555 1 0.937436
0.982058 1 0.937538
0.98272 1 0.937675
0.983582 1 0.937859
0.984695 1 0.938108
0.986107 1 0.938442
0.987866 1 0.938888
0.99 1 0.939485
0.992511 1 0.940279
0.995346 1 0.941328
0.998392 1 0.942705
1 1 0.944494
1 1 0.946785
1 1 0.949666
1 1 0.953206
1 1 0.957413
1 1 0.96223
1 1 0.967537
1 1 0.973155
1 1 0.97886
1 1 0.984524
0.988812 1 0.955913
0.988827 1 0.955916
0.988842 1 0.955919
0.988857 1 0.955922
0.988877 1 0.955926
0.988904 1 0.955931
0.98894 1 0.955939
0.988989 1 0.955949
0.989054 1 0.955963
0.989142 1 0.955981
0.98926 1 0.956005
0.989418 1 0.956039
0.989629 1 0.956083
0.98991 1 0.956144
0.99028 1 0.956225
0.990767 1 0.956335
0.991399 1 0.956483
0.992211 1 0.956682
0.993234 1 0.956949
0.994496 1 0.957305
0.996009 1 0.957782
0.997757 1 0.958415
0.999761 1 0.95925
1 1 0.960342
1 1 0.961754
1 1 0.963555
1 1 0.965808
1 1 0.968555
1 1 0.971788
1 1 0.975441
1 1 0.979419
1 1 0.983666
1 1 0.988029
0.994587 1 0.970622
0.994595 1 0.970624
0.994603 1 0.970626
0.99461 1 0.970627
0.994621 1 0.97063
0.994634 1 0.970633
0.994653 1 0.970637
0.994678 1 0.970643
0.994712 1 0.970651
