various/display_lut_aces_10_no_blue_fix.cube
TITLE "utilities/display_lut_aces_10_no_blue_fix.cube"
LUT_3D_SIZE 9
7.89041e-10 7.89037e-10 7.8904e-10
0.0877926 -0.055 -0.055
0.244537 -0.055 -0.055
0.552936 -0.055 -0.0155357
0.947287 0.0993727 0.0641536
1 0.555648 0.253285
1 0.854975 0.611221
1 0.960538 0.872889
1 0.997593 0.966916
-0.055 0.0935878 -0.055
0.0952132 0.0969772 -0.055
0.268542 0.0971631 -0.055
0.569523 0.0929997 -0.017745
0.945558 0.217615 0.0674681
1 0.582992 0.25884
1 0.858299 0.614379
1 0.960913 0.87325
1 0.997626 0.966959
-0.055 0.28965 -0.055
0.0748318 0.291491 -0.055
0.291294 0.29463 -0.055
0.609157 0.305787 -0.055
0.938948 0.393263 0.0763051
1 0.646425 0.275127
1 0.866622 0.622926
1 0.961915 0.874228
1 0.997718 0.967075
-0.055 0.631198 -0.055
0.0657759 0.631503 -0.055
0.333883 0.632212 -0.055
0.635935 0.635161 0.0346195
0.917613 0.665602 0.141119
1 0.768938 0.3377
1 0.888319 0.649743
1 0.965008 0.877365
1 0.998015 0.967458
0.572168 0.889874 0.329546
0.593111 0.889305 0.331216
0.642244 0.887913 0.335762
0.75046 0.884796 0.350596
0.895994 0.88275 0.39623
0.997995 0.894271 0.512122
1 0.930106 0.719321
1 0.97318 0.886928
1 0.998956 0.968693
0.871037 0.974127 0.723041
0.872952 0.974042 0.723419
0.877994 0.973819 0.724449
0.892913 0.973171 0.727828
0.928014 0.971786 0.738537
0.979164 0.97088 0.768674
1 0.975281 0.831812
1 0.988111 0.911456
1 1 0.972383
0.967998 1 0.913014
0.968208 1 0.913054
0.968774 1 0.913162
0.970582 1 0.913522
0.975868 1 0.914704
0.988253 1 0.918464
1 1 0.929206
1 1 0.951865
1 1 0.981294
0.998744 1 0.981714
0.998767 1 0.981718
0.998828 1 0.98173
0.999032 1 0.981769
0.999694 1 0.981896
1 1 0.982316
1 1 0.983644
1 1 0.987413
1 1 0.995106
1 1 1
1 1 1
1 1 1
1 1 1
1 1 1
1 1 1
1 1 1
1 1 1
1 1 1
-0.055 -0.055 0.0879627
0.0794793 -0.055 0.0894084
0.252346 -0.055 0.093207
0.556479 -0.055 0.106928
0.947074 0.101521 0.159672
1 0.556005 0.313379
1 0.854947 0.632323
1 0.960532 0.875273
1 0.997592 0.967195
-0.055 0.0925145 0.0936205
0.0928523 0.0928377 0.0928174
0.261501 0.0989696 0.0997852
0.567288 0.0960645 0.113471
0.944868 0.219084 0.163939
1 0.583326 0.318577
1 0.85827 0.635228
1 0.960906 0.875618
1 0.997625 0.967237
-0.055 0.289881 0.104322
0.0791531 0.291873 0.106143
0.293571 0.295198 0.110718
0.605271 0.30743 0.125637
0.937424 0.394349 0.174487
1 0.646691 0.333211
1 0.86659 0.64303
1 0.961908 0.876552
1 0.997717 0.967352
-0.055 0.631375 0.13822
0.0746051 0.631674 0.140455
0.33569 0.632379 0.146479
0.63643 0.635333 0.165975
0.916207 0.665957 0.226009
1 0.769031 0.386216
1 0.888284 0.667315
1 0.965001 0.87957
1 0.998014 0.96773
0.572011 0.889755 0.379494
0.592892 0.889189 0.380903
0.641881 0.887804 0.384746
0.749802 0.884705 0.397375
0.895132 0.882679 0.43694
0.997061 0.894224 0.540715
1 0.930074 0.730826
1 0.973174 0.888835
1 0.998955 0.968951
0.870585 0.974074 0.734116
0.8725 0.973989 0.734464
0.877542 0.973767 0.73541
0.892461 0.973121 0.738518
0.927575 0.971741 0.748377
0.978804 0.970847 0.776201
1 0.975264 0.835965
1 0.988106 0.912699
1 1 0.9726
0.967938 1 0.914209
0.968148 1 0.914248
0.968714 1 0.914354
0.970522 1 0.914705
0.975807 1 0.915859
0.988192 1 0.919533
1 1 0.930044
1 1 0.952324
1 1 0.98143
0.998737 1 0.981844
0.998759 1 0.981848
0.998821 1 0.981859
0.999025 1 0.981898
0.999687 1 0.982024
1 1 0.982441
1 1 0.98376
1 1 0.987503
1 1 0.995151
1 1 1
1 1 1
1 1 1
1 1 1
1 1 1
1 1 1
1 1 1
1 1 1
1 1 1
-0.055 -0.055 0.277678
0.0634567 -0.055 0.27826
0.259948 -0.055 0.27954
0.583976 -0.055 0.28844
0.948633 0.102347 0.326215
1 0.556851 0.440001
1 0.854892 0.681295
1 0.960516 0.881357
1 0.997588 0.967941
-0.055 0.091759 0.282029
0.0869149 0.094477 0.282828
0.276426 0.0942726 0.284839
0.583829 0.0884582 0.293846
0.944754 0.220969 0.330549
1 0.58413 0.443518
1 0.858211 0.683502
1 0.96089 0.881669
1 0.997622 0.967982
-0.055 0.289623 0.291689
0.0774911 0.291746 0.292796
0.295927 0.295895 0.295849
0.592421 0.311782 0.305873
0.933924 0.396627 0.341762
1 0.647346 0.453431
1 0.866522 0.689448
1 0.961892 0.882518
1 0.997714 0.968094
-0.055 0.631755 0.327689
0.0867975 0.632042 0.329027
0.338452 0.632737 0.332666
0.636834 0.635713 0.344667
0.911459 0.666947 0.382663
1 0.769272 0.490331
1 0.888207 0.708128
1 0.964985 0.885278
1 0.998011 0.968461
0.571605 0.889433 0.485452
0.592315 0.888874 0.486445
0.640917 0.887508 0.489165
0.748043 0.88446 0.498197
0.892842 0.882493 0.527268
0.994586 0.894111 0.607731
1 0.930004 0.75795
1 0.973158 0.893791
1 0.998952 0.969643
0.869527 0.973943 0.760243
0.87144 0.973859 0.76052
0.876479 0.973638 0.761276
0.891392 0.972998 0.763758
0.926525 0.971633 0.771655
0.977909 0.970765 0.794622
1 0.975223 0.846377
1 0.988094 0.915958
1 1 0.973184
0.967783 1 0.917343
0.967992 1 0.917379
0.968558 1 0.917478
0.970365 1 0.917808
0.975648 1 0.91889
0.988036 1 0.922341
1 1 0.932252
1 1 0.953548
1 1 0.981794
0.998718 1 0.982194
0.998741 1 0.982198
0.998802 1 0.982209
0.999006 1 0.982246
0.999668 1 0.982371
1 1 0.982778
1 1 0.984072
1 1 0.987746
1 1 0.995273
1 1 1
1 1 1
1 1 1
1 1 1
1 1 1
1 1 1
1 1 1
1 1 1
1 1 1
-0.055 -0.055 0.619209
-0.055 -0.055 0.619303
0.251232 -0.055 0.61916
0.612071 -0.055 0.620157
0.963786 0.0812465 0.633309
1 0.558566 0.677938
1 0.854889 0.781713
1 0.960477 0.898418
1 0.997579 0.970274
-0.055 0.0914577 0.620588
-0.055 0.0934139 0.62063
0.27015 0.0930397 0.620637
0.619443 0.0642156 0.621993
0.95775 0.214342 0.634683
1 0.585843 0.679047
1 0.858196 0.782633
1 0.960852 0.898652
1 0.997613 0.970311
-0.055 0.292892 0.62234
0.02113 0.294938 0.622585
0.295965 0.298882 0.623192
0.62934 0.307724 0.625629
0.939047 0.396559 0.637871
1 0.648883 0.682301
1 0.866479 0.785147
1 0.961853 0.89929
1 0.997705 0.970411
-0.055 0.632814 0.631345
0.107442 0.633082 0.631755
0.343895 0.633772 0.632887
0.636922 0.636879 0.636819
0.895274 0.67026 0.650661
1 0.76999 0.696173
1 0.88812 0.793447
1 0.964945 0.901377
1 0.998003 0.970742
0.572207 0.888499 0.692322
0.592279 0.887965 0.692733
0.63946 0.886663 0.693868
0.743734 0.883786 0.697713
0.886685 0.88202 0.710478
0.987902 0.893951 0.746304
1 0.929886 0.818516
1 0.973116 0.907903
1 0.998943 0.971809
0.867333 0.973619 0.819105
0.869233 0.973537 0.819262
0.874239 0.973322 0.819691
0.889067 0.972697 0.82111
0.924079 0.971368 0.825734
0.975636 0.970561 0.839792
1 0.975123 0.873051
1 0.988059 0.925461
1 1 0.975018
0.967341 1 0.926497
0.96755 1 0.926526
0.968115 1 0.926607
0.969917 1 0.926875
0.975193 1 0.927757
0.987579 1 0.930583
1 1 0.9388
1 1 0.957322
1 1 0.982957
0.998659 1 0.98331
0.998681 1 0.983314
0.998743 1 0.983324
0.998947 1 0.983359
0.999609 1 0.983476
1 1 0.983857
1 1 0.985069
1 1 0.988526
1 1 0.995666
1 1 1
1 1 1
1 1 1
1 1 1
1 1 1
1 1 1
1 1 1
1 1 1
1 1 1
-0.055 -0.055 0.908227
0.103039 -0.055 0.90766
0.320748 -0.055 0.906023
0.645003 -0.055 0.901691
0.976442 0.120238 0.896581
1 0.561117 0.891472
1 0.855444 0.897143
1 0.960454 0.933743
1 0.997558 0.976637
-0.055 0.113223 0.90668
0.139344 0.113621 0.906126
0.338474 0.110862 0.90457
0.650682 0.0981212 0.900566
0.971695 0.234529 0.895457
1 0.588298 0.890612
1 0.858719 0.897204
1 0.960828 0.933845
1 0.997592 0.976663
-0.00212184 0.310762 0.901388
0.181161 0.312195 0.900963
0.366843 0.315074 0.899792
0.657211 0.326442 0.896698
0.957074 0.405499 0.892264
1 0.650937 0.888535
1 0.86692 0.897416
1 0.961826 0.934122
1 0.997683 0.976735
0.168094 0.63885 0.887676
0.260843 0.639092 0.8875
0.409693 0.639804 0.887039
0.661573 0.64331 0.885768
0.912967 0.67249 0.884081
1 0.771156 0.884981
1 0.888419 0.89846
1 0.96491 0.935043
1 0.997981 0.976973
0.599713 0.887153 0.880428
0.616809 0.886695 0.880434
0.657425 0.885588 0.880463
0.749021 0.883218 0.880677
0.882017 0.881999 0.881977
0.977329 0.894699 0.887134
1 0.929977 0.903435
1 0.973065 0.938048
1 0.998923 0.977746
0.866177 0.973067 0.902375
0.868006 0.97299 0.902417
0.872829 0.972788 0.902532
0.88715 0.972202 0.902919
0.921184 0.970965 0.904244
0.972171 0.970278 0.908677
1 0.975013 0.921204
1 0.987999 0.947061
1 1 0.980123
0.966456 1 0.947437
0.966662 1 0.947454
0.96722 1 0.947499
0.969002 1 0.947652
0.974232 1 0.94816
0.986555 1 0.949817
1 1 0.954901
1 1 0.967238
1 1 0.986336
0.998492 1 0.98656
0.998515 1 0.986563
0.998576 1 0.986571
0.99878 1 0.9866
0.999441 1 0.986693
1 1 0.987002
1 1 0.987987
1 1 0.990833
1 1 0.996857
1 1 1
1 1 1
1 1 1
1 1 1
1 1 1
1 1 1
1 1 1
1 1 1
1 1 1
0.483024 0.109757 1
0.517511 0.108457 1
0.598068 0.10637 1
0.781254 0.119415 1
0.990081 0.280763 0.997726
1 0.596507 0.986361
1 0.856869 0.974579
1 0.96065 0.976092
1 0.997533 0.989284
0.491116 0.20601 1
0.524565 0.206452 1
0.602885 0.208471 1
0.781469 0.224637 1
0.984404 0.345437 0.996258
1 0.620359 0.985316
1 0.860063 0.974412
1 0.961021 0.976097
1 0.997567 0.989295
0.502071 0.377796 1
0.53369 0.378945 1
0.607985 0.382319 1
0.77726 0.396463 0.997878
0.968838 0.471965 0.992426
1 0.674245 0.982798
1 0.868065 0.974001
1 0.962011 0.976115
1 0.997659 0.989327
0.526303 0.663575 0.988004
0.553696 0.66387 0.987791
0.618813 0.664773 0.987233
0.759551 0.669771 0.985676
0.925086 0.698273 0.982429
1 0.779755 0.97733
1 0.889227 0.972971
1 0.965071 0.976187
1 0.997956 0.989429
0.697141 0.886649 0.973027
0.706983 0.886392 0.972981
0.730975 0.885792 0.972863
0.791621 0.884493 0.97254
0.891913 0.884543 0.971907
0.983853 0.895635 0.971199
1 0.930419 0.971408
1 0.973162 0.976556
1 0.998899 0.989768
0.874806 0.972441 0.969661
0.87638 0.972377 0.969661
0.88054 0.97221 0.969662
0.892979 0.971726 0.969671
0.923063 0.970715 0.96975
0.970268 0.97026 0.970253
1 0.975264 0.972262
1 0.98801 0.978413
1 1 0.990847
0.96597 1 0.978133
0.966166 1 0.978138
0.966697 1 0.97815
0.968393 1 0.978192
0.973416 1 0.978332
0.985344 1 0.978814
1 1 0.98043
1 1 0.98492
1 1 0.993898
0.998171 1 0.993865
0.998193 1 0.993867
0.998254 1 0.993872
0.998457 1 0.993887
0.999115 1 0.993937
1 1 0.994101
1 1 0.994635
1 1 0.996224
1 1 0.999899
1 1 1
1 1 1
1 1 1
1 1 1
1 1 1
1 1 1
1 1 1
1 1 1
1 1 1
0.887769 0.421896 1
0.893934 0.424485 1
0.90923 0.431676 1
0.948797 0.455895 1
1 0.532566 1
1 0.704459 1
1 0.870111 1
1 0.961178 1
1 0.997572 1
0.88316 0.463455 1
0.88919 0.465733 1
0.904282 0.472044 1
0.943408 0.493393 1
1 0.562113 1
1 0.717924 1
1 0.872646 1
1 0.961541 1
1 0.997606 1
0.870859 0.555175 1
0.876653 0.556866 1
0.891259 0.561557 1
0.929282 0.577582 1
0.99134 0.630659 1
1 0.749141 1
1 0.879157 1
1 0.96251 1
1 0.997696 1
0.841116 0.734713 1
0.846366 0.735317 1
0.859682 0.737008 1
0.894976 0.742914 1
0.957191 0.763207 1
1 0.816227 1
1 0.897226 1
1 0.965507 1
1 0.997993 1
0.843937 0.892171 1
0.847145 0.892155 1
0.855388 0.892138 1
0.8781 0.892323 1
0.927002 0.894236 1
0.98823 0.904683 1
1 0.933593 1
1 0.973451 1
1 0.998935 1
0.905735 0.972109 1
0.906725 0.972075 1
0.909359 0.971986 1
0.91737 0.97173 1
0.937885 0.971218 1
0.974318 0.971271 1
1 0.975667 1
1 0.988148 1
1 1 1
0.969168 1 1
0.969334 1 1
0.969785 1 1
0.971235 1 1
0.975574 1 1
0.986068 1 1
1 1 1
1 1 1
1 1 1
0.998061 1 1
0.998084 1 1
0.998143 1 1
0.99834 1 1
0.998979 1 1
1 1 1
1 1 1
1 1 1
1 1 1
1 1 1
1 1 1
1 1 1
1 1 1
1 1 1
1 1 1
1 1 1
1 1 1
1 1 1
0.993641 0.782682 1
0.994243 0.783245 1
0.995836 0.784774 1
1 0.789751 1
1 0.805049 1
1 0.844022 1
1 0.906958 1
1 0.966119 1
1 0.997636 1
0.991408 0.790058 1
0.992017 0.790584 1
0.993627 0.792015 1
0.99845 0.796675 1
1 0.811037 1
1 0.847863 1
1 0.90839 1
1 0.966414 1
1 0.997669 1
0.985897 0.808116 1
0.986519 0.808556 1
0.988167 0.809755 1
0.99312 0.813667 1
1 0.825809 1
1 0.857454 1
1 0.912124 1
1 0.967205 1
1 0.997759 1
0.972603 0.85171 1
0.973245 0.851964 1
0.97495 0.852654 1
0.980127 0.854929 1
0.993551 0.862119 1
1 0.881896 1
1 0.922868 1
1 0.969665 1
1 0.998053 1
0.955838 0.917089 1
0.956424 0.917155 1
0.957993 0.917337 1
0.96287 0.917957 1
0.975984 0.920103 1
1 0.927373 1
1 0.946511 1
1 0.976287 1
1 0.998986 1
0.956137 0.974197 1
0.956493 0.974195 1
0.957452 0.97419 1
0.960483 0.974183 1
0.969048 0.974243 1
0.986953 0.975005 1
1 0.978982 1
1 0.989182 1
1 1 1
0.979837 1 1
0.979941 1 1
0.980224 1 1
0.981139 1 1
0.983924 1 1
0.990961 1 1
1 1 1
1 1 1
1 1 1
0.999035 1 1
0.999055 1 1
0.999109 1 1
0.999286 1 1
0.999863 1 1
1 1 1
1 1 1
1 1 1
1 1 1
1 1 1
1 1 1
1 1 1
1 1 1
1 1 1
1 1 1
1 1 1
1 1 1
1 1 1
1 0.934115 1
1 0.934177 1
1 0.934346 1
1 0.934902 1
1 0.936702 1
1 0.942206 1
1 0.956411 1
1 0.979596 1
1 0.999062 1
1 0.934925 1
1 0.934986 1
1 0.935151 1
1 0.935695 1
1 0.937454 1
1 0.942858 1
1 0.95684 1
1 0.979751 1
1 0.999091 1
1 0.937057 1
1 0.937114 1
1 0.937268 1
1 0.937779 1
1 0.939444 1
1 0.944588 1
1 0.957983 1
1 0.980169 1
1 0.999169 1
1 0.943423 1
1 0.943471 1
1 0.943601 1
1 0.944032 1
1 0.94544 1
1 0.949831 1
1 0.9615 1
1 0.981496 1
1 0.999427 1
1 0.959063 1
1 0.959092 1
1 0.95917 1
1 0.959429 1
1 0.960285 1
1 0.963021 1
1 0.970709 1
1 0.985298 1
1 1 1
0.996601 0.9833 1
0.996663 0.983307 1
0.99683 0.983327 1
0.997372 0.983396 1
0.999033 0.983627 1
1 0.984436 1
1 0.987105 1
1 0.993519 1
1 1 1
0.99625 1 1
0.996283 1 1
0.99637 1 1
0.996654 1 1
0.997563 1 1
1 1 1
1 1 1
1 1 1
1 1 1
1 1 1
1 1 1
1 1 1
1 1 1
1 1 1
1 1 1
1 1 1
1 1 1
1 1 1
1 1 1
1 1 1
1 1 1
1 1 1
1 1 1
1 1 1
1 1 1
1 1 1
1 1 1
