various/display_lut_agx.cube
TITLE "utilities/display_lut_agx.cube"
LUT_3D_SIZE 5
0 0 0
0.46382 0.0532076 0.0532843
0.849001 0.367468 0.367665
0.998419 0.771929 0.772091
1 0.981254 0.981294
0.104064 0.471197 0.104064
0.479502 0.479479 0.15133
0.849947 0.54826 0.393942
0.998436 0.79323 0.774164
1 0.981774 0.981341
0.476669 0.853895 0.476669
0.590234 0.854377 0.4847
0.859304 0.85929 0.551777
0.998614 0.898612 0.793972
1 0.986569 0.98183
0.853072 0.999384 0.853072
0.862234 0.999393 0.853559
0.919256 0.999482 0.858527
1 1 0.898221
1 1 0.986567
0.999146 1 0.999146
0.999317 1 0.999155
1 1 0.999246
1 1 1
1 1 1
0.105045 0.104973 0.471332
0.479652 0.152018 0.479617
0.849956 0.394 0.548414
0.998437 0.774023 0.793378
1 0.981301 0.981814
0.185658 0.486369 0.486358
0.493979 0.493949 0.493947
0.850892 0.55792 0.557978
0.998454 0.794959 0.79509
1 0.98182 0.98186
0.491384 0.854794 0.593749
0.597735 0.855271 0.597718
0.860143 0.860129 0.634449
0.998631 0.899079 0.811609
1 0.986605 0.982337
0.85398 0.9994 0.862609
0.863042 0.999409 0.86304
0.919575 0.999498 0.867442
1 1 0.903247
1 1 0.986965
0.999162 1 0.999325
0.999333 1 0.999333
1 1 0.999423
1 1 1
1 1 1
0.478432 0.478304 0.853984
0.591117 0.486251 0.854466
0.859401 0.552748 0.859379
0.998616 0.794024 0.898694
1 0.981795 0.986604
0.49286 0.594486 0.854874
0.598504 0.598432 0.85535
0.860231 0.634978 0.860209
0.998633 0.811641 0.899157
1 0.982303 0.98664
0.597144 0.863695 0.863688
0.660558 0.864119 0.864113
0.868474 0.868455 0.868454
0.998808 0.903798 0.903827
1 0.986983 0.987013
0.862977 0.999567 0.920934
0.871068 0.999575 0.921099
0.922811 0.999664 0.922803
1 1 0.938307
1 1 0.990697
0.999332 1 1
0.999501 1 1
1 1 1
1 1 1
1 1 1
0.854235 0.85415 0.999402
0.863267 0.854631 0.99941
0.919664 0.859528 0.9995
1 0.898744 1
1 0.986579 1
0.855121 0.863556 0.999417
0.864056 0.863981 0.999426
0.919976 0.868325 0.999515
1 0.903723 1
1 0.986977 1
0.863909 0.921269 0.999582
0.871903 0.921433 0.999591
0.923156 0.923123 0.999679
1 0.938516 1
1 0.990704 1
0.92102 1 1
0.924186 1 1
0.948198 1 1
1 1 1
1 1 1
1 1 1
1 1 1
1 1 1
1 1 1
1 1 1
0.999374 0.999358 1
0.999543 0.999366 1
1 0.999456 1
1 1 1
1 1 1
0.99939 0.999534 1
0.999559 0.999542 1
1 0.999631 1
1 1 1
1 1 1
0.999556 1 1
0.999722 1 1
1 1 1
1 1 1
1 1 1
1 1 1
1 1 1
1 1 1
1 1 1
1 1 1
1 1 1
1 1 1
1 1 1
1 1 1
1 1 1
