various/display_lut_agx.cube
TITLE "utilities/display_lut_agx.cube"
LUT_3D_SIZE 33
0 0 0
0.0677245 -0.0432099 -0.0431915
0.133049 -0.030215 -0.0301909
0.184735 -0.0202922 -0.0202626
0.237694 -0.00970389 -0.0096681
0.293379 0.00245611 0.00249951
0.350446 0.016645 0.0166975
0.407589 0.033373 0.0334366
0.46382 0.0532076 0.0532843
0.518605 0.0767533 0.0768455
0.571875 0.104601 0.104711
0.623787 0.137239 0.137367
0.674238 0.174921 0.175069
0.722769 0.217539 0.217705
0.768639 0.264534 0.264715
0.81098 0.314924 0.315115
0.849001 0.367468 0.367665
0.88218 0.420918 0.421117
0.91037 0.474262 0.474459
0.933785 0.526874 0.527067
0.952898 0.578558 0.578749
0.968314 0.629303 0.629489
0.980665 0.678858 0.67904
0.990532 0.726668 0.726842
0.998419 0.771929 0.772091
1 0.813735 0.813883
1 0.851281 0.851412
1 0.884041 0.884154
1 0.91187 0.911964
1 0.93498 0.935058
1 0.953843 0.953906
1 0.96906 0.969111
1 0.981254 0.981294
-0.031836 0.0709897 -0.031836
0.0747688 0.0747586 -0.0218513
0.138235 0.0784549 -0.0135246
0.188874 0.0821919 -0.00595659
0.240962 0.0869192 0.00282794
0.295895 0.0931339 0.0134889
0.352333 0.101243 0.0264078
0.408976 0.111725 0.0420385
0.464825 0.125127 0.0609032
0.519329 0.142033 0.0835695
0.572397 0.163028 0.110598
0.624164 0.188619 0.142455
0.674507 0.21914 0.179385
0.722959 0.254638 0.221282
0.768771 0.294791 0.267599
0.811069 0.338889 0.317375
0.849059 0.385934 0.369389
0.882217 0.43482 0.422402
0.910394 0.484552 0.475403
0.933799 0.53442 0.527755
0.952906 0.58408 0.579249
0.96832 0.633326 0.629852
0.980668 0.681762 0.679301
0.990534 0.728729 0.727027
0.998421 0.773358 0.772219
1 0.814701 0.81397
1 0.851914 0.851469
1 0.884445 0.88419
1 0.91212 0.911987
1 0.935133 0.935071
1 0.953935 0.953914
1 0.969115 0.969116
1 0.981286 0.981297
-0.0146937 0.137813 -0.0146937
0.0815633 0.140567 -0.00721845
0.143304 0.143289 -0.00043552
0.192938 0.146059 0.00602736
0.244182 0.14959 0.0137829
0.298379 0.154274 0.023455
0.354202 0.16045 0.0354353
0.410352 0.168535 0.0501804
0.465824 0.179018 0.0682073
0.520049 0.192451 0.090074
0.572918 0.209411 0.11633
0.624539 0.230447 0.147431
0.674777 0.25599 0.183622
0.72315 0.286255 0.224802
0.768903 0.321146 0.270444
0.811158 0.360217 0.319609
0.849117 0.40271 0.371097
0.882254 0.447693 0.423679
0.910417 0.494244 0.476341
0.933813 0.541633 0.528439
0.952915 0.589417 0.579748
0.968324 0.637248 0.630215
0.980671 0.684608 0.679562
0.990536 0.730758 0.727212
0.998422 0.774771 0.772347
1 0.815657 0.814056
1 0.852542 0.851525
1 0.884846 0.884226
1 0.91237 0.912009
1 0.935285 0.935085
1 0.954026 0.953923
1 0.96917 0.969121
1 0.981318 0.9813
-0.00104135 0.19047 -0.00104135
0.0883285 0.192657 0.00527821
0.148411 0.194823 0.0111995
0.19705 0.197033 0.0169676
0.247451 0.199857 0.0240146
0.300908 0.203617 0.0329481
0.356109 0.208597 0.0441759
0.411759 0.215152 0.0581665
0.466847 0.223711 0.0754437
0.520788 0.234768 0.0965667
0.573452 0.248866 0.122083
0.624925 0.266551 0.152447
0.675054 0.288304 0.187906
0.723346 0.314452 0.228371
0.769039 0.345071 0.273336
0.811249 0.379934 0.321886
0.849177 0.418502 0.37284
0.882293 0.460022 0.424984
0.91044 0.503674 0.477302
0.933828 0.548745 0.529141
0.952923 0.594737 0.58026
0.96833 0.641187 0.630587
0.980674 0.687483 0.67983
0.990538 0.732816 0.727402
0.998423 0.776208 0.772479
1 0.816632 0.814145
1 0.853185 0.851583
1 0.885257 0.884263
1 0.912626 0.912032
1 0.935441 0.935099
1 0.95412 0.953931
1 0.969225 0.969126
1 0.981351 0.981303
0.0138383 0.244187 0.0138383
0.0967505 0.245905 0.0193118
0.154844 0.247609 0.0245412
0.202256 0.249352 0.029712
0.251602 0.251583 0.0361129
0.30413 0.254559 0.0443327
0.358544 0.258516 0.0547921
0.413561 0.263746 0.0679731
0.468161 0.270611 0.08441
0.521739 0.279542 0.104669
0.57414 0.291028 0.129302
0.625423 0.305586 0.158769
0.675412 0.323716 0.193324
0.723599 0.345825 0.2329
0.769214 0.372141 0.277016
0.811368 0.40264 0.324789
0.849255 0.43702 0.375069
0.882342 0.474735 0.426657
0.910471 0.515111 0.478537
0.933846 0.557498 0.530045
0.952934 0.601358 0.580919
0.968336 0.646132 0.631067
0.980678 0.691115 0.680176
0.99054 0.735428 0.727647
0.998424 0.778039 0.772649
1 0.817878 0.81426
1 0.854007 0.851659
1 0.885783 0.884311
1 0.912955 0.912062
1 0.935642 0.935117
1 0.954241 0.953942
1 0.969298 0.969132
1 0.981394 0.981307
0.0311735 0.300411 0.0311735
0.107614 0.301726 0.0359579
0.163254 0.303033 0.0405882
0.209101 0.30437 0.0452149
0.257086 0.306086 0.0509992
0.308402 0.308381 0.0585049
0.361785 0.311439 0.0681573
0.415966 0.315497 0.0804467
0.469918 0.32085 0.0959179
0.523013 0.327859 0.115148
0.575064 0.336945 0.138697
0.626093 0.348579 0.167038
0.675893 0.363248 0.200443
0.72394 0.381403 0.238872
0.76945 0.403387 0.281885
0.811527 0.429363 0.328645
0.849359 0.459257 0.378039
0.882409 0.492762 0.428891
0.910513 0.529396 0.48019
0.933872 0.568618 0.531256
0.952949 0.609885 0.581806
0.968345 0.652565 0.631713
0.980683 0.695878 0.680642
0.990543 0.738873 0.727978
0.998426 0.780465 0.772879
1 0.819536 0.814415
1 0.855104 0.85176
1 0.886488 0.884376
1 0.913396 0.912102
1 0.935912 0.935142
1 0.954404 0.953957
1 0.969395 0.969141
1 0.981452 0.981312
0.0515729 0.357779 0.0515729
0.121468 0.358761 0.0557725
0.174142 0.359738 0.0598715
0.218026 0.36074 0.0639975
0.264276 0.362026 0.0691937
0.314032 0.363751 0.0759904
0.366076 0.366055 0.0848074
0.419164 0.369122 0.0961339
0.472264 0.373187 0.110519
0.52472 0.378541 0.128549
0.576305 0.385534 0.150796
0.626993 0.394576 0.17775
0.676541 0.406115 0.209713
0.724399 0.420606 0.246686
0.769769 0.438462 0.288285
0.811742 0.459987 0.333734
0.849501 0.485312 0.381975
0.882499 0.514369 0.431864
0.910568 0.546898 0.482397
0.933906 0.582516 0.532879
0.95297 0.620716 0.582995
0.968358 0.660841 0.632581
0.980691 0.702065 0.681269
0.990547 0.743384 0.728423
0.998429 0.783661 0.773188
1 0.82173 0.814623
1 0.856563 0.851897
1 0.887428 0.884463
1 0.913986 0.912156
1 0.936274 0.935175
1 0.954623 0.953977
1 0.969526 0.969153
1 0.981529 0.981319
0.0756676 0.415016 0.0756676
0.138901 0.415736 0.0793509
0.188066 0.416452 0.0829662
0.229537 0.417187 0.0866241
0.273615 0.418132 0.091255
0.321393 0.419402 0.097349
0.371721 0.421101 0.105309
0.423394 0.423372 0.115611
0.475381 0.426392 0.128799
0.526997 0.430392 0.14546
0.577965 0.435653 0.166176
0.6282 0.442515 0.191461
0.677412 0.451371 0.221653
0.725017 0.462651 0.256811
0.770197 0.476786 0.296626
0.812032 0.494165 0.340405
0.849691 0.515077 0.387162
0.88262 0.539664 0.435802
0.910644 0.567895 0.485333
0.933952 0.599559 0.535046
0.952998 0.634246 0.584588
0.968374 0.671337 0.633746
0.9807 0.710008 0.682112
0.990553 0.749231 0.729022
0.998432 0.787835 0.773604
1 0.824614 0.814905
1 0.85849 0.852082
1 0.888676 0.884581
1 0.914771 0.912229
1 0.936758 0.935219
1 0.954916 0.954003
1 0.969701 0.969169
1 0.981634 0.981328
0.104064 0.471197 0.104064
0.160492 0.471717 0.107274
0.205607 0.472235 0.110437
0.244185 0.472768 0.113649
0.285603 0.473453 0.11773
0.330919 0.474375 0.123126
0.379084 0.475612 0.130211
0.42895 0.477268 0.139438
0.479502 0.479479 0.15133
0.530023 0.482421 0.166463
0.580181 0.486314 0.185425
0.629817 0.491432 0.208749
0.678579 0.498104 0.23682
0.725847 0.50671 0.269767
0.770774 0.517664 0.307377
0.812422 0.531386 0.349064
0.849947 0.54826 0.393942
0.882784 0.568584 0.440982
0.910746 0.592513 0.489219
0.934014 0.620012 0.537928
0.953035 0.650818 0.586715
0.968396 0.684419 0.635306
0.980713 0.720051 0.683242
0.990561 0.756713 0.729827
0.998436 0.79323 0.774164
1 0.828372 0.815283
1 0.861019 0.852331
1 0.890324 0.88474
1 0.915814 0.912328
1 0.937403 0.935279
1 0.955308 0.95404
1 0.969936 0.96919
1 0.981774 0.981341
0.13725 0.52586 0.13725
0.186737 0.526234 0.140015
0.227308 0.526608 0.142746
0.262516 0.526991 0.145526
0.300764 0.527486 0.149069
0.343092 0.528151 0.153768
0.388584 0.529046 0.159965
0.436186 0.530246 0.168076
0.484911 0.531854 0.178592
0.534023 0.534001 0.192063
0.583126 0.536857 0.20907
0.631973 0.540637 0.230159
0.680141 0.545607 0.255761
0.726959 0.552087 0.286088
0.771548 0.56045 0.321042
0.812946 0.5711 0.360171
0.850292 0.584453 0.402716
0.883004 0.600886 0.447743
0.910883 0.620683 0.494327
0.934097 0.64397 0.541741
0.953085 0.670656 0.589544
0.968426 0.700386 0.637388
0.980731 0.732517 0.684755
0.990571 0.766133 0.730907
0.998443 0.800106 0.774916
1 0.833213 0.815793
1 0.864307 0.852665
1 0.892482 0.884953
1 0.917189 0.912461
1 0.938257 0.935361
1 0.955829 0.954088
1 0.97025 0.96922
1 0.981962 0.981358
0.175473 0.579002 0.175473
0.217947 0.579272 0.177811
0.253583 0.579541 0.180126
0.285 0.579818 0.182486
0.319593 0.580175 0.185501
0.3584 0.580657 0.18951
0.400678 0.581304 0.194814
0.445504 0.582175 0.201787
0.491951 0.583344 0.210874
0.539275 0.584909 0.222588
0.587021 0.586999 0.237484
0.63484 0.58978 0.256111
0.682225 0.593461 0.278939
0.728447 0.598301 0.306265
0.772586 0.604614 0.338118
0.81365 0.61276 0.374206
0.850755 0.623133 0.413927
0.8833 0.636131 0.456471
0.911068 0.652106 0.500987
0.93421 0.671306 0.546754
0.953153 0.693797 0.593287
0.968467 0.7194 0.640156
0.980755 0.747646 0.686774
0.990586 0.777761 0.73235
0.998451 0.808721 0.775923
1 0.839359 0.816476
1 0.868529 0.853115
1 0.895281 0.885241
1 0.918987 0.91264
1 0.939383 0.93547
1 0.95652 0.954154
1 0.970669 0.969258
1 0.982213 0.981381
0.2186 0.630774 0.2186
0.254138 0.630969 0.220532
0.284617 0.631163 0.222448
0.311937 0.631363 0.224404
0.342481 0.63162 0.226907
0.377286 0.631968 0.230243
0.415824 0.632436 0.23467
0.45734 0.633067 0.24051
0.50101 0.633914 0.248158
0.546111 0.635051 0.258075
0.592135 0.636574 0.270777
0.638629 0.638608 0.286799
0.684993 0.641312 0.306635
0.73043 0.644891 0.330657
0.773973 0.649595 0.359026
0.814593 0.655726 0.39162
0.851377 0.663629 0.428026
0.883698 0.673677 0.467594
0.911316 0.686239 0.509576
0.934362 0.701625 0.553288
0.953244 0.720021 0.598207
0.968521 0.741414 0.643817
0.980787 0.765524 0.689456
0.990605 0.791768 0.734275
0.998462 0.819284 0.77727
1 0.847016 0.817392
1 0.873866 0.853719
1 0.898865 0.885627
1 0.921316 0.912881
1 0.940854 0.935617
1 0.95743 0.954243
1 0.971223 0.969311
1 0.982548 0.981413
0.266045 0.681029 0.266045
0.294949 0.681168 0.267599
0.320272 0.681307 0.269141
0.34337 0.68145 0.270718
0.369623 0.681635 0.272739
0.400072 0.681884 0.275438
0.43442 0.68222 0.279029
0.472124 0.682672 0.283784
0.512507 0.683281 0.290037
0.55491 0.684099 0.298193
0.598793 0.685197 0.308714
0.643602 0.686667 0.322104
0.688649 0.688628 0.338859
0.733062 0.691236 0.359407
0.77582 0.694684 0.384028
0.815852 0.69921 0.412772
0.852209 0.705101 0.445429
0.884232 0.712679 0.481543
0.91165 0.722285 0.52051
0.934566 0.734246 0.561717
0.953367 0.748815 0.604621
0.968594 0.766105 0.648627
0.980831 0.786013 0.693
0.990631 0.808165 0.736831
0.998478 0.831904 0.779065
1 0.856341 0.818615
1 0.880482 0.854527
1 0.903379 0.886146
1 0.92429 0.913205
1 0.942757 0.935815
1 0.958619 0.954362
1 0.971953 0.969382
1 0.982991 0.981455
0.3168 0.729266 0.3168
0.339632 0.729364 0.318014
0.360057 0.729462 0.31922
0.379021 0.729563 0.320456
0.400954 0.729693 0.322041
0.426885 0.729869 0.324163
0.456747 0.730106 0.326992
0.490234 0.730425 0.330751
0.526861 0.730856 0.335716
0.566085 0.731435 0.342227
0.607364 0.732213 0.350687
0.650073 0.733256 0.361549
0.693442 0.734652 0.375292
0.736534 0.736515 0.392372
0.778268 0.738988 0.413157
0.817526 0.742254 0.437853
0.853319 0.746535 0.46645
0.884946 0.752094 0.498708
0.912097 0.759222 0.534207
0.93484 0.768223 0.572447
0.953533 0.779368 0.61289
0.968693 0.792846 0.654891
0.98089 0.808695 0.697651
0.990665 0.826733 0.740203
0.998498 0.846524 0.781444
1 0.867389 0.820242
1 0.888487 0.855606
1 0.908951 0.886839
1 0.928026 0.913639
1 0.945183 0.936081
1 0.960154 0.954522
1 0.972906 0.969478
1 0.983574 0.981512
0.36961 0.774717 0.36961
0.38716 0.774785 0.370534
0.403175 0.774852 0.371453
0.418309 0.774922 0.372395
0.436124 0.775012 0.373606
0.457609 0.775133 0.375229
0.482902 0.775297 0.377398
0.511932 0.775518 0.380289
0.544443 0.775815 0.384123
0.580049 0.776216 0.389178
0.61825 0.776754 0.395791
0.658396 0.777478 0.404357
0.69967 0.778448 0.415314
0.741079 0.779745 0.429114
0.781492 0.781474 0.446178
0.819743 0.783767 0.466831
0.854795 0.78679 0.491242
0.885899 0.790745 0.519386
0.912695 0.795865 0.551053
0.935208 0.802406 0.585892
0.953755 0.810625 0.623412
0.968826 0.820738 0.662958
0.980969 0.83287 0.703698
0.990712 0.846993 0.744621
0.998526 0.862875 0.784578
1 0.880057 0.822397
1 0.897898 0.857039
1 0.915656 0.887764
1 0.932621 0.91422
1 0.948225 0.936438
1 0.962111 0.954738
1 0.974136 0.969607
1 0.984335 0.981588
0.423231 0.816514 0.423231
0.436416 0.81656 0.423919
0.448671 0.816605 0.424604
0.460446 0.816652 0.425306
0.474547 0.816712 0.42621
0.491891 0.816794 0.427424
0.512769 0.816904 0.429051
0.537324 0.817052 0.431223
0.565526 0.817252 0.434116
0.597168 0.817522 0.437948
0.631846 0.817885 0.442994
0.66895 0.818373 0.449584
0.707663 0.819028 0.458101
0.746969 0.819906 0.468968
0.785703 0.821079 0.482618
0.822657 0.822641 0.499447
0.856745 0.824709 0.51976
0.887163 0.827432 0.543726
0.913492 0.830985 0.571344
0.935699 0.835572 0.602426
0.954053 0.841408 0.636582
0.969004 0.848702 0.673203
0.981075 0.857619 0.711468
0.990775 0.86823 0.75035
0.998564 0.880462 0.788674
1 0.894062 0.825231
1 0.908594 0.858935
1 0.923488 0.888992
1 0.938128 0.914994
1 0.951956 0.936915
1 0.96456 0.955027
1 0.975703 0.96978
1 0.985318 0.981691
0.476669 0.853895 0.476669
0.486412 0.853925 0.477173
0.495618 0.853955 0.477675
0.504599 0.853985 0.478191
0.515524 0.854025 0.478856
0.529213 0.854078 0.479749
0.546053 0.854149 0.480948
0.56634 0.854246 0.482555
0.590234 0.854377 0.4847
0.617705 0.854553 0.487556
0.648495 0.854791 0.491336
0.682101 0.85511 0.49631
0.717769 0.85554 0.502799
0.754506 0.856116 0.511179
0.791145 0.856888 0.52186
0.826454 0.857919 0.535263
0.859304 0.85929 0.551777
0.888832 0.861103 0.571711
0.91455 0.863486 0.595236
0.936353 0.866588 0.62233
0.95445 0.87058 0.652749
0.969243 0.87564 0.685992
0.981217 0.881933 0.721304
0.99086 0.88958 0.757688
0.998614 0.898612 0.793972
1 0.908934 0.828925
1 0.920302 0.861423
1 0.932328 0.890614
1 0.94453 0.916021
1 0.956415 0.93755
1 0.96756 0.955413
1 0.977663 0.970012
1 0.986569 0.98183
0.529324 0.886388 0.529324
0.536462 0.886406 0.52969
0.543301 0.886425 0.530056
0.55006 0.886445 0.530432
0.558397 0.88647 0.530917
0.569019 0.886503 0.531569
0.582339 0.886549 0.532446
0.598736 0.886611 0.533624
0.618498 0.886694 0.535201
0.641754 0.886806 0.537306
0.668422 0.886957 0.540109
0.698152 0.88716 0.543819
0.730313 0.887433 0.548699
0.763997 0.887801 0.555067
0.798082 0.888295 0.56329
0.831345 0.888955 0.573772
0.86263 0.889836 0.586928
0.891019 0.891006 0.603137
0.915944 0.892553 0.622691
0.937221 0.894582 0.645722
0.95498 0.897219 0.672151
0.969562 0.900602 0.701632
0.981408 0.904876 0.73353
0.990974 0.91017 0.766938
0.998682 0.916568 0.80073
1 0.92408 0.833687
1 0.932607 0.864659
1 0.941929 0.89274
1 0.951718 0.917376
1 0.961584 0.938392
1 0.971139 0.955927
1 0.980062 0.970322
1 0.988135 0.982015
0.581027 0.913898 0.581027
0.586246 0.91391 0.581293
0.5913 0.913921 0.581559
0.596346 0.913934 0.581833
0.602639 0.913949 0.582186
0.610761 0.91397 0.582662
0.621106 0.913998 0.583302
0.634073 0.914036 0.584163
0.650018 0.914088 0.585319
0.66919 0.914157 0.586867
0.691662 0.914251 0.588934
0.717264 0.914377 0.591685
0.745535 0.914547 0.595326
0.77571 0.914776 0.600117
0.806772 0.915083 0.606366
0.837552 0.915495 0.614433
0.866901 0.916047 0.62471
0.893854 0.916782 0.637596
0.917768 0.917758 0.653443
0.938364 0.919047 0.672502
0.955682 0.920735 0.694844
0.969988 0.922925 0.720296
0.981664 0.925729 0.748394
0.991126 0.929262 0.778371
0.998773 0.933624 0.809206
1 0.938875 0.839737
1 0.945012 0.868817
1 0.951945 0.895498
1 0.959487 0.919149
1 0.967368 0.939503
1 0.975281 0.956609
1 0.982923 0.970735
1 0.990051 0.982263
0.631766 0.936684 0.631766
0.635567 0.936691 0.631959
0.639276 0.936699 0.632152
0.643007 0.936706 0.632351
0.647696 0.936715 0.632608
0.653809 0.936728 0.632954
0.661691 0.936745 0.63342
0.671716 0.936768 0.634047
0.684253 0.9368 0.63489
0.699617 0.936842 0.636021
0.717999 0.936899 0.637536
0.739392 0.936976 0.639559
0.763524 0.937079 0.64225
0.789821 0.937219 0.645811
0.817427 0.937406 0.650493
0.845288 0.937658 0.656595
0.8723 0.937996 0.664461
0.897484 0.938448 0.674466
0.920129 0.93905 0.686975
0.939857 0.939849 0.702302
0.956606 0.940903 0.720632
0.970551 0.942283 0.741955
0.982003 0.94407 0.765992
0.99133 0.946356 0.792165
0.998895 0.94923 0.819613
1 0.952769 0.847283
1 0.957019 0.874079
1 0.961973 0.899032
1 0.967551 0.921445
1 0.973601 0.940954
1 0.979909 0.957507
1 0.986232 0.971282
1 0.992337 0.982593
0.681283 0.955247 0.681283
0.684023 0.955251 0.681422
0.686712 0.955255 0.681561
0.68943 0.95526 0.681704
0.692868 0.955265 0.681889
0.697384 0.955273 0.682138
0.70326 0.955283 0.682473
0.710822 0.955297 0.682926
0.720413 0.955316 0.683534
0.732359 0.955341 0.684352
0.746919 0.955375 0.685449
0.764212 0.955422 0.686918
0.784141 0.955484 0.688878
0.80634 0.955567 0.691484
0.830157 0.95568 0.694929
0.854707 0.955832 0.699454
0.878992 0.956036 0.705341
0.902057 0.956309 0.712913
0.923145 0.956674 0.722514
0.941788 0.957161 0.734468
0.957813 0.957807 0.749028
0.971292 0.958658 0.766308
0.982453 0.959772 0.786204
0.991602 0.961213 0.808342
0.999059 0.963055 0.832064
1 0.965368 0.856485
1 0.968213 0.880607
1 0.971623 0.903487
1 0.975592 0.924381
1 0.980055 0.942832
1 0.984891 0.95868
1 0.989929 0.972002
1 0.994981 0.98303
0.729009 0.970201 0.729009
0.730952 0.970203 0.729108
0.732865 0.970206 0.729206
0.734808 0.970209 0.729307
0.737276 0.970212 0.729438
0.740535 0.970216 0.729614
0.744809 0.970223 0.729852
0.750359 0.970231 0.730173
0.757478 0.970242 0.730604
0.766472 0.970257 0.731185
0.777614 0.970277 0.731965
0.791099 0.970305 0.733012
0.806968 0.970342 0.734413
0.825047 0.970392 0.73628
0.844904 0.970459 0.738761
0.865865 0.970549 0.742036
0.887088 0.970671 0.74633
0.907699 0.970834 0.751903
0.926933 0.971054 0.75905
0.94425 0.971347 0.768073
0.959372 0.971737 0.779244
0.97226 0.972255 0.792751
0.983046 0.972937 0.80863
0.991961 0.973829 0.826698
0.999276 0.974984 0.846515
1 0.976458 0.867402
1 0.978309 0.888518
1 0.980584 0.908991
1 0.983311 0.928071
1 0.986481 0.945228
1 0.990046 0.960196
1 0.993909 0.972943
1 0.997937 0.983606
0.774133 0.982173 0.774133
0.775479 0.982175 0.774201
0.776809 0.982176 0.77427
0.778163 0.982178 0.77434
0.77989 0.98218 0.77443
0.78218 0.982183 0.774552
0.7852 0.982186 0.774717
0.789151 0.982191 0.774939
0.794268 0.982198 0.775238
0.800808 0.982207 0.775641
0.809029 0.982219 0.776183
0.819151 0.982235 0.776911
0.831303 0.982257 0.777887
0.845462 0.982286 0.779193
0.861399 0.982326 0.780932
0.878661 0.98238 0.783238
0.896605 0.982452 0.786279
0.914487 0.982549 0.790257
0.93159 0.98268 0.795405
0.947335 0.982855 0.801982
0.961358 0.983089 0.810243
0.973509 0.983401 0.820405
0.983819 0.983815 0.832591
0.992435 0.98436 0.846771
0.999564 0.985073 0.862709
1 0.985995 0.879945
1 0.987173 0.89783
1 0.988651 0.915624
1 0.990468 0.932615
1 0.992646 0.948235
1 0.99518 0.96213
1 0.99803 0.974159
1 1 0.984358
0.815753 0.991737 0.815753
0.81666 0.991738 0.815799
0.817559 0.991739 0.815844
0.818476 0.99174 0.815891
0.819649 0.991741 0.815952
0.82121 0.991743 0.816035
0.823278 0.991745 0.816146
0.826001 0.991748 0.816296
0.829555 0.991752 0.816497
0.834143 0.991757 0.816769
0.839985 0.991764 0.817135
0.847289 0.991774 0.817628
0.856225 0.991787 0.818289
0.866865 0.991804 0.819175
0.879142 0.991828 0.820358
0.892805 0.99186 0.821933
0.90742 0.991903 0.82402
0.922415 0.99196 0.826766
0.93717 0.992038 0.830349
0.951119 0.992142 0.834972
0.963844 0.992282 0.840854
0.9751 0.992469 0.848203
0.984817 0.992719 0.857182
0.993053 0.993049 0.867862
0.999942 0.993485 0.880166
1 0.994054 0.893837
1 0.994792 0.908434
1 0.995733 0.923384
1 0.996915 0.938067
1 0.998369 0.951927
1 1 0.964552
1 1 0.975708
1 1 0.98533
0.853072 0.999384 0.853072
0.853666 0.999385 0.853102
0.854255 0.999385 0.853132
0.854858 0.999386 0.853163
0.855631 0.999386 0.853202
0.856662 0.999387 0.853256
0.858034 0.999389 0.853329
0.859849 0.99939 0.853427
0.862234 0.999393 0.853559
0.86534 0.999396 0.853737
0.869338 0.9994 0.853978
0.874408 0.999406 0.854301
0.880717 0.999413 0.854735
0.888387 0.999424 0.855318
0.897454 0.999438 0.856099
0.907825 0.999457 0.857141
0.919256 0.999482 0.858527
0.93136 0.999517 0.860361
0.943655 0.999563 0.862769
0.95564 0.999625 0.865904
0.966887 0.999709 0.869937
0.97709 0.999821 0.875047
0.986088 0.99997 0.8814
0.99385 1 0.889115
1 1 0.898221
1 1 0.90862
1 1 0.920063
1 1 0.932155
1 1 0.944415
1 1 0.956346
1 1 0.967522
1 1 0.977647
1 1 0.986567
0.885585 1 0.885585
0.885963 1 0.885604
0.886339 1 0.885623
0.886724 1 0.885643
0.887217 1 0.885668
0.887879 1 0.885702
0.888761 1 0.885748
0.889934 1 0.885811
0.891483 1 0.885895
0.893516 1 0.886008
0.896159 1 0.886162
0.899551 1 0.886368
0.903837 1 0.886645
0.909149 1 0.887018
0.915573 1 0.887518
0.92312 1 0.888187
0.931694 1 0.88908
0.941075 1 0.890266
0.950934 1 0.891833
0.960878 1 0.893888
0.970517 1 0.896557
0.979525 1 0.899982
0.987677 1 0.904306
0.994866 1 0.909658
1 1 0.916123
1 1 0.923708
1 1 0.932309
1 1 0.941702
1 1 0.951554
1 1 0.961474
1 1 0.971071
1 1 0.980024
1 1 0.988117
0.913167 1 0.913167
0.913401 1 0.913178
0.913635 1 0.91319
0.913874 1 0.913202
0.914182 1 0.913218
0.914595 1 0.913239
0.915148 1 0.913268
0.915885 1 0.913307
0.916863 1 0.913359
0.918156 1 0.913429
0.919848 1 0.913525
0.922045 1 0.913653
0.924858 1 0.913825
0.928404 1 0.914058
0.932784 1 0.91437
0.938059 1 0.914788
0.944229 1 0.915348
0.951204 1 0.916094
0.958796 1 0.917085
0.966738 1 0.918392
0.974716 1 0.920105
0.982427 1 0.922326
0.989622 1 0.925169
0.996136 1 0.928748
1 1 0.933164
1 1 0.938476
1 1 0.944679
1 1 0.951679
1 1 0.959284
1 1 0.967223
1 1 0.975182
1 1 0.982862
1 1 0.990016
0.936048 1 0.936048
0.93619 1 0.936055
0.936333 1 0.936062
0.936479 1 0.936069
0.936667 1 0.936079
0.936919 1 0.936092
0.937258 1 0.936109
0.937711 1 0.936133
0.938315 1 0.936165
