various/display_lut_tony_mc_mapface.cube
TITLE "utilities/display_lut_tony_mc_mapface.cube"
LUT_3D_SIZE 5
0.00177007 0.00177007 0.00177007
0.415819 0.0024313 -0.00891313
0.931982 0.264526 0.199808
1 0.804914 0.735182
1 0.97261 0.961272
0.0240518 0.404039 0.00550099
0.406348 0.404582 0.0333256
0.925047 0.412559 0.214966
1 0.811088 0.733128
1 0.972877 0.961097
0.334445 0.827533 0.255073
0.426082 0.829017 0.269525
0.847895 0.829664 0.394142
1 0.862498 0.742252
1 0.975476 0.960765
0.822076 0.972247 0.762513
0.825544 0.972356 0.764155
0.858519 0.973371 0.780181
0.9831 0.975983 0.876484
0.999727 0.988696 0.971449
0.975456 0.995853 0.966799
0.975629 0.995861 0.966902
0.977354 0.995942 0.967946
0.988995 0.996574 0.976418
0.998306 0.997538 0.992334
-0.0403362 0.00934998 0.41392
0.406928 0.0344006 0.406122
0.922546 0.272995 0.38439
1 0.805021 0.748821
1 0.972646 0.962107
0.0519521 0.40475 0.406308
0.406512 0.406368 0.406454
0.920576 0.413933 0.391317
1 0.811104 0.747541
1 0.972912 0.961938
0.345612 0.828517 0.376432
0.433732 0.830308 0.385957
0.847607 0.830562 0.471522
1 0.862536 0.752421
1 0.975508 0.961419
0.823406 0.972503 0.767997
0.826841 0.972611 0.769588
0.859441 0.973612 0.785136
0.983205 0.976124 0.878676
0.99973 0.988718 0.971701
0.975544 0.995872 0.967088
0.975715 0.995881 0.96719
0.977429 0.995961 0.968221
0.989021 0.996585 0.976593
0.998307 0.997541 0.992364
0.0586539 0.304004 0.918767
0.347967 0.30061 0.892097
0.85107 0.400629 0.841223
1 0.808216 0.830443
1 0.973031 0.96858
0.186844 0.445858 0.92907
0.378862 0.436814 0.906304
0.8502 0.478972 0.842796
1 0.813939 0.831716
1 0.973291 0.968568
0.476303 0.831908 0.849371
0.530985 0.83272 0.849027
0.845724 0.845664 0.845657
1 0.863793 0.835591
1 0.975857 0.967811
0.835789 0.974999 0.817286
0.838893 0.975082 0.818438
0.868225 0.975903 0.829821
0.984133 0.977523 0.899152
0.999755 0.988943 0.974166
0.976408 0.996067 0.969919
0.976571 0.996074 0.970008
0.9782 0.996147 0.970915
0.989278 0.996695 0.978313
0.998326 0.997569 0.992673
0.686561 0.87012 1
0.705454 0.865835 1
0.798329 0.836306 1
0.986005 0.880274 0.980769
1 0.97769 0.987112
0.692894 0.876194 1
0.71134 0.872365 1
0.802843 0.843501 1
0.986003 0.882576 0.980919
1 0.977876 0.987141
0.755875 0.90921 1
0.766321 0.90869 1
0.833521 0.897086 1
0.98593 0.903528 0.9822
1 0.979699 0.987435
0.914063 0.979484 0.984567
0.915148 0.979564 0.984561
0.92599 0.980361 0.984552
0.984469 0.983488 0.983738
0.999698 0.990299 0.988731
0.981914 0.9968 0.986119
0.982023 0.996807 0.986145
0.983121 0.996881 0.98642
0.990941 0.99736 0.988936
0.99844 0.997808 0.994946
0.954794 0.983535 1
0.955881 0.983477 1
0.963806 0.982362 1
0.987132 0.980979 0.999633
0.998171 0.993641 0.99792
0.955159 0.983726 1
0.956224 0.983675 1
0.964211 0.982599 1
0.987162 0.981168 0.999635
0.998172 0.993669 0.997922
0.95985 0.985233 1
0.96047 0.985226 1
0.966368 0.984926 1
0.987452 0.982953 0.999642
0.998182 0.993943 0.997948
0.977051 0.991769 0.999958
0.977207 0.991783 0.999958
0.978762 0.991935 0.999956
0.989393 0.992471 0.999551
0.998263 0.995816 0.998112
0.994889 0.998004 0.998216
0.994902 0.998005 0.998217
0.995038 0.998021 0.998224
0.996224 0.998171 0.998282
0.998721 0.998582 0.998557
