various/display_lut_aces_13.cube
TITLE "utilities/display_lut_aces_13.cube"
LUT_3D_SIZE 9
7.89041e-10 7.89037e-10 7.8904e-10
0.0873872 -0.055 -0.055
0.244242 -0.055 -0.0216276
0.552802 -0.055 0.0256314
0.944947 0.153181 0.140311
1 0.588818 0.391914
1 0.867147 0.745386
1 0.96504 0.920358
1 0.998936 0.9845
-0.055 0.0935878 -0.055
0.095213 0.0969772 -0.055
0.268338 0.0972084 -0.055
0.568513 0.0935421 0.0235431
0.94405 0.229678 0.141703
1 0.606866 0.394301
1 0.869118 0.746247
1 0.965265 0.92045
1 0.998957 0.98451
-0.055 0.28965 -0.055
0.0748318 0.291491 -0.055
0.291294 0.29463 -0.055
0.608764 0.305859 -0.00260342
0.937834 0.393523 0.141793
1 0.653751 0.401043
1 0.874316 0.748603
1 0.965877 0.920704
1 0.999015 0.984538
-0.055 0.631198 -0.055
0.0657753 0.631503 -0.055
0.333883 0.632212 -0.055
0.635935 0.635161 0.0346193
0.917189 0.665626 0.167266
1 0.768858 0.428341
1 0.890278 0.75639
1 0.967857 0.921546
1 0.999207 0.984632
0.572168 0.889874 0.329547
0.593111 0.889305 0.331216
0.642244 0.887913 0.335761
0.75046 0.884796 0.350595
0.895994 0.88275 0.39623
0.99714 0.894204 0.53769
1 0.929857 0.781092
1 0.973856 0.924347
1 0.999842 0.98494
0.871037 0.974127 0.723041
0.872952 0.974042 0.723419
0.877994 0.973819 0.724449
0.892913 0.973171 0.727828
0.928014 0.971786 0.738537
0.979165 0.97088 0.768674
1 0.975224 0.843539
1 0.988 0.933413
1 1 0.985951
0.967998 1 0.913014
0.968208 1 0.913054
0.968774 1 0.913162
0.970582 1 0.913522
0.975868 1 0.914704
0.988253 1 0.918464
1 1 0.929206
1 1 0.956122
1 1 0.989115
0.998744 1 0.981714
0.998767 1 0.981719
0.998828 1 0.98173
0.999032 1 0.981769
0.999694 1 0.981896
1 1 0.982316
1 1 0.983644
1 1 0.987413
1 1 0.996466
1 1 1
1 1 1
1 1 1
1 1 1
1 1 1
1 1 1
1 1 1
1 1 1
1 1 1
-0.055 -0.055 0.0880871
0.0791703 -0.055 0.0893771
0.251804 -0.055 0.0931557
0.555873 -0.055 0.106529
0.945 0.154446 0.181543
1 0.589105 0.412644
1 0.867162 0.750102
1 0.965041 0.920863
1 0.998936 0.984554
-0.055 0.0925145 0.0936205
0.0928523 0.0928377 0.0928174
0.261501 0.0989696 0.0997852
0.567288 0.0960645 0.113471
0.943868 0.230818 0.184497
1 0.607147 0.41507
1 0.869133 0.750939
1 0.965266 0.920955
1 0.998957 0.984565
-0.055 0.289881 0.104322
0.0791531 0.291873 0.106143
0.293571 0.295198 0.110718
0.605271 0.30743 0.125637
0.937054 0.394419 0.190061
1 0.653993 0.421893
1 0.874329 0.75323
1 0.965878 0.921206
1 0.999015 0.984593
-0.055 0.631375 0.13822
0.0746039 0.631674 0.140455
0.33569 0.632379 0.146479
0.63643 0.635333 0.165976
0.916141 0.66596 0.228703
1 0.768966 0.449076
1 0.890287 0.760795
1 0.967858 0.922042
1 0.999207 0.984686
0.572011 0.889755 0.379494
0.592891 0.889189 0.380903
0.641881 0.887804 0.384746
0.749801 0.884705 0.397376
0.895132 0.882679 0.43694
0.996502 0.894182 0.556433
1 0.929856 0.784804
1 0.973856 0.924822
1 0.999842 0.984993
0.870585 0.974074 0.734116
0.8725 0.973989 0.734464
0.877542 0.973767 0.73541
0.892461 0.973121 0.738518
0.927575 0.971741 0.748377
0.978804 0.970847 0.776201
1 0.975216 0.846017
1 0.988 0.933819
1 1 0.986002
0.967938 1 0.914209
0.968148 1 0.914248
0.968714 1 0.914354
0.970522 1 0.914705
0.975807 1 0.915859
0.988192 1 0.919533
1 1 0.930044
1 1 0.956394
1 1 0.989159
0.998737 1 0.981844
0.998759 1 0.981848
0.998821 1 0.981859
0.999025 1 0.981898
0.999687 1 0.982024
1 1 0.982441
1 1 0.98376
1 1 0.987503
1 1 0.996492
1 1 1
1 1 1
1 1 1
1 1 1
1 1 1
1 1 1
1 1 1
1 1 1
1 1 1
-0.055 -0.0112293 0.277409
0.0599504 -0.0232136 0.278131
0.259391 -0.055 0.279523
0.582601 -0.055 0.288337
0.946106 0.155302 0.325417
1 0.58984 0.472146
1 0.867205 0.762721
1 0.965045 0.92224
1 0.998936 0.984703
-0.055 0.0917285 0.282027
0.0869149 0.094477 0.282828
0.276426 0.0942726 0.284839
0.583829 0.0884582 0.293846
0.94382 0.232527 0.330225
1 0.607868 0.47463
1 0.869173 0.763492
1 0.965271 0.92233
1 0.998957 0.984713
-0.055 0.289623 0.291689
0.0774911 0.291746 0.292796
0.295927 0.295895 0.295849
0.592421 0.311783 0.305873
0.933924 0.396627 0.341762
1 0.654622 0.48156
1 0.874364 0.765603
1 0.965882 0.922576
1 0.999015 0.984741
-0.055 0.631755 0.327689
0.0867973 0.632042 0.329027
0.338452 0.632737 0.332665
0.636834 0.635713 0.344667
0.911459 0.666947 0.382663
1 0.769247 0.508127
1 0.890313 0.772564
1 0.967862 0.923395
1 0.999208 0.984833
0.571605 0.889433 0.485452
0.592315 0.888874 0.486445
0.640917 0.887508 0.489165
0.748043 0.88446 0.498197
0.892842 0.882493 0.527268
0.994516 0.894106 0.609417
1 0.929854 0.794868
1 0.973858 0.926115
1 0.999842 0.985139
0.869527 0.973943 0.760243
0.87144 0.973859 0.76052
0.876479 0.973638 0.761276
0.891392 0.972998 0.763758
0.926525 0.971633 0.771655
0.977909 0.970765 0.794622
1 0.975192 0.852699
1 0.987999 0.934923
1 1 0.986141
0.967783 1 0.917343
0.967992 1 0.917379
0.968558 1 0.917478
0.970365 1 0.917808
0.975648 1 0.91889
0.988036 1 0.922341
1 1 0.932252
1 1 0.957139
1 1 0.989276
0.998718 1 0.982194
0.998741 1 0.982198
0.998802 1 0.982209
0.999006 1 0.982246
0.999668 1 0.982371
1 1 0.982778
1 1 0.984072
1 1 0.987746
1 1 0.996562
1 1 1
1 1 1
1 1 1
1 1 1
1 1 1
1 1 1
1 1 1
1 1 1
1 1 1
-0.055 0.0565492 0.618142
-0.055 0.0552257 0.618385
0.244419 0.0334236 0.61856
0.610505 -0.055 0.619945
0.960871 0.140541 0.632843
1 0.591225 0.676554
1 0.867348 0.801573
1 0.965059 0.926746
1 0.998937 0.985195
-0.055 0.11405 0.619993
-0.055 0.114839 0.620188
0.267526 0.109512 0.6204
0.619336 0.0667772 0.621978
0.956637 0.225691 0.634497
1 0.609313 0.678021
1 0.86931 0.802165
1 0.965284 0.92683
1 0.998958 0.985205
-0.055 0.292859 0.622338
0.0211293 0.294938 0.622585
0.295965 0.298882 0.623192
0.62934 0.307724 0.625629
0.939047 0.396559 0.637871
1 0.656019 0.681981
1 0.874484 0.80379
1 0.965895 0.927059
1 0.999016 0.985232
-0.055 0.632814 0.631345
0.107442 0.633082 0.631755
0.343895 0.633772 0.632887
0.636922 0.636879 0.636819
0.895274 0.67026 0.650661
1 0.76999 0.696173
1 0.890404 0.809211
1 0.967873 0.927819
1 0.999208 0.985323
0.572207 0.888499 0.692322
0.592279 0.887965 0.692733
0.639461 0.886663 0.693868
0.743734 0.883786 0.697713
0.886685 0.88202 0.710478
0.987902 0.893951 0.746304
1 0.929852 0.827084
1 0.973864 0.930347
1 0.999843 0.985622
0.867333 0.973619 0.819105
0.869233 0.973537 0.819262
0.874239 0.973322 0.819691
0.889067 0.972697 0.82111
0.924079 0.971368 0.825734
0.975635 0.970561 0.839792
1 0.975121 0.873564
1 0.987995 0.938535
1 1 0.986602
0.967341 1 0.926497
0.96755 1 0.926526
0.968115 1 0.926607
0.969917 1 0.926875
0.975193 1 0.927757
0.987579 1 0.930583
1 1 0.9388
1 1 0.959594
1 1 0.989667
0.998659 1 0.98331
0.998681 1 0.983314
0.998743 1 0.983324
0.998947 1 0.98336
0.999609 1 0.983476
1 1 0.983857
1 1 0.985069
1 1 0.988526
1 1 0.996795
1 1 1
1 1 1
1 1 1
1 1 1
1 1 1
1 1 1
1 1 1
1 1 1
1 1 1
0.0894532 0.222746 0.902977
0.169082 0.222552 0.902734
0.312477 0.220098 0.901947
0.629448 0.197131 0.899001
0.970397 0.219966 0.895344
1 0.592112 0.890089
1 0.86771 0.896465
1 0.965108 0.940819
1 0.998939 0.986803
0.111764 0.253462 0.902269
0.185863 0.253548 0.902022
0.327998 0.252063 0.901228
0.637624 0.237093 0.898395
0.967813 0.275495 0.894677
1 0.610459 0.88958
1 0.869662 0.896604
1 0.965333 0.940883
1 0.99896 0.986812
0.145148 0.345555 0.899631
0.217293 0.34639 0.899373
0.360646 0.347553 0.89858
0.652756 0.348255 0.896032
0.956941 0.4063 0.892238
1 0.657462 0.888202
1 0.874814 0.896995
1 0.965942 0.941056
1 0.999018 0.986837
0.172772 0.638791 0.887671
0.260969 0.63909 0.887499
0.409693 0.639804 0.887039
0.661573 0.64331 0.885768
0.912967 0.67249 0.884081
1 0.771156 0.884981
1 0.890706 0.898348
1 0.967915 0.941635
1 0.999211 0.986921
0.599713 0.887153 0.880428
0.616809 0.886695 0.880434
0.657425 0.885588 0.880463
0.749021 0.883218 0.880677
0.882017 0.881999 0.881977
0.977329 0.894699 0.887134
1 0.929977 0.903435
1 0.97389 0.943577
1 0.999845 0.987198
0.866176 0.973067 0.902375
0.868006 0.97299 0.902417
0.872829 0.972788 0.902532
0.88715 0.972202 0.902919
0.921184 0.970965 0.904244
0.972171 0.970278 0.908677
1 0.975013 0.921204
1 0.987985 0.950068
1 1 0.988106
0.966456 1 0.947437
0.966662 1 0.947454
0.96722 1 0.947499
0.969002 1 0.947652
0.974232 1 0.94816
0.986555 1 0.949817
1 1 0.954901
1 1 0.967424
1 1 0.990944
0.998492 1 0.98656
0.998514 1 0.986563
0.998576 1 0.986571
0.99878 1 0.9866
0.999441 1 0.986693
1 1 0.987002
1 1 0.987987
1 1 0.990833
1 1 0.997552
1 1 1
1 1 1
1 1 1
1 1 1
1 1 1
1 1 1
1 1 1
1 1 1
1 1 1
0.551311 0.536666 0.994252
0.567653 0.536733 0.994105
0.610324 0.536882 0.993703
0.733527 0.537333 0.992398
0.943738 0.552406 0.989211
1 0.657094 0.983506
1 0.86829 0.973836
1 0.965241 0.975825
1 0.998949 0.991796
0.55472 0.550088 0.99358
0.571004 0.550169 0.993436
0.613528 0.550356 0.99304
0.735723 0.551008 0.991756
0.942222 0.566537 0.98862
1 0.668777 0.982962
1 0.870237 0.973749
1 0.965465 0.97584
1 0.99897 0.991803
0.563491 0.586194 0.991719
0.579628 0.586307 0.99158
0.621779 0.586588 0.991198
0.740918 0.58775 0.98997
0.937548 0.604335 0.986965
1 0.698934 0.981512
1 0.875388 0.973522
1 0.966073 0.975881
1 0.999028 0.991822
0.588487 0.698685 0.985384
0.604198 0.698786 0.985262
0.644184 0.699101 0.984935
0.751154 0.700726 0.983923
0.919304 0.71505 0.981506
1 0.780052 0.977313
1 0.891307 0.972833
1 0.968039 0.976021
1 0.999221 0.991885
0.698342 0.886593 0.973022
0.707611 0.886362 0.972978
0.730984 0.885791 0.972863
0.79162 0.884493 0.97254
0.891913 0.884543 0.971907
0.983853 0.895635 0.971199
1 0.93042 0.971408
1 0.973989 0.976516
1 0.999855 0.992094
0.874806 0.972441 0.969661
0.87638 0.972377 0.969661
0.88054 0.97221 0.969662
0.892979 0.971726 0.969671
0.923063 0.970715 0.96975
0.970268 0.97026 0.970253
1 0.975264 0.972262
1 0.98801 0.978413
1 1 0.992776
0.96597 1 0.978133
0.966166 1 0.978138
0.966697 1 0.97815
0.968393 1 0.978192
0.973416 1 0.978332
0.985344 1 0.978814
1 1 0.98043
1 1 0.98492
1 1 0.994897
0.998171 1 0.993865
0.998193 1 0.993867
0.998254 1 0.993872
0.998457 1 0.993887
0.999115 1 0.993937
1 1 0.994101
1 1 0.994635
1 1 0.996224
1 1 0.999958
1 1 1
1 1 1
1 1 1
1 1 1
1 1 1
1 1 1
1 1 1
1 1 1
1 1 1
0.852366 0.835972 1
0.854579 0.836009 1
0.86047 0.836119 1
0.878407 0.836575 1
0.92407 0.838872 1
1 0.850584 1
1 0.890689 1
1 0.965466 1
1 0.998979 1
0.852679 0.838084 1
0.854877 0.83812 1
0.860725 0.838227 1
0.87853 0.83867 1
0.92394 0.840909 1
1 0.852384 1
1 0.891894 1
1 0.965691 1
1 0.999001 1
0.853549 0.843714 1
0.855703 0.843746 1
0.861434 0.843843 1
0.878881 0.844251 1
0.92362 0.846337 1
0.999497 0.857178 1
1 0.895141 1
1 0.966298 1
1 0.999059 1
0.856556 0.860906 1
0.858567 0.860927 1
0.86392 0.860994 1
0.880208 0.861294 1
0.922913 0.86289 1
0.995689 0.871762 1
1 0.905394 1
1 0.968264 1
1 0.999252 1
0.867327 0.904199 1
0.868915 0.904201 1
0.873184 0.904211 1
0.8866 0.90428 1
0.923661 0.904895 1
0.985774 0.910322 1
1 0.933685 1
1 0.974199 1
1 0.999888 1
0.906118 0.972086 1
0.907047 0.972056 1
0.909543 0.971975 1
0.917371 0.97173 1
0.937885 0.971218 1
0.974318 0.971271 1
1 0.975667 1
1 0.988148 1
1 1 1
0.969168 1 1
0.969334 1 1
0.969785 1 1
0.971235 1 1
0.975574 1 1
0.986068 1 1
1 1 1
1 1 1
1 1 1
0.998061 1 1
0.998084 1 1
0.998143 1 1
0.99834 1 1
0.998979 1 1
1 1 1
1 1 1
1 1 1
1 1 1
1 1 1
1 1 1
1 1 1
1 1 1
1 1 1
1 1 1
1 1 1
1 1 1
1 1 1
0.959262 0.953068 1
0.959508 0.953072 1
0.960176 0.953083 1
0.962348 0.953124 1
0.969061 0.95329 1
0.986642 0.954125 1
1 0.958655 1
1 0.973847 1
1 0.998964 1
0.959296 0.9533 1
0.959541 0.953304 1
0.960208 0.953315 1
0.962375 0.953355 1
0.969075 0.95352 1
0.986623 0.954349 1
1 0.958855 1
1 0.97398 1
1 0.998985 1
0.95939 0.953929 1
0.959633 0.953933 1
0.960296 0.953944 1
0.962452 0.953983 1
0.969114 0.954143 1
0.986569 0.954957 1
1 0.9594 1
1 0.974341 1
1 0.999044 1
0.959706 0.955975 1
0.959946 0.955979 1
0.960596 0.955988 1
0.962712 0.956024 1
0.969252 0.956171 1
0.986403 0.956934 1
1 0.961172 1
1 0.975517 1
1 0.999239 1
0.960815 0.962287 1
0.96104 0.962289 1
0.96165 0.962295 1
0.963638 0.96232 1
0.96979 0.962427 1
0.985962 0.96304 1
1 0.966655 1
1 0.979191 1
1 0.999881 1
0.964938 0.978663 1
0.965121 0.978663 1
0.965616 0.978661 1
0.967233 0.978658 1
0.97225 0.978671 1
0.985667 0.978902 1
1 0.980989 1
1 0.989213 1
1 1 1
0.979969 1 1
0.980066 1 1
0.980332 1 1
0.981201 1 1
0.983925 1 1
0.990961 1 1
1 1 1
1 1 1
1 1 1
0.999035 1 1
0.999055 1 1
0.999109 1 1
0.999286 1 1
0.999863 1 1
1 1 1
1 1 1
1 1 1
1 1 1
1 1 1
1 1 1
1 1 1
1 1 1
1 1 1
1 1 1
1 1 1
1 1 1
1 1 1
0.997296 0.995941 1
0.997319 0.995942 1
0.997383 0.995943 1
0.997592 0.995948 1
0.998268 0.995965 1
1 0.996033 1
1 0.996305 1
1 0.99742 1
1 1 1
0.997298 0.995965 1
0.997322 0.995965 1
0.997385 0.995966 1
0.997595 0.995971 1
0.99827 0.995988 1
1 0.996056 1
1 0.996327 1
1 0.997439 1
1 1 1
0.997306 0.996028 1
0.997329 0.996028 1
0.997392 0.99603 1
0.997601 0.996034 1
0.998275 0.996051 1
1 0.996118 1
1 0.996386 1
1 0.997489 1
1 1 1
0.99733 0.996236 1
0.997352 0.996236 1
0.997415 0.996238 1
0.997623 0.996242 1
0.998291 0.996258 1
1 0.996323 1
1 0.996581 1
1 0.997653 1
1 1 1
0.997413 0.996905 1
0.997435 0.996906 1
0.997496 0.996907 1
0.997698 0.996911 1
0.998349 0.996925 1
1 0.996983 1
1 0.99721 1
1 0.998183 1
1 1 1
0.997723 0.998904 1
0.997744 0.998904 1
0.997799 0.998905 1
0.997984 0.998907 1
0.998579 0.998916 1
1 0.998949 1
1 0.999083 1
1 0.999848 1
1 1 1
0.998869 1 1
0.998886 1 1
0.998935 1 1
0.999098 1 1
0.999633 1 1
1 1 1
1 1 1
1 1 1
1 1 1
1 1 1
1 1 1
1 1 1
1 1 1
1 1 1
1 1 1
1 1 1
1 1 1
1 1 1
1 1 1
1 1 1
1 1 1
1 1 1
1 1 1
1 1 1
1 1 1
1 1 1
1 1 1
