various/display_lut_tony_mc_mapface.cube
TITLE "utilities/display_lut_tony_mc_mapface.cube"
LUT_3D_SIZE 33
0.00177007 0.00177007 0.00177007
0.098274 -0.028492 -0.0287923
0.14828 -0.0279268 -0.0285092
0.185847 -0.0267713 -0.0278995
0.224299 -0.0246786 -0.026745
0.266062 -0.0212357 -0.024737
0.311636 -0.0159797 -0.0214733
0.361492 -0.00817888 -0.0163143
0.415819 0.0024313 -0.00891313
0.47478 0.016601 0.00137644
0.538139 0.0346706 0.014874
0.605474 0.0574586 0.0322507
0.675838 0.0855683 0.054045
0.747657 0.119763 0.0809845
0.818042 0.160548 0.113666
0.881828 0.208858 0.15318
0.931982 0.264526 0.199808
0.964267 0.328133 0.254681
0.982216 0.398037 0.317032
0.991876 0.47293 0.386513
0.997813 0.549081 0.460161
1 0.623433 0.535065
1 0.692177 0.607341
1 0.752931 0.674385
1 0.804914 0.735182
1 0.846448 0.785919
1 0.881149 0.831603
1 0.906158 0.863969
1 0.928399 0.896722
1 0.94501 0.921206
1 0.957151 0.938921
1 0.966059 0.951827
1 0.97261 0.961272
-0.0276089 0.0976204 -0.0283936
0.0981428 0.0976664 -0.0277195
0.148021 0.0977116 -0.0270789
0.185527 0.0977025 -0.0261648
0.223944 0.0976183 -0.0247096
0.265673 0.0975821 -0.0224857
0.311218 0.0976867 -0.0191527
0.361062 0.0981848 -0.0140456
0.41539 0.0994297 -0.00674553
0.474375 0.102149 0.00344842
0.537761 0.107377 0.0168139
0.605095 0.116694 0.03397
0.675429 0.131854 0.055474
0.747268 0.154386 0.0823921
0.81761 0.185762 0.114767
0.881379 0.226806 0.153938
0.931585 0.277159 0.200189
0.96399 0.336877 0.254782
0.982045 0.404017 0.316903
0.991774 0.476899 0.386337
0.997745 0.551684 0.459902
1 0.625097 0.534801
1 0.693218 0.60712
1 0.753572 0.674206
1 0.805304 0.735044
1 0.846682 0.785815
1 0.881293 0.831531
1 0.906239 0.863918
1 0.928456 0.896686
1 0.945051 0.921179
1 0.957182 0.938902
1 0.966081 0.951813
1 0.972627 0.961261
-0.0262592 0.147408 -0.0277379
0.0980138 0.147436 -0.0267196
0.147765 0.147463 -0.0257663
0.185212 0.147381 -0.0245913
0.223595 0.147131 -0.0228798
0.265291 0.146825 -0.0204672
0.310807 0.146495 -0.0170601
0.36064 0.146286 -0.011975
0.414968 0.146405 -0.00473989
0.473976 0.147334 0.00538968
0.537389 0.149854 0.0186519
0.604723 0.155297 0.0356161
0.675026 0.165419 0.056854
0.746886 0.181982 0.0837565
0.817184 0.207383 0.115841
0.880938 0.243013 0.15468
0.931194 0.288954 0.200563
0.963718 0.345215 0.254882
0.981876 0.409791 0.316776
0.991674 0.480762 0.386163
0.997677 0.554227 0.459647
1 0.626728 0.534541
1 0.694239 0.606903
1 0.754201 0.67403
1 0.805687 0.734908
1 0.846912 0.785713
1 0.881434 0.83146
1 0.906319 0.863868
1 0.928512 0.89665
1 0.945092 0.921154
1 0.957211 0.938883
1 0.966103 0.951799
1 0.972643 0.961251
-0.0236963 0.184472 -0.0263906
0.0978748 0.184507 -0.0250951
0.147405 0.184542 -0.0238938
0.184789 0.184473 -0.022512
0.223186 0.184248 -0.0205936
0.264865 0.183883 -0.0179624
0.31034 0.183358 -0.0143759
0.360133 0.182796 -0.00928818
0.41443 0.182343 -0.00220644
0.473426 0.182351 0.00768363
0.536842 0.183425 0.0207127
0.604198 0.186659 0.0375094
0.674516 0.193716 0.0584983
0.746401 0.206343 0.0852352
0.816692 0.227292 0.117044
0.880507 0.258347 0.155783
0.930839 0.300313 0.201407
0.96347 0.353363 0.255411
0.981718 0.415505 0.316979
0.991573 0.484672 0.386087
0.997606 0.556831 0.459405
1 0.628407 0.534269
1 0.695292 0.606676
1 0.754851 0.673846
1 0.806083 0.734766
1 0.847149 0.785606
1 0.88158 0.831386
1 0.906402 0.863816
1 0.928569 0.896613
1 0.945134 0.921127
1 0.957242 0.938863
1 0.966126 0.951784
1 0.97266 0.96124
-0.019408 0.222107 -0.0239694
0.0976876 0.222165 -0.0224251
0.146814 0.222222 -0.0210008
0.184114 0.222223 -0.0194277
0.222596 0.222149 -0.0173077
0.264273 0.221835 -0.0143791
0.30968 0.221194 -0.010462
0.359386 0.220377 -0.00532235
0.4136 0.219487 0.00151089
0.472536 0.218786 0.0109397
0.535922 0.218705 0.023545
0.603337 0.220092 0.0401728
0.673734 0.224527 0.0608822
0.745658 0.233682 0.0872276
0.815987 0.25034 0.118715
0.879979 0.276488 0.157634
0.930443 0.313966 0.203082
0.963192 0.363297 0.256643
0.981538 0.422564 0.317672
0.991445 0.489619 0.386121
0.997515 0.560164 0.459121
1 0.63057 0.53391
1 0.696651 0.606379
1 0.755689 0.673606
1 0.806594 0.734581
1 0.847457 0.785468
1 0.881768 0.83129
1 0.906509 0.863748
1 0.928644 0.896565
1 0.945188 0.921092
1 0.957282 0.938837
1 0.966156 0.951765
1 0.972682 0.961225
-0.0129933 0.262655 -0.020066
0.0976945 0.262733 -0.0183191
0.146195 0.262809 -0.0167085
0.183237 0.262861 -0.0149905
0.221606 0.262892 -0.0127343
0.263305 0.262724 -0.00962236
0.308789 0.262199 -0.00545058
0.358396 0.261217 -5.56782e-05
0.412501 0.259988 0.00675073
0.471313 0.258676 0.0157707
0.534609 0.257643 0.0277094
0.602046 0.25746 0.0438591
0.672522 0.259469 0.0642826
0.744466 0.265432 0.0899479
0.814986 0.277726 0.121318
0.879101 0.29902 0.159757
0.929767 0.33152 0.204785
0.962811 0.376074 0.258428
0.981309 0.431681 0.318943
0.991299 0.495976 0.386721
0.997406 0.564505 0.459102
1 0.63342 0.533628
1 0.698469 0.606001
1 0.756817 0.673279
1 0.807282 0.734331
1 0.847871 0.785281
1 0.882022 0.831161
1 0.906653 0.863657
1 0.928744 0.8965
1 0.945261 0.921044
1 0.957336 0.938802
1 0.966195 0.951739
1 0.972711 0.961206
-0.00402947 0.306441 -0.0142316
0.0981553 0.306536 -0.0123577
0.145682 0.306629 -0.0106216
0.182192 0.306711 -0.00881245
0.220122 0.306798 -0.00647816
0.261753 0.306833 -0.00331758
0.307432 0.306631 0.00095427
0.357079 0.305718 0.00670527
0.411043 0.304262 0.0137803
0.469671 0.302456 0.0226107
0.532779 0.300614 0.0338199
0.600131 0.299132 0.049033
0.670659 0.298947 0.0689885
0.742631 0.30191 0.0938081
0.813436 0.309963 0.124958
0.877742 0.326391 0.162493
0.928733 0.353511 0.206836
0.962225 0.392522 0.260535
0.981011 0.443386 0.320995
0.991128 0.504122 0.388162
0.997285 0.570092 0.459682
1 0.637144 0.533577
1 0.70088 0.605607
1 0.758325 0.672855
1 0.808207 0.733991
1 0.848428 0.785028
1 0.882365 0.830986
1 0.906847 0.863534
1 0.92888 0.896412
1 0.94536 0.920981
1 0.957408 0.938756
1 0.966249 0.951704
1 0.972751 0.96118
0.00827504 0.353586 -0.00577084
0.0996618 0.353697 -0.00386653
0.145658 0.353806 -0.00208658
0.181297 0.3539 -0.000235703
0.218468 0.353997 0.00215174
0.259503 0.354126 0.00528389
0.304968 0.354227 0.00942973
0.35508 0.35389 0.015159
0.40909 0.35254 0.0226328
0.467549 0.350454 0.0317214
0.530416 0.347914 0.0427612
0.597459 0.345372 0.0567998
0.667862 0.343485 0.0753664
0.739978 0.343529 0.0995505
0.810884 0.347706 0.129618
0.875699 0.358973 0.166656
0.92737 0.380087 0.210726
0.961251 0.413673 0.262525
0.980516 0.458785 0.323018
0.990893 0.514726 0.390281
0.997152 0.577267 0.461248
1 0.641963 0.534144
1 0.704034 0.60549
1 0.760327 0.67243
1 0.809447 0.733565
1 0.849181 0.784684
1 0.882827 0.830749
1 0.90711 0.863367
1 0.929063 0.896293
1 0.945494 0.920894
1 0.957506 0.938692
1 0.966321 0.951657
1 0.972805 0.961145
0.0240518 0.404039 0.00550099
0.102965 0.404162 0.00737796
0.146634 0.404283 0.00914913
0.180975 0.404396 0.0109796
0.21705 0.404524 0.0133317
0.257038 0.404673 0.0164514
0.301579 0.404855 0.0205412
0.351472 0.405019 0.0259508
0.406348 0.404582 0.0333256
0.464721 0.402527 0.0428992
0.527407 0.39962 0.0542338
0.594094 0.396118 0.0679261
0.664157 0.392755 0.0850836
0.736172 0.390512 0.107495
0.807262 0.391107 0.136182
0.872578 0.397279 0.17225
0.925047 0.412559 0.214966
0.960009 0.439185 0.266834
0.979745 0.478534 0.325157
0.99048 0.528824 0.391958
0.996963 0.586652 0.463334
1 0.648172 0.535583
1 0.708106 0.605969
1 0.762942 0.672236
1 0.811088 0.733128
1 0.850192 0.784216
1 0.883449 0.830426
1 0.907463 0.86314
1 0.929309 0.896131
1 0.945674 0.920777
1 0.957639 0.938606
1 0.966419 0.951593
1 0.972877 0.961097
0.0441356 0.457445 0.0202487
0.109424 0.457578 0.0220503
0.149665 0.457709 0.0237657
0.182064 0.457837 0.0255286
0.216507 0.457995 0.0277854
0.254969 0.458173 0.030809
0.298033 0.458372 0.0348118
0.346603 0.458649 0.0400559
0.401033 0.458905 0.0469115
0.460783 0.458192 0.056311
0.523381 0.455364 0.0682007
0.589843 0.451432 0.0821507
0.659422 0.446821 0.0987659
0.731057 0.442621 0.119383
0.80218 0.44025 0.145807
0.868155 0.441889 0.180005
0.921848 0.450732 0.221936
0.957905 0.470751 0.271549
0.978737 0.502553 0.329868
0.989873 0.546836 0.394218
0.996592 0.599323 0.464477
1 0.656388 0.537282
1 0.713379 0.607297
1 0.766339 0.672589
1 0.81324 0.73294
1 0.851529 0.783839
1 0.884276 0.830097
1 0.907939 0.862841
1 0.929642 0.895912
1 0.945916 0.920618
1 0.957817 0.938489
1 0.966551 0.951507
1 0.972975 0.961032
0.0687612 0.513187 0.0387031
0.120488 0.513327 0.0404077
0.15609 0.513464 0.0420429
0.185724 0.513603 0.0437185
0.217806 0.513779 0.0458599
0.254107 0.513996 0.0487222
0.295115 0.514246 0.0525359
0.341586 0.514509 0.0576375
0.394156 0.514918 0.0642225
0.453432 0.515256 0.0729086
0.518069 0.514291 0.084615
0.584257 0.510379 0.0992062
0.653587 0.505237 0.116051
0.724653 0.499412 0.13588
0.795542 0.494432 0.160175
0.862048 0.492265 0.191481
0.917075 0.495774 0.230508
0.955078 0.508098 0.279284
0.977033 0.532603 0.334595
0.98908 0.568815 0.39911
0.996091 0.61529 0.466786
0.999962 0.667432 0.537867
1 0.720436 0.608311
1 0.770753 0.673675
1 0.816035 0.733238
1 0.853296 0.78353
1 0.885376 0.829734
1 0.908577 0.862442
1 0.93009 0.895613
1 0.946243 0.920402
1 0.958057 0.938331
1 0.966727 0.951389
1 0.973106 0.960943
0.0986629 0.570299 0.0615093
0.137889 0.570442 0.0631021
0.167802 0.570583 0.0646392
0.193767 0.570727 0.066209
0.222609 0.570911 0.0682102
0.255872 0.571149 0.0708886
0.294008 0.571448 0.0744602
0.3377 0.571777 0.0792572
0.387331 0.572118 0.0856255
0.444102 0.572699 0.0938515
0.507963 0.573157 0.104621
0.577114 0.571747 0.119062
0.646066 0.566636 0.136622
0.716874 0.560202 0.156626
0.787246 0.553212 0.179831
0.853862 0.547841 0.208124
0.91056 0.54648 0.243959
0.950727 0.552538 0.288772
0.974809 0.568295 0.343214
0.987742 0.596752 0.403793
0.995441 0.63507 0.471528
0.999695 0.681276 0.540294
1 0.729816 0.608819
1 0.776735 0.674067
1 0.819752 0.733739
1 0.855571 0.783941
1 0.886809 0.829698
1 0.909426 0.862109
1 0.930687 0.895346
1 0.946678 0.920207
1 0.958377 0.938187
1 0.966964 0.951281
1 0.973282 0.960861
0.134159 0.62754 0.0890614
0.16281 0.627684 0.0905361
0.186586 0.627825 0.0919657
0.208181 0.627969 0.0934202
0.232939 0.628153 0.0952685
0.262217 0.628397 0.0977477
0.296485 0.628715 0.101059
0.336431 0.629105 0.105499
0.382409 0.629534 0.111414
0.435179 0.629978 0.119296
0.495669 0.630764 0.129418
0.563884 0.63132 0.142684
0.636836 0.629377 0.160193
0.707098 0.622946 0.180953
0.777346 0.615263 0.204237
0.843919 0.607427 0.231032
0.901739 0.602101 0.263147
0.944608 0.602486 0.303574
0.971234 0.611005 0.35338
0.985991 0.629996 0.412742
0.994347 0.660353 0.476018
0.999266 0.698705 0.544532
1 0.741638 0.611085
1 0.784544 0.674667
1 0.824705 0.733936
1 0.858638 0.783965
1 0.888738 0.829427
1 0.910564 0.861641
1 0.931487 0.894985
1 0.947263 0.919944
1 0.958806 0.937992
1 0.967281 0.951135
1 0.973517 0.960751
0.175588 0.683439 0.121871
0.195898 0.683578 0.123222
0.213838 0.683715 0.124536
0.230829 0.683854 0.125869
0.25097 0.684032 0.127556
0.27549 0.68427 0.12982
0.304938 0.684585 0.132851
0.340037 0.68499 0.136924
0.381246 0.685485 0.142342
0.429253 0.686009 0.149589
0.484473 0.686579 0.159177
0.548326 0.687598 0.17151
0.620094 0.688232 0.187571
0.695604 0.685591 0.208453
0.765222 0.677925 0.232465
0.832106 0.669284 0.259128
0.890947 0.66115 0.289236
0.936316 0.656638 0.325198
0.966021 0.658942 0.369203
0.983099 0.669842 0.423264
0.992894 0.690518 0.484898
0.99858 0.720914 0.548936
1 0.756657 0.614664
1 0.794456 0.676655
1 0.83111 0.734674
1 0.862675 0.784134
1 0.891274 0.829492
1 0.912054 0.861637
1 0.932534 0.894972
1 0.948027 0.919929
1 0.959368 0.937976
1 0.967697 0.951118
1 0.973826 0.960733
0.222856 0.736417 0.160205
0.236973 0.736546 0.16142
0.249976 0.736673 0.162606
0.262691 0.736803 0.163812
0.278202 0.736969 0.165346
0.297653 0.737191 0.167396
0.32169 0.737486 0.170133
0.351092 0.737875 0.173818
0.386432 0.738371 0.178734
0.428531 0.738965 0.185298
0.477768 0.739582 0.194006
0.534878 0.740294 0.205541
0.60118 0.741554 0.220316
0.675417 0.742213 0.239454
0.751853 0.738825 0.263842
0.818054 0.730097 0.291076
0.878119 0.721059 0.32075
0.92597 0.713396 0.354033
0.958908 0.710058 0.392763
0.978807 0.714243 0.439781
0.990483 0.726447 0.495501
0.997615 0.747524 0.556953
0.999997 0.775609 0.61873
1 0.807071 0.679516
1 0.839284 0.736198
1 0.867912 0.784583
1 0.894585 0.829746
1 0.914015 0.86176
1 0.933914 0.895047
1 0.949036 0.919976
1 0.96011 0.938002
1 0.968245 0.95113
1 0.974234 0.960735
0.276121 0.784893 0.204701
0.285794 0.785007 0.205772
0.294942 0.785119 0.206818
0.304076 0.785234 0.207892
0.315447 0.785383 0.209272
0.330092 0.785581 0.211105
0.348698 0.785843 0.213538
0.372061 0.786192 0.216815
0.400871 0.786647 0.221196
0.436047 0.787221 0.22706
0.478196 0.787896 0.234835
0.527955 0.788568 0.245148
0.585918 0.789445 0.258743
0.653519 0.790891 0.276116
0.728422 0.79148 0.298348
0.802982 0.78725 0.326175
0.863161 0.778119 0.356147
0.913404 0.769438 0.388493
0.9498 0.76289 0.423908
0.972815 0.761091 0.464423
0.986808 0.766349 0.512144
0.995557 0.778811 0.567736
0.999509 0.798395 0.626099
1 0.822891 0.683305
1 0.849716 0.738568
1 0.87452 0.786388
1 0.898828 0.830606
1 0.91659 0.861992
1 0.935736 0.895167
1 0.950369 0.920051
1 0.961091 0.938047
1 0.968971 0.951153
1 0.974773 0.960742
0.334445 0.827533 0.255073
0.341016 0.827629 0.256002
0.347331 0.827723 0.256912
0.353718 0.82782 0.257851
0.36178 0.827945 0.259063
0.372352 0.828112 0.260677
0.386077 0.828334 0.262819
0.403752 0.828628 0.265687
0.426082 0.829017 0.269525
0.454018 0.829519 0.274673
0.488343 0.830143 0.281512
0.529916 0.830859 0.290584
0.579198 0.831541 0.30253
0.636939 0.83258 0.318242
0.704235 0.834142 0.338138
0.777945 0.834538 0.363459
0.847895 0.829664 0.394142
0.899012 0.820786 0.426293
0.938539 0.813162 0.460146
0.965204 0.808108 0.496714
0.981774 0.807497 0.537023
0.992225 0.813294 0.583506
0.998723 0.824777 0.635968
1 0.841717 0.689804
1 0.862498 0.742252
1 0.882988 0.788036
1 0.904296 0.831477
1 0.919928 0.862346
1 0.938102 0.895379
1 0.9521 0.92019
1 0.962366 0.938134
1 0.969915 0.951203
1 0.975476 0.960765
0.397564 0.863418 0.311803
0.401993 0.863494 0.312593
0.40629 0.863568 0.313367
0.410673 0.863645 0.314167
0.416256 0.863744 0.315201
0.42364 0.863876 0.316589
0.43336 0.864053 0.318441
0.446161 0.864288 0.320901
0.462679 0.864598 0.324189
0.483803 0.865004 0.328601
0.510356 0.865522 0.334479
0.543338 0.866155 0.342283
0.583474 0.86686 0.352575
0.631281 0.867519 0.366062
0.687353 0.868691 0.383667
0.75277 0.870234 0.405888
0.82233 0.87041 0.433533
0.88437 0.865294 0.46632
0.925729 0.857369 0.499389
0.955577 0.851206 0.53365
0.975355 0.847676 0.569507
0.987847 0.84809 0.608072
0.996269 0.853313 0.651468
0.999507 0.863341 0.698933
1 0.877785 0.747757
1 0.893331 0.791489
1 0.911087 0.833577
1 0.924173 0.863541
1 0.941124 0.896176
1 0.954315 0.920736
1 0.963997 0.938505
1 0.971122 0.951449
1 0.976374 0.960921
0.463746 0.892418 0.373846
0.466715 0.892475 0.374503
0.469612 0.892531 0.375146
0.472582 0.892588 0.375812
0.476389 0.892662 0.376671
0.481456 0.892762 0.377827
0.488169 0.892895 0.379379
0.49709 0.893073 0.381456
0.508857 0.893307 0.384207
0.52418 0.893616 0.387897
0.54382 0.894015 0.392816
0.568726 0.89452 0.399364
0.599794 0.895124 0.40801
0.637774 0.895778 0.419355
0.683015 0.896415 0.434094
0.73637 0.897671 0.453279
0.797493 0.899123 0.477049
0.860645 0.899064 0.506358
0.913132 0.894087 0.539819
0.944928 0.887617 0.572604
0.967357 0.883001 0.605555
0.982407 0.88081 0.639334
0.992329 0.881638 0.674554
0.998517 0.886177 0.71342
1 0.89488 0.756135
1 0.905547 0.796126
1 0.919313 0.836324
1 0.92951 0.86502
1 0.944954 0.89715
1 0.957125 0.921403
1 0.96607 0.938957
1 0.972659 0.951748
1 0.977518 0.96111
0.531917 0.915093 0.440749
0.533892 0.915134 0.441276
0.535825 0.915174 0.441794
0.537813 0.915216 0.442329
0.54037 0.915269 0.44302
0.543789 0.915341 0.443951
0.548344 0.915436 0.445201
0.554417 0.915565 0.446885
0.562482 0.915735 0.449129
0.57321 0.91596 0.452114
0.587172 0.916253 0.456095
0.605184 0.916631 0.461403
0.628092 0.917101 0.468427
0.656765 0.917655 0.477664
0.691768 0.918237 0.489665
0.733697 0.918918 0.505279
0.782557 0.920169 0.525181
0.837722 0.921462 0.54973
0.892165 0.921302 0.579201
0.934338 0.916959 0.611989
0.958785 0.911932 0.642983
0.975754 0.908709 0.673409
0.987552 0.907515 0.703675
0.995699 0.908618 0.734714
0.998954 0.912722 0.769792
1 0.91902 0.804288
1 0.928768 0.841084
1 0.936027 0.867477
1 0.949688 0.898802
1 0.960614 0.922584
1 0.968657 0.939807
1 0.974587 0.952363
1 0.978964 0.961555
0.599435 0.932582 0.51
0.600739 0.932611 0.510409
0.602016 0.932639 0.510811
0.603333 0.932668 0.511226
0.605029 0.932706 0.511763
0.607303 0.932756 0.512486
0.610345 0.932824 0.513457
0.614418 0.932914 0.514767
0.619831 0.933035 0.516521
0.627071 0.933195 0.518866
0.636685 0.933405 0.521976
0.649253 0.933679 0.526124
0.665473 0.934028 0.531626
0.686151 0.934459 0.53888
0.711967 0.934961 0.548338
0.743556 0.935481 0.560596
0.781089 0.936231 0.576379
0.824552 0.937456 0.59633
0.872071 0.938623 0.620392
0.917236 0.938445 0.649026
0.950332 0.934844 0.679593
0.968994 0.931215 0.707783
0.982079 0.92908 0.734658
0.991508 0.928542 0.760921
0.997154 0.929972 0.788383
1 0.933165 0.816187
1 0.939122 0.848252
1 0.943579 0.871405
1 0.955235 0.90149
1 0.964717 0.924526
1 0.97171 0.941225
1 0.976872 0.953407
1 0.980686 0.962329
0.664258 0.946107 0.579457
0.665107 0.946127 0.579762
0.665941 0.946146 0.580062
0.666801 0.946167 0.580371
0.66791 0.946193 0.580771
0.669401 0.946228 0.58131
0.671399 0.946275 0.582034
0.674082 0.946339 0.583011
0.67766 0.946423 0.584321
0.682438 0.946537 0.586082
0.688814 0.946686 0.588425
0.697313 0.946882 0.591538
0.708408 0.947137 0.595674
0.722743 0.94746 0.601143
0.740948 0.947856 0.608302
0.763719 0.948315 0.617627
0.791257 0.948807 0.629547
0.824023 0.949635 0.644958
0.861031 0.950808 0.663948
0.900562 0.951863 0.686739
0.936712 0.951756 0.713202
0.962176 0.948921 0.740594
0.976749 0.946369 0.765279
0.986952 0.945065 0.788299
0.994514 0.945084 0.811079
0.99899 0.946353 0.833595
0.999543 0.949505 0.859263
0.99996 0.951872 0.877961
1 0.96142 0.906048
1 0.96931 0.927821
1 0.975139 0.94363
1 0.979449 0.955176
1 0.982636 0.963639
0.723829 0.95673 0.645906
0.724375 0.956744 0.646125
0.724912 0.956758 0.646339
0.725466 0.956772 0.646561
0.726181 0.95679 0.646848
0.727143 0.956815 0.647235
0.728434 0.956848 0.647755
0.730171 0.956893 0.648457
0.732493 0.956952 0.649398
0.735602 0.957032 0.650665
0.739738 0.957138 0.65236
0.745276 0.957279 0.654619
0.752649 0.957462 0.657612
0.762266 0.9577 0.661582
0.774638 0.958001 0.666799
0.790371 0.95837 0.673632
0.809806 0.958795 0.682414
0.833344 0.959313 0.693706
0.860838 0.960163 0.70805
0.89151 0.961274 0.725621
0.923225 0.962229 0.746289
0.951421 0.962081 0.769891
0.971254 0.960059 0.79371
0.982707 0.958358 0.814727
0.990703 0.957691 0.834368
0.996016 0.957922 0.852886
0.998201 0.959404 0.87273
0.999844 0.960519 0.887303
1 0.967964 0.912704
1 0.97419 0.932637
1 0.9788 0.947144
1 0.982213 0.957756
1 0.984739 0.965544
0.776561 0.965252 0.707161
0.776907 0.965262 0.707313
0.777247 0.965271 0.707462
0.777599 0.965281 0.707616
0.778053 0.965294 0.707816
0.778665 0.965311 0.708084
0.779486 0.965335 0.708445
0.780592 0.965366 0.708932
0.782073 0.965408 0.709587
0.784061 0.965465 0.710469
0.786712 0.96554 0.71165
0.790247 0.96564 0.713232
0.794968 0.965772 0.715336
0.801251 0.965945 0.718124
0.80941 0.966167 0.721801
0.819918 0.96645 0.726643
0.833118 0.966794 0.73291
0.849422 0.967196 0.740989
0.868901 0.967742 0.751284
0.891496 0.968589 0.764329
0.916096 0.969614 0.779971
0.941068 0.970454 0.798294
0.962909 0.970331 0.818665
0.9782 0.968916 0.838754
0.987312 0.967879 0.856535
0.993167 0.967559 0.872318
0.996918 0.968112 0.888314
0.999733 0.968528 0.900122
1 0.974097 0.922089
1 0.978798 0.939464
1 0.982285 0.95215
1 0.98487 0.961451
1 0.986786 0.968288
0.822076 0.972247 0.762513
0.822293 0.972254 0.762615
0.822507 0.972261 0.762716
0.822727 0.972268 0.76282
0.823013 0.972277 0.762955
0.823397 0.972289 0.763137
0.823914 0.972305 0.763381
0.82461 0.972327 0.763711
0.825544 0.972356 0.764155
0.826799 0.972396 0.764752
0.828476 0.972449 0.765554
0.830716 0.97252 0.76663
0.833698 0.972614 0.768067
0.837688 0.972739 0.769976
0.842949 0.9729 0.772499
0.849801 0.973109 0.775835
0.858519 0.973371 0.780181
0.869477 0.97369 0.785826
0.882808 0.974078 0.793028
0.898731 0.974648 0.802271
0.91674 0.975444 0.813693
0.936222 0.976348 0.827351
0.955386 0.977035 0.843067
0.971745 0.976781 0.860069
0.9831 0.975983 0.876484
0.990675 0.975421 0.890877
0.995155 0.975451 0.904301
0.998513 0.975474 0.914247
0.999101 0.979479 0.932587
0.999332 0.982888 0.947153
0.999504 0.985421 0.957827
0.999632 0.987301 0.965672
0.999727 0.988696 0.971449
0.858978 0.977925 0.808792
0.859113 0.97793 0.808861
0.859245 0.977935 0.808928
0.859382 0.97794 0.808998
0.85956 0.977946 0.809089
0.859798 0.977954 0.809211
0.86012 0.977966 0.809375
0.860553 0.977981 0.809597
0.861135 0.978002 0.809896
0.861918 0.978029 0.810298
0.862966 0.978066 0.810839
0.864368 0.978116 0.811565
0.866235 0.978182 0.812538
0.868716 0.97827 0.813836
0.872044 0.978385 0.815554
0.876424 0.978536 0.817833
0.882062 0.978729 0.820818
0.889257 0.978973 0.824723
0.89817 0.979269 0.829732
0.909034 0.979639 0.836159
0.921834 0.980201 0.844335
0.93619 0.980946 0.854328
0.951502 0.981771 0.86604
0.966558 0.982397 0.879436
0.979001 0.982046 0.893914
0.98788 0.981531 0.906888
0.993022 0.981308 0.918554
0.996874 0.981139 0.927218
0.997877 0.983922 0.942331
0.998422 0.98631 0.954346
0.998828 0.988086 0.963179
0.999131 0.989405 0.969686
0.999355 0.990385 0.974485
0.890444 0.982732 0.850399
0.89053 0.982736 0.850445
0.890613 0.982739 0.85049
0.8907 0.982742 0.850536
0.890812 0.982747 0.850596
0.890963 0.982752 0.850677
0.891166 0.98276 0.850786
0.891439 0.982771 0.850934
0.891807 0.982785 0.851132
0.892304 0.982804 0.8514
0.892967 0.98283 0.851759
0.893857 0.982864 0.852242
0.895045 0.982911 0.85289
0.896626 0.982972 0.853757
0.898741 0.983053 0.854907
0.901537 0.983159 0.856439
0.905181 0.983297 0.85845
0.909884 0.983472 0.861096
0.915781 0.983689 0.864511
0.923079 0.983961 0.868922
0.931822 0.984341 0.87454
0.94192 0.984847 0.881535
0.953067 0.985462 0.889942
0.964559 0.986048 0.899732
0.975244 0.986212 0.910742
0.983809 0.986157 0.921254
0.990212 0.985967 0.931814
0.995001 0.985825 0.93967
0.996506 0.987674 0.9518
0.997403 0.989266 0.961409
0.998072 0.990451 0.968494
0.99857 0.991332 0.973724
0.99894 0.991986 0.977587
0.913224 0.986335 0.880072
0.913275 0.986337 0.880102
0.913325 0.986339 0.880131
0.913377 0.986341 0.880162
0.913444 0.986344 0.880202
0.913533 0.986348 0.880255
0.913654 0.986353 0.880327
0.913817 0.98636 0.880424
0.914036 0.98637 0.880555
