various/display_lut_tony_mc_mapface.cube
TITLE "utilities/display_lut_tony_mc_mapface.cube"
LUT_3D_SIZE 9
0.00177007 0.00177007 0.00177007
0.224299 -0.0246786 -0.026745
0.415819 0.0024313 -0.00891313
0.675838 0.0855683 0.054045
0.931982 0.264526 0.199808
0.997813 0.549081 0.460161
1 0.804914 0.735182
1 0.928399 0.896722
1 0.97261 0.961272
-0.019408 0.222107 -0.0239694
0.222596 0.222149 -0.0173077
0.4136 0.219487 0.00151089
0.673734 0.224527 0.0608822
0.930443 0.313966 0.203082
0.997515 0.560164 0.459121
1 0.806594 0.734581
1 0.928644 0.896565
1 0.972682 0.961225
0.0240518 0.404039 0.00550099
0.21705 0.404524 0.0133317
0.406348 0.404582 0.0333256
0.664157 0.392755 0.0850836
0.925047 0.412559 0.214966
0.996963 0.586652 0.463334
1 0.811088 0.733128
1 0.929309 0.896131
1 0.972877 0.961097
0.134159 0.62754 0.0890614
0.232939 0.628153 0.0952685
0.382409 0.629534 0.111414
0.636836 0.629377 0.160193
0.901739 0.602101 0.263147
0.994347 0.660353 0.476018
1 0.824705 0.733936
1 0.931487 0.894985
1 0.973517 0.960751
0.334445 0.827533 0.255073
0.36178 0.827945 0.259063
0.426082 0.829017 0.269525
0.579198 0.831541 0.30253
0.847895 0.829664 0.394142
0.981774 0.807497 0.537023
1 0.862498 0.742252
1 0.938102 0.895379
1 0.975476 0.960765
0.599435 0.932582 0.51
0.605029 0.932706 0.511763
0.619831 0.933035 0.516521
0.665473 0.934028 0.531626
0.781089 0.936231 0.576379
0.950332 0.934844 0.679593
0.997154 0.929972 0.788383
1 0.955235 0.90149
1 0.980686 0.962329
0.822076 0.972247 0.762513
0.823013 0.972277 0.762955
0.825544 0.972356 0.764155
0.833698 0.972614 0.768067
0.858519 0.973371 0.780181
0.91674 0.975444 0.813693
0.9831 0.975983 0.876484
0.999101 0.979479 0.932587
0.999727 0.988696 0.971449
0.933975 0.989449 0.909173
0.93413 0.989456 0.909265
0.934548 0.989475 0.909516
0.935919 0.989537 0.910343
0.940264 0.989733 0.912995
0.952595 0.990269 0.920876
0.977243 0.991728 0.940403
0.995551 0.992608 0.967533
0.998509 0.994581 0.983828
0.975456 0.995853 0.966799
0.975503 0.995855 0.966827
0.975629 0.995861 0.966902
0.976041 0.99588 0.96715
0.977354 0.995942 0.967946
0.98113 0.996111 0.970335
0.988995 0.996574 0.976418
0.995967 0.996893 0.985816
0.998306 0.997538 0.992334
-0.0298991 -0.0231962 0.223961
0.222697 -0.0168959 0.222547
0.412856 0.00991465 0.21797
0.671802 0.0896557 0.215124
0.930214 0.26582 0.26863
0.998106 0.549472 0.477627
1 0.804916 0.73918
1 0.928423 0.897496
1 0.97262 0.961499
-0.012175 0.222198 0.222589
0.22253 0.222388 0.222472
0.412618 0.21951 0.218892
0.67151 0.224953 0.217216
0.928984 0.314718 0.270525
0.99789 0.560022 0.478184
1 0.806595 0.738598
1 0.928667 0.89734
1 0.972691 0.961453
0.0296215 0.404258 0.214469
0.218007 0.405014 0.215873
0.406419 0.405032 0.218989
0.663039 0.392976 0.221834
0.924092 0.412921 0.277385
0.997206 0.587211 0.479233
1 0.811108 0.736987
1 0.929331 0.896911
1 0.972886 0.961325
0.138721 0.62771 0.21214
0.23547 0.628751 0.215169
0.38359 0.630011 0.222902
0.636761 0.629743 0.249098
0.900905 0.602412 0.309556
0.994606 0.660473 0.490959
1 0.824751 0.737239
1 0.931506 0.895733
1 0.973526 0.960971
0.337658 0.827964 0.293993
0.364663 0.828342 0.297379
0.428093 0.829351 0.306403
0.580287 0.831827 0.335062
0.847814 0.829889 0.416988
0.981846 0.80761 0.54679
1 0.862506 0.745032
1 0.938122 0.895971
1 0.975484 0.960942
0.600877 0.932771 0.518284
0.606439 0.932892 0.519998
0.621159 0.933216 0.524623
0.66648 0.934198 0.539334
0.781611 0.936364 0.58292
0.950407 0.934985 0.683781
0.997177 0.930026 0.79
1 0.95525 0.901953
1 0.980692 0.962467
0.822436 0.972316 0.763999
0.82337 0.972345 0.764437
0.825895 0.972425 0.765627
0.834023 0.972682 0.769507
0.858768 0.973436 0.781523
0.916862 0.975494 0.814764
0.983128 0.976021 0.877077
0.999104 0.979495 0.932796
0.999728 0.988702 0.971517
0.934052 0.989466 0.909438
0.934206 0.989473 0.909529
0.934624 0.989492 0.90978
0.935993 0.989554 0.910604
0.940328 0.989749 0.913246
0.952644 0.990284 0.921098
0.977263 0.991737 0.940555
0.995554 0.992613 0.967598
0.99851 0.994583 0.983852
0.97548 0.995858 0.966877
0.975526 0.99586 0.966905
0.975652 0.995866 0.96698
0.976064 0.995886 0.967227
0.977374 0.995947 0.96802
0.981146 0.996116 0.970402
0.989002 0.996577 0.976465
0.995968 0.996894 0.985838
0.998306 0.997539 0.992342
-0.0403362 0.00934998 0.41392
0.216704 0.0140984 0.410103
0.406928 0.0344006 0.406122
0.661579 0.106227 0.385997
0.922546 0.272995 0.38439
0.998832 0.550514 0.520502
1 0.805021 0.748821
1 0.928489 0.899563
1 0.972646 0.962107
0.00150439 0.221088 0.415269
0.218361 0.219881 0.411397
0.406882 0.219841 0.406522
0.661742 0.228478 0.38747
0.922604 0.318189 0.387159
0.998618 0.560916 0.520762
1 0.806648 0.74869
1 0.928732 0.899412
1 0.972718 0.962062
0.0519521 0.40475 0.406308
0.221881 0.405191 0.406417
0.406512 0.406368 0.406454
0.660095 0.392496 0.39032
0.920576 0.413933 0.391317
0.997978 0.58763 0.521623
1 0.811104 0.747541
1 0.929393 0.898996
1 0.972912 0.961938
0.150035 0.628474 0.37177
0.241441 0.629075 0.373388
0.386609 0.631326 0.378263
0.636637 0.630967 0.391015
0.898964 0.602911 0.404246
0.995301 0.660841 0.528321
1 0.824899 0.745947
1 0.931563 0.897685
1 0.97355 0.961546
0.345612 0.828517 0.376432
0.372083 0.829304 0.379134
0.433732 0.830308 0.385957
0.583145 0.832589 0.407651
0.847607 0.830562 0.471522
0.982034 0.807961 0.571819
1 0.862536 0.752421
1 0.938178 0.897564
1 0.975508 0.961419
0.604734 0.933287 0.5398
0.610211 0.933402 0.541389
0.624716 0.93371 0.545682
0.669179 0.934661 0.559409
0.783013 0.936735 0.600055
0.950606 0.935369 0.694878
0.99724 0.930168 0.794345
1 0.955289 0.9032
1 0.980708 0.96284
0.823406 0.972503 0.767997
0.824334 0.972532 0.768426
0.826841 0.972611 0.769588
0.83491 0.972864 0.773381
0.859441 0.973612 0.785136
0.917194 0.975629 0.817652
0.983205 0.976124 0.878676
0.999111 0.979538 0.933361
0.99973 0.988718 0.971701
0.934259 0.989513 0.910155
0.934413 0.98952 0.910247
0.934829 0.989538 0.910494
0.936193 0.9896 0.91131
0.940502 0.989794 0.913926
0.952775 0.990325 0.921699
0.977315 0.991763 0.940967
0.995563 0.992628 0.967776
0.998513 0.994589 0.983917
0.975544 0.995872 0.967088
0.97559 0.995875 0.967116
0.975715 0.995881 0.96719
0.976126 0.9959 0.967434
0.977429 0.995961 0.968221
0.981188 0.996129 0.970582
0.989021 0.996585 0.976593
0.995973 0.996899 0.985896
0.998307 0.997541 0.992364
-0.055 0.103978 0.668043
0.201993 0.105659 0.658241
0.380713 0.115384 0.649554
0.638596 0.163474 0.634952
0.899905 0.302862 0.582482
0.996982 0.55732 0.615147
1 0.805466 0.776528
1 0.928733 0.905516
1 0.972741 0.96388
0.0340098 0.233962 0.674159
0.210836 0.232374 0.664696
0.3826 0.232357 0.650488
0.638498 0.252471 0.635632
0.899735 0.340783 0.583768
0.997186 0.566829 0.616605
1 0.807081 0.776378
1 0.928973 0.905474
1 0.972812 0.963865
0.0894662 0.40007 0.672011
0.225432 0.399189 0.668725
0.388244 0.393715 0.654123
0.637751 0.394239 0.636333
0.898902 0.42328 0.587009
0.997711 0.591375 0.620531
1 0.811433 0.775874
1 0.929623 0.905353
1 0.973003 0.963823
0.205992 0.630123 0.636827
0.276473 0.630453 0.636825
0.402759 0.631562 0.636765
0.63615 0.635953 0.636031
0.893056 0.601678 0.595157
0.996853 0.662483 0.624998
1 0.82527 0.773792
1 0.931759 0.904195
1 0.973631 0.963472
0.368249 0.829594 0.550595
0.392138 0.829915 0.552011
0.449468 0.830939 0.555946
0.59166 0.835162 0.569834
0.847058 0.833327 0.604875
0.982699 0.808995 0.642308
1 0.862835 0.774681
1 0.938372 0.902668
1 0.975589 0.962953
0.616711 0.935044 0.60203
0.621938 0.935133 0.603289
0.635802 0.935377 0.606697
0.677959 0.93618 0.617761
0.787499 0.938087 0.650705
0.95121 0.936664 0.728616
0.997431 0.930652 0.807973
1 0.955422 0.907205
1 0.980763 0.964043
0.826523 0.973111 0.780711
0.82743 0.973138 0.781108
0.82988 0.973213 0.782186
0.83777 0.973456 0.785704
0.861598 0.974182 0.796641
0.918258 0.976068 0.826872
0.983448 0.976463 0.883824
0.999134 0.979681 0.935198
0.999737 0.988773 0.972301
0.934936 0.989664 0.912492
0.935088 0.98967 0.91258
0.9355 0.989689 0.91282
0.936846 0.989749 0.913608
0.941083 0.989938 0.916138
0.953206 0.990458 0.923657
0.977488 0.991846 0.942311
0.995593 0.992675 0.968358
0.998522 0.994608 0.984131
0.975753 0.99592 0.967777
0.975798 0.995922 0.967804
0.975922 0.995928 0.967876
0.976328 0.995946 0.968113
0.977611 0.996006 0.968877
0.981328 0.996171 0.971169
0.989083 0.996612 0.977009
0.995988 0.996914 0.986087
0.998312 0.997548 0.992438
0.0586539 0.304004 0.918767
0.198342 0.302292 0.910878
0.347967 0.30061 0.892097
0.56857 0.316833 0.871058
0.85107 0.400629 0.841223
0.985771 0.587368 0.779043
1 0.808216 0.830443
1 0.929456 0.920929
1 0.973031 0.96858
0.10799 0.351197 0.923566
0.21943 0.348306 0.915872
0.357719 0.344766 0.897518
0.570724 0.35364 0.87189
0.850878 0.423874 0.841749
0.985837 0.595048 0.779629
1 0.809772 0.830772
1 0.929695 0.920928
1 0.973101 0.968576
0.186844 0.445858 0.92907
0.25921 0.443216 0.922962
0.378862 0.436814 0.906304
0.575185 0.433165 0.873008
0.8502 0.478972 0.842796
0.985995 0.615055 0.781196
1 0.813939 0.831716
1 0.930344 0.920924
1 0.973291 0.968568
0.280522 0.623001 0.915016
0.324855 0.623253 0.91426
0.419331 0.621811 0.910282
0.591402 0.607588 0.880604
0.847697 0.611647 0.844173
0.986306 0.673216 0.78613
1 0.827025 0.834739
1 0.932458 0.920759
1 0.973914 0.968496
0.476303 0.831908 0.849371
0.491904 0.832115 0.849279
0.530985 0.83272 0.849027
0.635256 0.835137 0.848204
0.845724 0.845664 0.845657
0.984426 0.807988 0.79809
1 0.863793 0.835591
1 0.939021 0.91865
1 0.975857 0.967811
0.645484 0.936005 0.742847
0.649993 0.936164 0.74358
0.661992 0.936609 0.745586
0.700068 0.938241 0.752077
0.799553 0.942502 0.772156
0.952628 0.941004 0.814543
0.99791 0.931998 0.846535
1 0.955848 0.919094
1 0.980941 0.967661
0.835789 0.974999 0.817286
0.836627 0.975021 0.817596
0.838893 0.975082 0.818438
0.846231 0.975279 0.821188
0.868225 0.975903 0.829821
0.921428 0.977437 0.853719
0.984133 0.977523 0.899152
0.999194 0.980121 0.940857
0.999755 0.988943 0.974166
0.937055 0.990134 0.919707
0.937201 0.99014 0.919785
0.937596 0.990157 0.919999
0.938891 0.990211 0.920704
0.942965 0.990385 0.922968
0.954552 0.99087 0.929715
0.978022 0.992105 0.946494
0.995681 0.992824 0.970193
0.998549 0.994671 0.984814
0.976408 0.996067 0.969919
0.976452 0.996069 0.969943
0.976571 0.996074 0.970008
0.976963 0.996092 0.970223
0.9782 0.996147 0.970915
0.981764 0.996301 0.972997
0.989278 0.996695 0.978313
0.996033 0.996963 0.986692
0.998326 0.997569 0.992673
0.359502 0.619074 0.994314
0.386688 0.615732 0.99395
0.445307 0.607788 0.992532
0.565739 0.590734 0.984781
0.762028 0.598799 0.966982
0.954016 0.683802 0.944604
0.999791 0.823741 0.912988
1 0.9313 0.944226
1 0.973799 0.97622
0.370478 0.631164 0.994738
0.400432 0.626871 0.994353
0.455767 0.619014 0.993007
0.571409 0.601672 0.985528
0.763065 0.606853 0.967215
0.953984 0.6882 0.944795
0.999795 0.824964 0.913129
1 0.931539 0.944281
1 0.973869 0.976234
0.401774 0.659298 0.995581
0.423381 0.656451 0.995332
0.479929 0.646873 0.994059
0.583752 0.629794 0.987365
0.765664 0.627434 0.967752
0.95389 0.699788 0.945285
0.999806 0.828256 0.91351
1 0.932188 0.944431
1 0.97406 0.976271
0.480413 0.726212 0.996707
0.49508 0.724351 0.996563
0.530023 0.719427 0.995917
0.616963 0.703232 0.991047
0.772146 0.685069 0.969077
0.953543 0.734481 0.946635
0.999833 0.838715 0.914746
1 0.934296 0.944928
1 0.974681 0.976396
0.567945 0.833004 0.987347
0.576309 0.833177 0.987478
0.598018 0.833641 0.987801
0.667144 0.8344 0.988831
0.794316 0.819132 0.976949
0.952574 0.820094 0.949384
0.999862 0.868676 0.918543
1 0.940761 0.946559
1 0.976602 0.976822
0.758737 0.939212 0.953767
0.761191 0.939322 0.953785
0.767763 0.939623 0.953831
0.788322 0.940624 0.953929
0.844754 0.943902 0.953911
0.951669 0.950761 0.951178
0.999014 0.932645 0.926338
1 0.957105 0.948283
1 0.981547 0.977134
0.855188 0.976771 0.894464
0.855881 0.976815 0.89463
0.857753 0.976935 0.895083
0.863954 0.977339 0.896538
0.882876 0.978673 0.901267
0.928913 0.981113 0.913936
0.985367 0.980397 0.935586
0.999276 0.981319 0.955564
0.99978 0.98943 0.979171
0.942973 0.991417 0.938792
0.9431 0.991421 0.938847
0.943445 0.991432 0.938995
0.944577 0.991469 0.939485
0.948157 0.991588 0.941064
0.958326 0.991952 0.945827
0.97946 0.992805 0.957806
0.995892 0.993267 0.975348
0.998613 0.994864 0.98678
0.978262 0.996472 0.975709
0.978301 0.996474 0.975726
0.978406 0.996477 0.975773
0.978752 0.996489 0.975928
0.97985 0.996527 0.976431
0.983006 0.996645 0.977959
0.989817 0.996923 0.9819
0.996158 0.997108 0.988417
0.998365 0.997634 0.993361
0.686561 0.87012 1
0.692007 0.868964 1
0.705454 0.865835 1
0.736496 0.857444 1
0.798329 0.836306 1
0.905777 0.83085 0.993578
0.986005 0.880274 0.980769
1 0.943127 0.975528
1 0.97769 0.987112
0.688357 0.871822 1
0.693738 0.87071 1
0.707324 0.867585 1
0.738768 0.859096 1
0.799574 0.83829 1
0.905964 0.832193 0.993622
0.986005 0.880897 0.98081
1 0.94329 0.97555
1 0.97774 0.98712
0.692894 0.876194 1
0.698117 0.875196 1
0.71134 0.872365 1
0.74433 0.863521 1
0.802843 0.843501 1
0.906481 0.835763 0.993735
0.986003 0.882576 0.980919
1 0.943734 0.97561
1 0.977876 0.987141
0.713726 0.886587 1
0.717117 0.886085 1
0.725908 0.88467 1
0.755367 0.878123 1
0.8128 0.858756 1
0.907838 0.846874 0.994087
0.985993 0.887932 0.981263
1 0.945177 0.975806
1 0.978319 0.987209
0.755875 0.90921 1
0.75875 0.909082 1
0.766321 0.90869 1
0.78814 0.906612 1
0.833521 0.897086 1
0.911974 0.876962 0.994982
0.98593 0.903528 0.9822
1 0.949638 0.976425
1 0.979699 0.987435
0.812002 0.942122 0.99909
0.813282 0.942189 0.999113
0.816727 0.942372 0.999174
0.828633 0.942981 0.999341
0.861724 0.944677 0.999635
0.925145 0.940415 0.997585
0.985652 0.939081 0.983959
1 0.961501 0.978153
1 0.98341 0.988021
0.914063 0.979484 0.984567
0.914355 0.979505 0.984565
0.915148 0.979564 0.984561
0.917777 0.979756 0.984556
0.92599 0.980361 0.984552
0.947889 0.982056 0.984639
0.984469 0.983488 0.983738
0.999005 0.982722 0.981044
0.999698 0.990299 0.988731
0.954072 0.992334 0.971139
0.954167 0.99234 0.971158
0.954424 0.992357 0.971211
0.955271 0.992413 0.971385
0.957943 0.992593 0.971975
0.965629 0.993136 0.973902
0.982137 0.994102 0.978844
0.99608 0.994331 0.985956
0.998671 0.995369 0.99111
0.981914 0.9968 0.986119
0.981943 0.996802 0.986126
0.982023 0.996807 0.986145
0.982287 0.996825 0.986208
0.983121 0.996881 0.98642
0.985547 0.997051 0.98711
0.990941 0.99736 0.988936
0.996392 0.997464 0.992141
0.99844 0.997808 0.994946
0.877051 0.958003 1
0.878092 0.957948 1
0.880855 0.957787 1
0.889221 0.957147 1
0.907647 0.95377 1
0.935031 0.943036 1
0.976525 0.948085 0.998791
0.996143 0.969981 0.994439
0.998688 0.986747 0.994999
0.877391 0.958173 1
0.878427 0.95812 1
0.881172 0.957963 1
0.889494 0.957341 1
0.908017 0.953983 1
0.935204 0.943342 1
0.976542 0.948253 0.998793
0.996142 0.970046 0.994444
0.998688 0.986769 0.995001
0.878293 0.958626 1
0.879311 0.958577 1
0.882013 0.958433 1
0.890216 0.957855 1
0.909002 0.954551 1
0.935668 0.944163 1
0.976589 0.948707 0.998799
0.996138 0.970223 0.994458
0.998686 0.986827 0.995007
0.881096 0.960005 1
0.881995 0.959972 1
0.884555 0.959866 1
0.8924 0.959423 1
0.91144 0.95653 1
0.937212 0.946701 1
0.976738 0.95017 0.998813
0.996124 0.9708 0.994501
0.998682 0.987016 0.995026
0.894406 0.963471 1
0.894967 0.963461 1
0.89647 0.96343 1
0.901196 0.963298 1
0.915814 0.962212 1
0.941632 0.953848 1
0.977193 0.954537 0.998821
0.996079 0.972598 0.99463
0.998668 0.987609 0.995086
0.910664 0.970519 1
0.911068 0.970541 1
0.912214 0.970602 1
0.915853 0.970785 1
0.927331 0.971206 1
0.949937 0.969496 1
0.978362 0.96536 0.998636
0.995944 0.977514 0.994943
0.998627 0.989262 0.995245
0.947549 0.983374 0.999863
0.94767 0.983383 0.999863
0.947996 0.983409 0.999863
0.949065 0.983496 0.999862
0.952431 0.983777 0.999857
0.961924 0.984622 0.999795
0.981357 0.984571 0.998521
0.995703 0.987252 0.99539
0.998552 0.992719 0.995583
0.980582 0.994078 0.996205
0.980608 0.99408 0.996205
0.980678 0.994087 0.996205
0.980908 0.994109 0.996204
0.981647 0.994179 0.996203
0.983856 0.994397 0.996184
0.989288 0.994998 0.996036
0.99608 0.995974 0.995845
0.998558 0.996488 0.996174
0.990936 0.997411 0.995667
0.990945 0.997412 0.995668
0.990969 0.997414 0.99567
0.991048 0.997421 0.995675
0.991302 0.997443 0.995693
0.992069 0.997513 0.995747
0.994014 0.997705 0.995883
0.996916 0.998027 0.996401
0.998567 0.998208 0.99719
0.954794 0.983535 1
0.955091 0.98352 1
0.955881 0.983477 1
0.958296 0.983305 1
0.963806 0.982362 1
0.972696 0.979369 1
0.987132 0.980979 0.999633
0.995527 0.987668 0.998145
0.998171 0.993641 0.99792
0.954894 0.983587 1
0.955189 0.983573 1
0.955974 0.983532 1
0.958378 0.983364 1
0.963916 0.982427 1
0.97275 0.979459 1
0.98714 0.98103 0.999633
0.995528 0.98769 0.998146
0.998172 0.993649 0.99792
0.955159 0.983726 1
0.95545 0.983713 1
0.956224 0.983675 1
0.958596 0.98352 1
0.964211 0.982599 1
0.972898 0.979702 1
0.987162 0.981168 0.999635
0.99553 0.987748 0.99815
0.998172 0.993669 0.997922
0.955988 0.98415 1
0.956247 0.984142 1
0.956984 0.984116 1
0.959262 0.984 1
0.964954 0.983197 1
0.973387 0.980456 1
0.987233 0.981614 0.99964
0.995539 0.987938 0.998164
0.998175 0.993735 0.997928
0.95985 0.985233 1
0.960018 0.985231 1
0.96047 0.985226 1
0.961899 0.985202 1
0.966368 0.984926 1
0.974804 0.982595 1
0.987452 0.982953 0.999642
0.995567 0.988533 0.998203
0.998182 0.993943 0.997948
0.96514 0.987519 1
0.965261 0.987527 1
0.965605 0.987548 1
0.966702 0.987611 1
0.970191 0.987763 1
0.977606 0.987367 1
0.988014 0.986324 0.999586
0.99565 0.990181 0.998299
0.998205 0.994531 0.998
0.977051 0.991769 0.999958
0.977093 0.991773 0.999958
0.977207 0.991783 0.999958
0.97758 0.991819 0.999958
0.978762 0.991935 0.999956
0.982148 0.992282 0.999938
0.989393 0.992471 0.999551
0.995862 0.993562 0.998437
0.998263 0.995816 0.998112
0.989294 0.99592 0.998707
0.989305 0.995921 0.998707
0.989333 0.995925 0.998707
0.989425 0.995936 0.998707
0.989725 0.995972 0.998707
0.990631 0.996085 0.998701
0.993068 0.996428 0.998656
0.996588 0.997027 0.998475
0.998448 0.997502 0.998287
0.994889 0.998004 0.998216
0.994893 0.998004 0.998216
0.994902 0.998005 0.998217
0.994934 0.998009 0.998218
0.995038 0.998021 0.998224
0.995355 0.998058 0.99824
0.996224 0.998171 0.998282
0.997692 0.998389 0.998403
0.998721 0.998582 0.998557
