various/display_lut_aces_10.cube
TITLE "utilities/display_lut_aces_10.cube"
LUT_3D_SIZE 9
7.89041e-10 7.89037e-10 7.8904e-10
0.0836236 -0.055 -0.055
0.234629 -0.055 -0.055
0.532631 -0.055 -0.0111753
0.933183 -0.00215952 0.0681895
1 0.513088 0.254608
1 0.837007 0.606308
1 0.953987 0.870865
1 0.995602 0.966094
-0.055 0.0780115 -0.055
0.0945042 0.0805229 -0.055
0.257832 0.0787666 -0.0450673
0.548832 0.0615643 -0.00592407
0.932832 0.166868 0.0738215
1 0.539893 0.260235
1 0.840601 0.609395
1 0.954383 0.871229
1 0.99564 0.966137
-0.055 0.25667 -0.055
0.105509 0.257979 -0.055
0.290438 0.259626 -0.055
0.590308 0.26595 0.00152376
0.929673 0.344895 0.0874456
1 0.603092 0.276312
1 0.849679 0.617749
1 0.955442 0.872214
1 0.995742 0.966253
-0.055 0.581302 -0.00271123
0.15552 0.581637 0.00649711
0.351538 0.582345 0.0253273
0.634023 0.585166 0.0665253
0.915948 0.616949 0.150998
1 0.735889 0.335427
1 0.87342 0.644242
1 0.958731 0.875377
1 0.996075 0.966636
0.564252 0.867238 0.324506
0.585357 0.866704 0.326153
0.635079 0.8654 0.330636
0.746007 0.86252 0.345268
0.895648 0.861542 0.390385
0.998955 0.876992 0.504858
1 0.91845 0.713802
1 0.967555 0.884913
1 0.997088 0.967874
0.867958 0.965714 0.716228
0.869909 0.965632 0.716618
0.875051 0.965415 0.71768
0.890299 0.964789 0.721163
0.926429 0.963479 0.732204
0.979239 0.962923 0.763341
1 0.968693 0.827706
1 0.983995 0.90946
1 0.999786 0.971596
0.966477 1 0.910543
0.966695 1 0.910583
0.967283 1 0.910695
0.96916 1 0.911065
0.97464 1 0.912281
0.987458 0.999579 0.916149
1 0.999281 0.927204
1 1 0.950349
1 1 0.980607
0.998702 1 0.980902
0.998725 1 0.980907
0.998786 1 0.980919
0.998989 1 0.980959
0.999649 1 0.98109
1 1 0.981523
1 1 0.982895
1 1 0.986783
1 1 0.99469
1 1 1
1 1 1
1 1 1
1 1 1
1 1 1
1 1 1
1 1 1
1 1 1
1 1 1
-0.055 -0.0133687 0.0875236
0.0786794 -0.0176602 0.0888843
0.243741 -0.055 0.0931014
0.538439 -0.055 0.106785
0.932987 0.062035 0.160288
1 0.518641 0.313607
1 0.837671 0.627868
1 0.954055 0.873364
1 0.995608 0.966385
-0.055 0.0929245 0.0932711
0.0928513 0.0928342 0.0928175
0.254063 0.097472 0.0999635
0.549572 0.0884097 0.114033
0.932068 0.185344 0.165554
1 0.544993 0.318896
1 0.841234 0.630732
1 0.95445 0.873711
1 0.995646 0.966427
-0.055 0.266057 0.108132
0.10658 0.267601 0.109973
0.29285 0.269695 0.11459
0.587581 0.277823 0.129579
0.927898 0.354848 0.178407
1 0.607253 0.333595
1 0.850235 0.638428
1 0.955507 0.874651
1 0.995748 0.966541
-0.055 0.585862 0.149988
0.16116 0.586167 0.15202
0.35394 0.586838 0.157511
0.634671 0.589575 0.175416
0.913922 0.621125 0.230858
1 0.737852 0.384272
1 0.87379 0.662454
1 0.958788 0.877673
1 0.99608 0.96692
0.565671 0.867729 0.375357
0.586568 0.867199 0.376743
0.635833 0.865905 0.380525
0.745865 0.863049 0.392953
0.894784 0.862059 0.431974
0.997892 0.877366 0.534255
1 0.918612 0.725873
1 0.967596 0.886898
1 0.997093 0.968143
0.867632 0.965724 0.727956
0.869579 0.965642 0.728313
0.874711 0.965427 0.729288
0.889933 0.964804 0.732486
0.926021 0.963501 0.742639
0.978858 0.962953 0.771351
1 0.968724 0.8321
1 0.984011 0.910765
1 0.999789 0.971824
0.966432 1 0.911807
0.966649 1 0.911847
0.967236 1 0.911955
0.969112 1 0.912317
0.974588 1 0.913503
0.987401 0.999579 0.91728
1 0.999282 0.928091
1 1 0.950833
1 1 0.980749
0.998696 1 0.98104
0.998719 1 0.981044
0.99878 1 0.981056
0.998983 1 0.981095
0.999643 1 0.981226
1 1 0.981656
1 1 0.983017
1 1 0.986878
1 1 0.994738
1 1 1
1 1 1
1 1 1
1 1 1
1 1 1
1 1 1
1 1 1
1 1 1
1 1 1
-0.055 0.0478358 0.276403
0.0737856 0.0494958 0.277175
0.258597 0.0409071 0.278995
0.56679 -0.055 0.28787
0.933847 0.138195 0.325376
1 0.533221 0.439533
1 0.839474 0.678178
1 0.954243 0.879694
1 0.995625 0.967163
-0.055 0.132604 0.280588
0.0887287 0.134682 0.281386
0.272108 0.135695 0.283827
0.567915 0.13442 0.293222
0.931132 0.227795 0.33001
1 0.558424 0.443199
1 0.842955 0.680352
1 0.954636 0.880004
1 0.995662 0.967204
-0.055 0.291145 0.291588
0.0996392 0.292797 0.29272
0.295924 0.295887 0.29585
0.580274 0.308162 0.306084
0.923565 0.379878 0.34218
1 0.618271 0.453311
1 0.851754 0.686209
1 0.955686 0.880846
1 0.995765 0.967315
-0.055 0.597881 0.330829
0.171479 0.598124 0.332141
0.358489 0.5987 0.335707
0.635479 0.601227 0.347463
0.907689 0.632239 0.384256
1 0.74305 0.489073
1 0.874806 0.704654
1 0.958948 0.883588
1 0.996096 0.967682
0.569459 0.86905 0.48287
0.589802 0.868531 0.483844
0.637847 0.867265 0.486512
0.745481 0.864473 0.495372
0.892487 0.863456 0.523939
0.995076 0.878384 0.602917
1 0.919066 0.754267
1 0.967707 0.892049
1 0.997106 0.968866
0.866926 0.965767 0.755558
0.868862 0.965686 0.755842
0.873964 0.965474 0.756617
0.889108 0.964859 0.759164
0.925065 0.963574 0.767272
0.977925 0.963045 0.790664
1 0.968813 0.843093
1 0.984055 0.914182
1 0.999799 0.972436
0.966316 1 0.915118
0.966533 1 0.915156
0.967119 1 0.915257
0.96899 1 0.915595
0.974454 1 0.916706
0.987253 0.99958 0.920248
1 0.999286 0.930427
1 1 0.952125
1 1 0.981132
0.99868 1 0.98141
0.998703 1 0.981415
0.998764 1 0.981426
0.998967 1 0.981465
0.999627 1 0.981593
1 1 0.982014
1 1 0.983347
1 1 0.987135
1 1 0.994868
1 1 1
1 1 1
1 1 1
1 1 1
1 1 1
1 1 1
1 1 1
1 1 1
1 1 1
-0.055 0.18217 0.615115
-0.055 0.183897 0.615304
0.26705 0.1859 0.61575
0.604415 0.180463 0.617882
0.942135 0.270549 0.630821
1 0.576461 0.676524
1 0.845335 0.780737
1 0.954875 0.897281
1 0.995681 0.969592
-0.055 0.240657 0.616143
0.0115561 0.242323 0.616389
0.278178 0.245 0.616999
0.609333 0.246618 0.619458
0.93659 0.32887 0.632243
1 0.598549 0.677836
1 0.84856 0.781651
1 0.95526 0.897514
1 0.995718 0.969629
-0.055 0.37325 0.618921
0.033535 0.37475 0.619247
0.299703 0.377689 0.62009
0.617133 0.384556 0.623175
0.921676 0.446072 0.636134
1 0.650753 0.68157
1 0.856722 0.784137
1 0.956288 0.898145
1 0.995819 0.969729
0.039051 0.634432 0.631188
0.198068 0.634559 0.631613
0.370516 0.6349 0.632784
0.636918 0.636868 0.63682
0.88884 0.665362 0.650772
1 0.758726 0.69591
1 0.878231 0.792295
1 0.959485 0.900209
1 0.996148 0.970058
0.582885 0.873311 0.691949
0.601453 0.872828 0.692354
0.645565 0.871652 0.693472
0.74542 0.869072 0.697248
0.886314 0.867984 0.709783
0.987376 0.8818 0.744951
1 0.920655 0.816938
1 0.968084 0.906666
1 0.997151 0.971125
0.865971 0.966025 0.816893
0.867862 0.965946 0.81705
0.872847 0.965742 0.817481
0.88767 0.96515 0.818907
0.923017 0.963913 0.823554
0.975568 0.963418 0.837697
1 0.969144 0.871129
1 0.984206 0.924113
1 0.999833 0.974356
0.966012 1 0.92476
0.966227 1 0.92479
0.966807 1 0.924873
0.968663 1 0.925146
0.974087 1 0.926047
0.98683 0.999588 0.928934
1 0.999303 0.937333
1 1 0.956096
1 1 0.982353
0.99863 1 0.982592
0.998653 1 0.982595
0.998714 1 0.982606
0.998917 1 0.982642
0.999576 1 0.982762
1 1 0.983155
1 1 0.984402
1 1 0.987961
1 1 0.995288
1 1 1
1 1 1
1 1 1
1 1 1
1 1 1
1 1 1
1 1 1
1 1 1
1 1 1
-0.055 0.460673 0.892877
0.172033 0.461339 0.892604
0.358595 0.462916 0.891879
0.637441 0.468843 0.889904
0.931226 0.512678 0.886979
1 0.681832 0.885607
1 0.862359 0.896514
1 0.95698 0.933379
1 0.995871 0.976191
-0.0304908 0.49258 0.891578
0.186804 0.493114 0.891328
0.365506 0.494463 0.890671
0.639205 0.499724 0.888872
0.927262 0.539765 0.886214
1 0.695483 0.885224
1 0.864886 0.89662
1 0.957338 0.93348
1 0.995907 0.976217
0.113761 0.566766 0.88846
0.22603 0.56707 0.888263
0.384844 0.567895 0.887749
0.644371 0.571582 0.88633
0.916885 0.603673 0.8843
1 0.727686 0.884394
1 0.871308 0.896939
1 0.958298 0.933756
1 0.996006 0.976289
0.295455 0.728503 0.881552
0.348677 0.728306 0.881459
0.456717 0.727836 0.881219
0.666659 0.727306 0.880604
0.892052 0.739643 0.880316
1 0.798064 0.88338
1 0.888997 0.898197
1 0.961288 0.934667
1 0.996327 0.976525
0.640639 0.886631 0.88026
0.653914 0.886253 0.880277
0.686044 0.885337 0.880331
0.761943 0.883326 0.880606
0.882016 0.881995 0.881977
0.974969 0.892959 0.887167
1 0.925963 0.903326
1 0.969373 0.937629
1 0.997304 0.977294
0.868837 0.96735 0.90219
0.870561 0.96728 0.902232
0.875115 0.967097 0.902346
0.88872 0.966565 0.902729
0.92158 0.965446 0.904035
0.972029 0.964984 0.908402
1 0.970413 0.920706
1 0.984751 0.946474
1 0.999949 0.979667
0.965608 1 0.946588
0.965816 1 0.946605
0.966379 1 0.946651
0.968178 1 0.946804
0.973455 1 0.947313
0.985953 0.999661 0.948978
1 0.999392 0.954086
1 1 0.966475
1 1 0.985888
0.998498 1 0.986018
0.99852 1 0.986021
0.998581 1 0.986029
0.998783 1 0.986058
0.999439 1 0.986154
1 1 0.986471
1 1 0.98748
1 1 0.990396
1 1 0.996554
1 1 1
1 1 1
1 1 1
1 1 1
1 1 1
1 1 1
1 1 1
1 1 1
1 1 1
0.566896 0.793867 0.978664
0.587739 0.793558 0.978553
0.636879 0.792876 0.97827
0.746574 0.792131 0.977497
0.894181 0.798338 0.975927
0.999627 0.831975 0.973558
1 0.899005 0.9718
1 0.963251 0.975849
1 0.996512 0.989142
0.574595 0.8004 0.978204
0.594649 0.800079 0.978099
0.642066 0.799361 0.97783
0.748437 0.798484 0.977096
0.893343 0.804128 0.975595
0.998391 0.8359 0.973351
1 0.900447 0.971744
1 0.963539 0.97586
1 0.996545 0.989153
0.594831 0.816308 0.977077
0.612884 0.815984 0.976984
0.655877 0.815253 0.976745
0.753554 0.814239 0.976096
0.891422 0.818557 0.974767
0.995284 0.845794 0.972833
1 0.904223 0.971603
1 0.964313 0.975891
1 0.996635 0.989184
0.651904 0.85584 0.974258
0.664855 0.855545 0.974194
0.696241 0.854862 0.974031
0.770535 0.853656 0.973591
0.888117 0.855052 0.97269
0.987379 0.871538 0.97154
1 0.915213 0.971234
1 0.966736 0.976004
1 0.996929 0.989285
0.764559 0.917066 0.970267
0.770093 0.91689 0.970245
0.784205 0.91645 0.970188
0.822269 0.915361 0.970034
0.893707 0.914371 0.969757
0.974726 0.918875 0.969651
1 0.939937 0.970779
1 0.973384 0.976459
1 0.997826 0.989622
0.887266 0.972168 0.969594
0.888532 0.972117 0.969596
0.891893 0.971984 0.969601
0.902065 0.971593 0.96962
0.927456 0.970749 0.969723
0.970268 0.970259 0.970253
1 0.97461 0.972272
1 0.986608 0.97837
1 1 0.990697
0.966666 1 0.978033
0.966852 1 0.978037
0.967355 1 0.978049
0.968964 1 0.978091
0.973752 1 0.97823
0.985307 1 0.978705
1 0.999827 0.980301
1 1 0.984736
1 1 0.993733
0.998304 1 0.993653
0.998326 1 0.993655
0.998386 1 0.993659
0.998584 1 0.993675
0.999229 1 0.993725
1 1 0.993892
1 1 0.994433
1 1 0.996045
1 1 0.99973
1 1 1
1 1 1
1 1 1
1 1 1
1 1 1
1 1 1
1 1 1
1 1 1
1 1 1
0.862584 0.938058 1
0.864557 0.938008 1
0.869759 0.93788 1
0.88518 0.937551 1
0.921712 0.937213 1
0.975177 0.939586 1
1 0.951859 1
1 0.976938 1
1 0.99839 1
0.86335 0.938793 1
0.865301 0.938743 1
0.870445 0.938616 1
0.885704 0.938284 1
0.921905 0.937932 1
0.975069 0.94022 1
1 0.952291 1
1 0.977095 1
1 0.998417 1
0.86542 0.940733 1
0.867312 0.940683 1
0.872301 0.940556 1
0.887128 0.940221 1
0.922442 0.939831 1
0.974791 0.941903 1
1 0.953445 1
1 0.977519 1
1 0.99849 1
0.87202 0.946503 1
0.873731 0.946454 1
0.878251 0.946328 1
0.891752 0.945987 1
0.924312 0.945504 1
0.974032 0.947039 1
1 0.957022 1
1 0.97887 1
1 0.998729 1
0.890714 0.960701 1
0.89197 0.960661 1
0.895305 0.960555 1
0.905397 0.960256 1
0.930564 0.95972 1
0.972825 0.960206 1
1 0.966556 1
1 0.982785 1
1 0.999494 1
0.928593 0.983549 1
0.929161 0.983527 1
0.930685 0.983468 1
0.935464 0.983286 1
0.948686 0.982834 1
0.975001 0.982355 1
1 0.984031 1
1 0.991506 1
1 1 1
0.973535 1 1
0.973668 1 1
0.974031 1 1
0.975202 1 1
0.978749 1 1
0.987605 1 1
1 1 1
1 1 1
1 1 1
0.998637 1 1
0.998657 1 1
0.998714 1 1
0.998899 1 1
0.999503 1 1
1 1 1
1 1 1
1 1 1
1 1 1
1 1 1
1 1 1
1 1 1
1 1 1
1 1 1
1 1 1
1 1 1
1 1 1
1 1 1
0.963733 0.990831 1
0.963953 0.990825 1
0.964547 0.990806 1
0.966442 0.99075 1
0.971976 0.990611 1
0.984922 0.990467 1
1 0.99138 1
1 0.995402 1
1 1 1
0.963823 0.99091 1
0.964041 0.990903 1
0.964633 0.990885 1
0.966521 0.990829 1
0.972034 0.990689 1
0.984943 0.990544 1
1 0.991448 1
1 0.995444 1
1 1 1
0.964066 0.991123 1
0.964282 0.991116 1
0.964867 0.991098 1
0.966734 0.991043 1
0.972191 0.990903 1
0.985 0.990754 1
1 0.991633 1
1 0.995558 1
1 1 1
0.96486 0.991807 1
0.965069 0.9918 1
0.965632 0.991782 1
0.967434 0.991728 1
0.972712 0.991589 1
0.985193 0.991426 1
1 0.992226 1
1 0.995928 1
1 1 1
0.967343 0.993838 1
0.967528 0.993832 1
0.968029 0.993815 1
0.969632 0.993764 1
0.974396 0.993626 1
0.985865 0.99343 1
1 0.994007 1
1 0.997052 1
1 1 1
0.974216 0.998622 1
0.97435 0.998617 1
0.974711 0.998603 1
0.975878 0.998558 1
0.979411 0.998433 1
0.98822 0.998193 1
1 0.998317 1
1 0.999947 1
1 1 1
0.98782 1 1
0.987877 1 1
0.988032 1 1
0.988537 1 1
0.990101 1 1
0.994261 1 1
1 1 1
1 1 1
1 1 1
1 1 1
1 1 1
1 1 1
1 1 1
1 1 1
1 1 1
1 1 1
1 1 1
1 1 1
1 1 1
1 1 1
1 1 1
1 1 1
1 1 1
1 1 1
1 1 1
1 1 1
1 1 1
0.997969 1 1
0.997992 1 1
0.998054 1 1
0.998258 1 1
0.998923 1 1
1 1 1
1 1 1
1 1 1
1 1 1
0.997977 1 1
0.998 1 1
0.998061 1 1
0.998266 1 1
0.99893 1 1
1 1 1
1 1 1
1 1 1
1 1 1
0.997998 1 1
0.99802 1 1
0.998082 1 1
0.998286 1 1
0.998949 1 1
1 1 1
1 1 1
1 1 1
1 1 1
0.998067 1 1
0.998089 1 1
0.998151 1 1
0.998354 1 1
0.999012 1 1
1 1 1
1 1 1
1 1 1
1 1 1
0.998295 1 1
0.998317 1 1
0.998377 1 1
0.998575 1 1
0.99922 1 1
1 1 1
1 1 1
1 1 1
1 1 1
0.999032 1 1
0.999052 1 1
0.999108 1 1
0.999293 1 1
0.999894 1 1
1 1 1
1 1 1
1 1 1
1 1 1
1 1 1
1 1 1
1 1 1
1 1 1
1 1 1
1 1 1
1 1 1
1 1 1
1 1 1
1 1 1
1 1 1
1 1 1
1 1 1
1 1 1
1 1 1
1 1 1
1 1 1
1 1 1
1 1 1
1 1 1
1 1 1
1 1 1
1 1 1
1 1 1
1 1 1
1 1 1
1 1 1
