various/display_lut_aces_13.cube
TITLE "utilities/display_lut_aces_13.cube"
LUT_3D_SIZE 5
7.89041e-10 7.89037e-10 7.8904e-10
0.244242 -0.055 -0.0216276
0.944947 0.153181 0.140311
1 0.867147 0.745386
1 0.998936 0.9845
-0.055 0.28965 -0.055
0.291294 0.29463 -0.055
0.937834 0.393523 0.141793
1 0.874316 0.748603
1 0.999015 0.984538
0.572168 0.889874 0.329547
0.642244 0.887913 0.335761
0.895994 0.88275 0.39623
1 0.929857 0.781092
1 0.999842 0.98494
0.967998 1 0.913014
0.968774 1 0.913162
0.975868 1 0.914704
1 1 0.929206
1 1 0.989115
1 1 1
1 1 1
1 1 1
1 1 1
1 1 1
-0.055 -0.0112293 0.277409
0.259391 -0.055 0.279523
0.946106 0.155302 0.325417
1 0.867205 0.762721
1 0.998936 0.984703
-0.055 0.289623 0.291689
0.295927 0.295895 0.295849
0.933924 0.396627 0.341762
1 0.874364 0.765603
1 0.999015 0.984741
0.571605 0.889433 0.485452
0.640917 0.887508 0.489165
0.892842 0.882493 0.527268
1 0.929854 0.794868
1 0.999842 0.985139
0.967783 1 0.917343
0.968558 1 0.917478
0.975648 1 0.91889
1 1 0.932252
1 1 0.989276
1 1 1
1 1 1
1 1 1
1 1 1
1 1 1
0.0894532 0.222746 0.902977
0.312477 0.220098 0.901947
0.970397 0.219966 0.895344
1 0.86771 0.896465
1 0.998939 0.986803
0.145148 0.345555 0.899631
0.360646 0.347553 0.89858
0.956941 0.4063 0.892238
1 0.874814 0.896995
1 0.999018 0.986837
0.599713 0.887153 0.880428
0.657425 0.885588 0.880463
0.882017 0.881999 0.881977
1 0.929977 0.903435
1 0.999845 0.987198
0.966456 1 0.947437
0.96722 1 0.947499
0.974232 1 0.94816
1 1 0.954901
1 1 0.990944
1 1 1
1 1 1
1 1 1
1 1 1
1 1 1
0.852366 0.835972 1
0.86047 0.836119 1
0.92407 0.838872 1
1 0.890689 1
1 0.998979 1
0.853549 0.843714 1
0.861434 0.843843 1
0.92362 0.846337 1
1 0.895141 1
1 0.999059 1
0.867327 0.904199 1
0.873184 0.904211 1
0.923661 0.904895 1
1 0.933685 1
1 0.999888 1
0.969168 1 1
0.969785 1 1
0.975574 1 1
1 1 1
1 1 1
1 1 1
1 1 1
1 1 1
1 1 1
1 1 1
0.997296 0.995941 1
0.997383 0.995943 1
0.998268 0.995965 1
1 0.996305 1
1 1 1
0.997306 0.996028 1
0.997392 0.99603 1
0.998275 0.996051 1
1 0.996386 1
1 1 1
0.997413 0.996905 1
0.997496 0.996907 1
0.998349 0.996925 1
1 0.99721 1
1 1 1
0.998869 1 1
0.998935 1 1
0.999633 1 1
1 1 1
1 1 1
1 1 1
1 1 1
1 1 1
1 1 1
1 1 1
