various/display_lut_aces_13.cube
TITLE "utilities/display_lut_aces_13.cube"
LUT_3D_SIZE 33
7.89041e-10 7.89037e-10 7.8904e-10
0.0126564 0 0
0.0392904 0 0
0.0642697 -0.055 -0.055
0.0873872 -0.055 -0.055
0.115706 -0.055 -0.055
0.150819 -0.055 -0.0491845
0.193928 -0.055 -0.0316769
0.244242 -0.055 -0.0216276
0.301421 -0.055 -0.0131868
0.370963 -0.055 -0.00305179
0.455534 -0.055 0.00977457
0.552802 -0.055 0.0256314
0.655793 -0.055 0.0454606
0.761064 -0.055 0.0703951
0.862866 0.0287752 0.101923
0.944947 0.153181 0.140311
1 0.265597 0.185849
1 0.375538 0.241395
1 0.483452 0.310396
1 0.588818 0.391914
1 0.686473 0.479318
1 0.763847 0.571469
1 0.822205 0.664763
1 0.867147 0.745386
1 0.900868 0.807297
1 0.927818 0.855634
1 0.948638 0.891791
1 0.96504 0.920358
1 0.97753 0.942703
1 0.986968 0.960291
1 0.993995 0.974057
1 0.998936 0.9845
0 0.0100969 0
0.0103404 0.0106366 0
0.0317078 0.0107588 0
0.0586003 -0.000804897 -0.055
0.0875226 -0.0023291 -0.055
0.119604 -0.00473207 -0.055
0.156688 -0.00888675 -0.0495518
0.200227 -0.0173627 -0.0317675
0.249598 -0.055 -0.0223505
0.306568 -0.055 -0.0136116
0.375786 -0.055 -0.0030898
0.459887 -0.055 0.00991945
0.556231 -0.055 0.02583
0.658244 -0.055 0.0457692
0.762675 -0.055 0.0708082
0.863579 0.0724508 0.102391
0.944827 0.172179 0.140721
1 0.277923 0.186232
1 0.383894 0.241893
1 0.489328 0.31099
1 0.59298 0.39246
1 0.689064 0.479816
1 0.765284 0.571905
1 0.823036 0.665088
1 0.867602 0.745583
1 0.901135 0.807409
1 0.927972 0.855698
1 0.948727 0.891826
1 0.965091 0.920379
1 0.977559 0.942716
1 0.986985 0.960298
1 0.994004 0.974061
1 0.998941 0.984502
0 0.0326245 0
0.0100736 0.0337621 0
0.0335632 0.0344971 0
0.0600647 0.0348002 -0.055
0.0895664 0.0349615 -0.055
0.123539 0.0347065 -0.055
0.162531 0.0339028 -0.055
0.206794 0.0325038 -0.0361002
0.255316 0.0291442 -0.0257106
0.312118 0.0234802 -0.0157364
0.380961 0.0127697 -0.00423149
0.464425 -0.011656 0.00934803
0.559742 -0.055 0.0256251
0.66072 -0.0409419 0.0458622
0.764277 0.034127 0.0711017
0.864249 0.103413 0.102778
0.944658 0.190107 0.14108
1 0.28997 0.1866
1 0.392173 0.242387
1 0.495174 0.311585
1 0.597127 0.393008
1 0.691633 0.480317
1 0.766709 0.572342
1 0.823865 0.665413
1 0.868056 0.745781
1 0.901401 0.807521
1 0.928126 0.855762
1 0.948816 0.891862
1 0.965143 0.9204
1 0.977588 0.942728
1 0.987001 0.960306
1 0.994013 0.974065
1 0.998946 0.984505
-0.055 0.0610395 -0.055
-0.00637549 0.0621611 -0.055
0.0340184 0.0630262 -0.055
0.0623318 0.0636972 -0.055
0.0925528 0.0642745 -0.055
0.127556 0.0646445 -0.055
0.167996 0.064702 -0.055
0.212868 0.0643811 -0.055
0.261277 0.0628391 -0.0315615
0.318085 0.0608183 -0.0190906
0.386583 0.0573069 -0.00625765
0.469313 0.0508153 0.00794464
0.56349 0.0449329 0.0249555
0.663309 0.0503086 0.045704
0.76592 0.0776663 0.0712642
0.864892 0.130071 0.103083
0.94443 0.207762 0.141392
1 0.302128 0.186964
1 0.400627 0.242894
1 0.501166 0.3122
1 0.601386 0.393572
1 0.694259 0.480835
1 0.768166 0.572794
1 0.824714 0.665748
1 0.86852 0.745984
1 0.901674 0.807636
1 0.928285 0.855828
1 0.948908 0.891899
1 0.965196 0.920422
1 0.977617 0.94274
1 0.987018 0.960313
1 0.994022 0.97407
1 0.998951 0.984507
-0.055 0.0935878 -0.055
-0.0238335 0.0946127 -0.055
0.031953 0.0954776 -0.055
0.0633018 0.0962182 -0.055
0.095213 0.0969772 -0.055
0.131614 0.0976831 -0.055
0.173342 0.0982725 -0.055
0.218437 0.0977597 -0.055
0.268338 0.0972084 -0.055
0.325713 0.096825 -0.0257225
0.394033 0.0959483 -0.00994658
0.476024 0.0938454 0.00560021
0.568513 0.0935421 0.0235431
0.666729 0.0987887 0.0450879
0.768027 0.118093 0.0712299
0.865651 0.160411 0.103329
0.94405 0.229678 0.141703
1 0.317498 0.187411
1 0.411444 0.243545
1 0.508864 0.312997
1 0.606866 0.394301
1 0.697621 0.481507
1 0.770029 0.573379
1 0.825804 0.666182
1 0.869118 0.746247
1 0.902027 0.807784
1 0.928489 0.855913
1 0.949027 0.891946
1 0.965265 0.92045
1 0.977655 0.942756
1 0.98704 0.960323
1 0.994034 0.974075
1 0.998957 0.98451
-0.055 0.132831 -0.055
-0.055 0.133776 -0.055
0.0239374 0.134608 -0.055
0.0613489 0.135361 -0.055
0.0964446 0.136186 -0.055
0.134516 0.136682 -0.055
0.176394 0.136612 -0.055
0.223253 0.136427 -0.055
0.275661 0.136289 -0.055
0.335117 0.136329 -0.0478585
0.404049 0.136456 -0.0168751
0.485247 0.136671 0.00162944
0.575436 0.139168 0.0212189
0.671458 0.146219 0.0437711
0.770848 0.162796 0.0707121
0.866538 0.197322 0.103371
0.943375 0.258157 0.141947
0.998676 0.33773 0.187978
1 0.425871 0.244417
1 0.519182 0.314078
1 0.614227 0.395288
1 0.702102 0.482423
1 0.772513 0.574175
1 0.827267 0.666768
1 0.869919 0.746602
1 0.902502 0.807985
1 0.928764 0.856027
1 0.949187 0.89201
1 0.965358 0.920489
1 0.977707 0.942778
1 0.987069 0.960336
1 0.994049 0.974083
1 0.998966 0.984515
-0.055 0.178239 -0.055
-0.055 0.178758 -0.055
0.00258687 0.179194 -0.055
0.0542482 0.179564 -0.055
0.0942307 0.179936 -0.055
0.134568 0.180305 -0.055
0.178223 0.180628 -0.055
0.227025 0.180863 -0.055
0.282179 0.181033 -0.055
0.344899 0.181224 -0.055
0.416357 0.181595 -0.0334951
0.497175 0.183206 -0.00530548
0.584714 0.187455 0.0173615
0.677843 0.196089 0.0415152
0.774621 0.212604 0.0695082
0.867471 0.242943 0.10287
0.942226 0.294654 0.142026
0.996695 0.364228 0.18868
1 0.445043 0.245586
1 0.532976 0.31555
1 0.624028 0.396633
1 0.708048 0.48367
1 0.77582 0.575254
1 0.829223 0.66756
1 0.870991 0.747081
1 0.903139 0.808256
1 0.929134 0.856182
1 0.949402 0.892097
1 0.965483 0.92054
1 0.977777 0.942808
1 0.987109 0.960353
1 0.994071 0.974093
1 0.998978 0.98452
-0.055 0.228975 -0.055
-0.055 0.229465 -0.055
-0.055 0.2299 -0.055
0.040083 0.230298 -0.055
0.0885299 0.230755 -0.055
0.132867 0.231284 -0.055
0.178988 0.231864 -0.055
0.229708 0.232455 -0.055
0.287494 0.232975 -0.055
0.353647 0.233429 -0.055
0.429016 0.23407 -0.055
0.510879 0.236684 -0.0196501
0.596289 0.242032 0.0105471
0.686123 0.251718 0.0376611
0.779558 0.268324 0.0674111
0.8684 0.296804 0.101654
0.940387 0.340333 0.141855
0.993794 0.398698 0.189535
1 0.470385 0.247162
1 0.55135 0.31756
1 0.636932 0.398482
1 0.715885 0.485378
1 0.780221 0.576721
1 0.831829 0.668631
1 0.87242 0.747728
1 0.903996 0.808622
1 0.92963 0.856392
1 0.949692 0.892214
1 0.96565 0.92061
1 0.977871 0.942848
1 0.987162 0.960377
1 0.9941 0.974106
1 0.998993 0.984528
-0.055 0.28965 -0.055
-0.055 0.290117 -0.055
-0.055 0.290555 -0.055
0.000334136 0.29098 -0.055
0.0748318 0.291491 -0.055
0.126776 0.292122 -0.055
0.177086 0.292879 -0.055
0.230885 0.293737 -0.055
0.291294 0.29463 -0.055
0.36077 0.29561 -0.055
0.440114 0.297272 -0.055
0.523399 0.300215 -0.055
0.608764 0.305859 -0.00260342
0.695927 0.315964 0.0310364
0.785623 0.331984 0.0639377
0.869521 0.356724 0.100166
0.937834 0.393523 0.141793
0.98957 0.442747 0.190629
1 0.503623 0.249311
1 0.575699 0.320318
1 0.653751 0.401043
1 0.726118 0.487726
1 0.786045 0.578716
1 0.835283 0.67008
1 0.874316 0.748603
1 0.905142 0.809117
1 0.930296 0.856675
1 0.950082 0.892372
1 0.965877 0.920704
1 0.977997 0.942902
1 0.987234 0.960409
1 0.994139 0.974124
1 0.999015 0.984538
-0.055 0.362947 -0.055
-0.055 0.363396 -0.055
-0.055 0.363827 -0.055
-0.055 0.364256 -0.055
0.0372595 0.364786 -0.055
0.110609 0.365601 -0.055
0.169885 0.366627 -0.055
0.229383 0.36788 -0.055
0.293966 0.369339 -0.055
0.367033 0.370925 -0.055
0.447523 0.372818 -0.055
0.532157 0.375669 -0.055
0.618918 0.38048 -0.042528
0.706057 0.388647 0.0217965
0.792625 0.401729 0.0602028
0.870841 0.422433 0.0991814
0.934505 0.453206 0.14252
0.983995 0.494639 0.192636
1 0.546284 0.252366
1 0.607686 0.3241
1 0.675341 0.404634
1 0.739293 0.490977
1 0.793692 0.581438
1 0.839829 0.672042
1 0.876833 0.749783
1 0.906672 0.809784
1 0.931186 0.857056
1 0.950604 0.892585
1 0.966181 0.92083
1 0.978167 0.942975
1 0.987331 0.960453
1 0.994191 0.974149
1 0.999044 0.984553
-0.055 0.44884 -0.055
-0.055 0.449212 -0.055
-0.055 0.449572 -0.055
-0.055 0.44993 -0.055
-0.055 0.450373 -0.055
0.0866139 0.450938 -0.055
0.161416 0.451642 -0.055
0.228805 0.452493 -0.055
0.298573 0.45347 -0.055
0.373541 0.454595 -0.055
0.453311 0.45605 -0.055
0.538099 0.458116 -0.055
0.625962 0.461476 -0.055
0.714333 0.467267 0.0153671
0.799134 0.477215 0.0588218
0.871842 0.493935 0.100327
0.930295 0.5191 0.145226
0.976982 0.553227 0.19663
1 0.596605 0.25727
1 0.648075 0.329487
1 0.702396 0.409755
1 0.755905 0.495522
1 0.803624 0.585166
1 0.845755 0.6747
1 0.880169 0.751373
1 0.908705 0.810686
1 0.932371 0.857571
1 0.951304 0.892873
1 0.966588 0.921002
1 0.978395 0.943073
1 0.987461 0.960511
1 0.994262 0.974182
1 0.999083 0.984571
-0.055 0.5392 -0.055
-0.055 0.539417 -0.055
-0.055 0.539624 -0.055
-0.055 0.539828 -0.055
-0.055 0.540079 -0.055
0.0868045 0.540393 -0.055
0.169078 0.540775 -0.055
0.240464 0.541223 -0.055
0.310808 0.541781 -0.055
0.38373 0.542504 -0.055
0.46112 0.543478 -0.055
0.5437 0.544872 -0.055
0.630711 0.547064 -0.033469
0.719604 0.550841 0.0242278
0.802286 0.557955 0.0651752
0.871037 0.570661 0.10678
0.924802 0.590517 0.152219
0.968284 0.617903 0.204281
1 0.652776 0.265524
1 0.692589 0.337899
1 0.734685 0.417232
1 0.776173 0.501951
1 0.816313 0.590298
1 0.853368 0.678304
1 0.884559 0.753513
1 0.911391 0.811904
1 0.93394 0.858266
1 0.952238 0.893263
1 0.967132 0.921234
1 0.978702 0.943206
1 0.987636 0.96059
1 0.994356 0.974228
1 0.999136 0.984597
-0.055 0.631198 -0.055
-0.055 0.631275 -0.055
-0.055 0.631346 -0.055
-0.055 0.631416 -0.055
0.0657753 0.631503 -0.055
0.144206 0.631617 -0.055
0.208091 0.631765 -0.055
0.270013 0.631957 -0.055
0.333883 0.632212 -0.055
0.401668 0.632562 -0.055
0.474452 0.63307 -0.0183417
0.552612 0.633861 0.0112295
0.635935 0.635161 0.0346193
0.722094 0.637492 0.0577507
0.800775 0.642388 0.086657
0.865956 0.651456 0.1234
0.917189 0.665626 0.167266
0.958298 0.685068 0.218862
0.989276 0.709612 0.280068
1 0.738122 0.351022
1 0.768858 0.428341
1 0.800236 0.511056
1 0.832119 0.597404
1 0.862948 0.683198
1 0.890278 0.75639
1 0.91491 0.813548
1 0.936005 0.859202
1 0.95348 0.893789
1 0.967857 0.921546
1 0.979112 0.943386
1 0.98787 0.960697
1 0.994483 0.974288
1 0.999207 0.984632
-0.055 0.720729 0.0349089
0.0725861 0.720704 0.0363998
0.120501 0.720679 0.0378579
0.155718 0.720652 0.0393338
0.19163 0.720618 0.0411982
0.230799 0.720571 0.0436461
0.273962 0.720508 0.0468384
0.321806 0.720425 0.0509661
0.374952 0.720319 0.0562513
0.433907 0.720195 0.0629588
0.499019 0.720071 0.0713981
0.570354 0.719996 0.0819205
0.647527 0.720074 0.0949454
0.725407 0.720789 0.111052
0.797483 0.722987 0.130929
0.858372 0.727732 0.158812
0.908584 0.735705 0.197135
0.948641 0.747408 0.24543
0.978625 0.762965 0.304092
1 0.781513 0.370908
1 0.802791 0.444507
1 0.82638 0.523826
1 0.850833 0.607293
1 0.874612 0.68985
1 0.897623 0.760249
1 0.919468 0.815768
1 0.938698 0.860464
1 0.95512 0.8945
1 0.968818 0.921969
1 0.979659 0.943628
1 0.988183 0.960841
1 0.994654 0.97437
1 0.999303 0.984678
0.260126 0.794546 0.131433
0.276494 0.794436 0.132159
0.291759 0.794328 0.132883
0.30652 0.794216 0.133626
0.324364 0.794074 0.134583
0.346642 0.793882 0.135868
0.374047 0.793628 0.137592
0.407254 0.793292 0.139898
0.446863 0.792852 0.142974
0.493358 0.792285 0.147066
0.547038 0.79157 0.152481
0.607814 0.790704 0.159614
0.672433 0.789871 0.168985
0.737337 0.789378 0.181233
0.79881 0.789682 0.197112
0.853466 0.79135 0.217488
0.901399 0.79482 0.246694
0.940131 0.800838 0.287921
0.969796 0.80983 0.339311
0.993543 0.821712 0.399295
1 0.836246 0.467096
1 0.852843 0.541512
1 0.870505 0.620915
1 0.8884 0.698819
1 0.90685 0.76541
1 0.925271 0.818763
1 0.942199 0.862159
1 0.957269 0.895461
1 0.970084 0.922539
1 0.980385 0.943956
1 0.9886 0.961036
1 0.99488 0.974481
1 0.999433 0.984741
0.426678 0.849069 0.227433
0.435287 0.848926 0.227952
0.443654 0.848784 0.228471
0.452041 0.848639 0.229004
0.462546 0.848452 0.229693
0.476191 0.848203 0.230621
0.493721 0.847871 0.231871
0.515953 0.847432 0.233555
0.543726 0.846854 0.235819
0.577401 0.846121 0.23886
0.616687 0.845239 0.242944
0.661048 0.844241 0.248418
0.709185 0.843215 0.255733
0.758883 0.84235 0.265467
0.80722 0.841947 0.278282
0.853911 0.842218 0.294815
0.896811 0.843554 0.315845
0.932619 0.846504 0.345482
0.961932 0.851347 0.386398
0.985624 0.858249 0.437576
1 0.867227 0.497721
1 0.877861 0.565539
1 0.889959 0.639204
1 0.903524 0.710589
1 0.917928 0.772253
1 0.932471 0.822801
1 0.946693 0.86443
1 0.960052 0.896759
1 0.971734 0.923308
1 0.981342 0.944399
1 0.989152 0.961298
1 0.995181 0.974631
1 0.999608 0.984826
0.572168 0.889874 0.329547
0.577134 0.889741 0.32993
0.582 0.889609 0.330312
0.586912 0.889475 0.330707
0.593111 0.889305 0.331216
0.601232 0.88908 0.331903
0.611764 0.888785 0.33283
0.625253 0.888402 0.334079
0.642244 0.887913 0.335761
0.66321 0.887302 0.338026
0.688414 0.886563 0.341067
0.717734 0.885709 0.345145
0.75046 0.884796 0.350595
0.78548 0.88392 0.357848
0.822654 0.883147 0.367425
0.860282 0.882665 0.379969
0.895994 0.88275 0.39623
0.927711 0.883713 0.417023
0.955852 0.885714 0.446359
0.979165 0.88912 0.48693
0.99714 0.894204 0.53769
1 0.900988 0.597136
1 0.909363 0.662493
1 0.919126 0.725662
1 0.929857 0.781092
1 0.94098 0.828211
1 0.952333 0.867463
1 0.963598 0.898513
1 0.973856 0.924347
1 0.982594 0.944998
1 0.989877 0.961653
1 0.995577 0.974833
1 0.999842 0.98494
0.686718 0.919177 0.432252
0.689377 0.919087 0.432533
0.691995 0.918997 0.432814
0.69465 0.918906 0.433104
0.698021 0.918791 0.433478
0.702468 0.918639 0.433983
0.708287 0.918439 0.434665
0.71582 0.91818 0.435584
0.725439 0.917849 0.436824
0.737494 0.917437 0.438494
0.752341 0.916933 0.440742
0.770462 0.916322 0.443759
0.791977 0.915612 0.4478
0.816639 0.914835 0.453195
0.843712 0.914065 0.460365
0.8719 0.91343 0.469834
0.899454 0.913119 0.482238
0.926346 0.91324 0.4983
0.951658 0.913986 0.518809
0.973527 0.915639 0.547677
0.991115 0.918428 0.587517
1 0.922471 0.637017
1 0.927828 0.691029
1 0.934381 0.744361
1 0.941883 0.792441
1 0.950226 0.835264
1 0.959101 0.871475
1 0.968003 0.900882
1 0.976532 0.925748
1 0.984212 0.945806
1 0.990821 0.962132
1 0.996096 0.975106
1 1 0.985094
0.767726 0.942366 0.534486
0.769169 0.94231 0.534692
0.770598 0.942255 0.534899
0.772056 0.942199 0.535111
0.773918 0.942127 0.535385
0.776397 0.942031 0.535756
0.779678 0.941904 0.536255
0.783992 0.941737 0.536929
0.789613 0.94152 0.537839
0.796852 0.941241 0.539064
0.806031 0.940889 0.540714
0.81744 0.940457 0.542931
0.831261 0.939943 0.545908
0.847466 0.939365 0.549894
0.865695 0.938762 0.555213
0.88531 0.938203 0.562275
0.906387 0.937725 0.571587
0.928168 0.937432 0.583759
0.949463 0.937476 0.599499
0.968883 0.938045 0.619563
0.985744 0.939291 0.647136
0.999457 0.941371 0.683106
1 0.944445 0.724291
1 0.948598 0.766521
1 0.953749 0.806668
1 0.95976 0.844222
1 0.966395 0.876638
1 0.973211 0.904066
1 0.979841 0.927633
1 0.986265 0.946898
1 0.992031 0.962778
1 0.996764 0.975474
1 1 0.985301
0.828117 0.960095 0.635095
0.828914 0.960062 0.635241
0.829704 0.960028 0.635387
0.830513 0.959994 0.635538
0.831548 0.95995 0.635732
0.832929 0.959892 0.635993
0.834763 0.959814 0.636347
0.837186 0.959712 0.636823
0.840362 0.959579 0.637465
0.844484 0.959408 0.63833
0.849763 0.95919 0.639493
0.856403 0.958919 0.641055
0.864588 0.958594 0.643149
0.874634 0.958203 0.645945
0.886687 0.957752 0.649664
0.900691 0.957259 0.654584
0.91634 0.956768 0.661042
0.933044 0.956348 0.669435
0.949928 0.956101 0.680196
0.966267 0.956136 0.693746
0.981593 0.956564 0.710402
0.994757 0.957546 0.732551
1 0.959238 0.760562
1 0.961731 0.791474
1 0.965041 0.82383
1 0.969101 0.855242
1 0.973764 0.883216
1 0.978711 0.908249
1 0.983785 0.930146
1 0.988803 0.948371
1 0.99355 0.96365
1 0.997613 0.975969
1 1 0.985579
0.871037 0.974127 0.723041
0.871479 0.974107 0.723128
0.87192 0.974088 0.723214
0.872372 0.974068 0.723304
0.872952 0.974042 0.723419
0.87373 0.974007 0.723574
0.87477 0.973961 0.723784
0.876156 0.9739 0.724067
0.877994 0.973819 0.724449
0.880418 0.973713 0.724963
0.883586 0.973574 0.725654
0.887685 0.973396 0.726583
0.892913 0.973171 0.727828
0.899465 0.972894 0.729494
0.907489 0.972564 0.731714
0.917041 0.972188 0.734658
0.928014 0.971786 0.738537
0.940088 0.971398 0.7436
0.952912 0.971074 0.750128
0.966172 0.970871 0.758405
0.979165 0.97088 0.768674
0.99105 0.971218 0.781099
1 0.972003 0.797748
1 0.973314 0.819232
1 0.975224 0.843539
1 0.977747 0.868213
1 0.980809 0.891504
1 0.984276 0.913605
1 0.988 0.933413
1 0.991781 0.950349
1 0.995398 0.964824
1 0.998673 0.976635
1 1 0.985951
0.904793 0.98487 0.790617
0.905052 0.984857 0.790665
0.905309 0.984845 0.790713
0.905573 0.984833 0.790763
0.905913 0.984817 0.790827
0.90637 0.984795 0.790913
0.906982 0.984767 0.79103
0.907799 0.984728 0.791188
0.908888 0.984677 0.791401
0.91033 0.98461 0.791688
0.912226 0.984522 0.792075
0.914701 0.984407 0.792595
0.917891 0.984261 0.793295
0.921942 0.984078 0.794234
0.926987 0.983854 0.795492
0.933116 0.983591 0.797171
0.940434 0.98329 0.799402
0.948947 0.982961 0.802349
0.958479 0.98263 0.806211
0.968681 0.982341 0.811217
0.979039 0.982153 0.817616
0.98892 0.982145 0.825644
0.99789 0.982392 0.835469
1 0.982971 0.848462
1 0.98397 0.864803
1 0.985455 0.882725
1 0.987384 0.901571
1 0.989667 0.920265
1 0.992215 0.937555
1 0.994892 0.952942
1 0.997516 0.966394
1 1 0.977519
1 1 0.986449
0.930982 0.992901 0.842963
0.931129 0.992894 0.842991
0.931275 0.992887 0.843019
0.931426 0.99288 0.843047
0.931619 0.99287 0.843085
0.93188 0.992857 0.843134
0.93223 0.99284 0.843202
0.9327 0.992817 0.843293
0.933328 0.992787 0.843415
0.934165 0.992746 0.843581
0.935274 0.992693 0.843804
0.936738 0.992622 0.844105
0.938653 0.992531 0.844509
0.941132 0.992413 0.845052
0.944296 0.992264 0.84578
0.948265 0.992082 0.846754
0.953134 0.991863 0.848051
0.958942 0.991614 0.84977
0.965633 0.991346 0.852034
0.973027 0.991082 0.854986
0.980796 0.990861 0.858789
0.988593 0.990725 0.863608
0.996156 0.990721 0.869579
1 0.990914 0.876777
1 0.991373 0.886404
1 0.992153 0.898916
1 0.993229 0.913274
1 0.994585 0.928243
1 0.996171 0.942692
1 0.997901 0.956263
1 0.999716 0.968436
1 1 0.978687
1 1 0.987112
0.951703 0.998919 0.882315
0.951789 0.998915 0.88233
0.951875 0.99891 0.882345
0.951963 0.998906 0.882361
0.952076 0.9989 0.882381
0.952229 0.998892 0.882409
0.952435 0.998882 0.882446
0.952712 0.998867 0.882496
0.953082 0.998849 0.882563
0.953577 0.998824 0.882654
0.954237 0.99879 0.882777
0.95511 0.998746 0.882942
0.95626 0.998688 0.883166
0.957762 0.998613 0.883466
0.9597 0.998518 0.88387
0.962164 0.998397 0.884413
0.965239 0.99825 0.88514
0.968984 0.998075 0.886111
0.973407 0.997878 0.887403
0.978439 0.99767 0.889112
0.984017 0.997463 0.891356
0.98995 0.997282 0.89427
0.995925 0.997162 0.898007
1 0.997146 0.902715
1 0.997287 0.908517
1 0.997608 0.916268
1 0.998094 0.926193
1 0.998767 0.937344
1 0.999627 0.948924
1 1 0.960387
1 1 0.970999
1 1 0.980196
1 1 0.987988
0.967998 1 0.913014
0.968046 1 0.913023
0.968094 1 0.913032
0.968144 1 0.913042
0.968208 1 0.913054
0.968294 1 0.91307
0.96841 1 0.913092
0.968565 1 0.913122
0.968774 1 0.913162
0.969054 1 0.913216
0.969428 1 0.91329
0.969925 1 0.913389
0.970582 1 0.913522
0.971446 1 0.913701
0.972569 1 0.913943
0.974019 1 0.914268
0.975868 1 0.914704
0.978183 1 0.915287
0.981017 1 0.916066
0.984386 1 0.9171
0.988253 1 0.918464
0.992501 1 0.92025
0.996931 1 0.922562
1 1 0.925513
1 1 0.929206
1 1 0.933712
1 1 0.93966
1 1 0.947333
1 1 0.956122
1 1 0.965282
1 1 0.974118
1 1 0.982101
1 1 0.989115
0.980078 1 0.937148
0.980105 1 0.937153
0.980132 1 0.937158
0.98016 1 0.937164
0.980196 1 0.937171
0.980245 1 0.93718
0.980311 1 0.937192
0.980399 1 0.937209
0.980518 1 0.937232
0.980677 1 0.937263
0.98089 1 0.937304
0.981175 1 0.93736
0.981555 1 0.937436
0.982058 1 0.937538
0.98272 1 0.937675
0.983582 1 0.937859
0.984695 1 0.938108
0.986107 1 0.938442
0.987866 1 0.938888
0.99 1 0.939485
0.992511 1 0.940279
0.995346 1 0.941328
0.998392 1 0.942705
1 1 0.944494
1 1 0.946785
1 1 0.949666
1 1 0.953211
1 1 0.957943
1 1 0.964006
1 1 0.970831
1 1 0.977767
1 1 0.984441
1 1 0.99053
0.988812 1 0.955913
0.988827 1 0.955916
0.988842 1 0.955919
0.988857 1 0.955922
0.988877 1 0.955926
0.988904 1 0.955932
0.98894 1 0.955939
0.988989 1 0.955949
0.989054 1 0.955963
0.989142 1 0.955981
0.98926 1 0.956005
0.989418 1 0.956039
0.989629 1 0.956083
0.989909 1 0.956144
0.99028 1 0.956225
0.990767 1 0.956335
0.991399 1 0.956483
0.992211 1 0.956682
0.993234 1 0.956949
0.994496 1 0.957305
0.996009 1 0.957782
0.997757 1 0.958415
0.999761 1 0.95925
1 1 0.960342
1 1 0.961754
1 1 0.963555
1 1 0.965808
1 1 0.968559
1 1 0.972194
1 1 0.976778
1 1 0.981913
1 1 0.98721
1 1 0.992252
0.994587 1 0.970622
0.994595 1 0.970624
0.994603 1 0.970626
0.99461 1 0.970627
0.99462 1 0.97063
0.994635 1 0.970633
0.994653 1 0.970637
0.994678 1 0.970643
0.994712 1 0.970651
